;FLAVOR:Marlin
;TIME:3011
;Filament used: 1.71698m
;Layer height: 0.22
;MINX:100.304
;MINY:100.325
;MINZ:0.08
;MAXX:119.675
;MAXY:119.675
;MAXZ:64.98
;Generated with Cura_SteamEngine 4.2.1
M140 S60
M105
M190 S60
M104 S200
M105
M109 S200
M82 ;absolute extrusion mode
M201 X500.00 Y500.00 Z100.00 E5000.00 ;Setup machine max acceleration
M203 X500.00 Y500.00 Z10.00 E50.00 ;Setup machine max feedrate
M204 P500.00 R1000.00 T500.00 ;Setup Print/Retract/Travel acceleration
M205 X8.00 Y8.00 Z0.40 E5.00 ;Setup Jerk
M220 S100 ;Reset Feedrate
M221 S100 ;Reset Flowrate

G28 ;Home

G92 E0 ;Reset Extruder
G1 Z2.0 F3000 ;Move Z Axis up
G1 X10.1 Y20 Z0.28 F5000.0 ;Move to start position
G1 X10.1 Y200.0 Z0.28 F1500.0 E15 ;Draw the first line
G1 X10.4 Y200.0 Z0.28 F5000.0 ;Move to side a little
G1 X10.4 Y20 Z0.28 F1500.0 E30 ;Draw the second line
G92 E0 ;Reset Extruder
G1 Z2.0 F3000 ;Move Z Axis up

G92 E0
G92 E0
G1 F2700 E-5
;LAYER_COUNT:296
;LAYER:0
M107
G0 F6000 X103.603 Y102.617 Z0.08
;TYPE:SUPPORT
G1 F2700 E0
G1 F1200 X104.69 Y101.959 E0.0186
G1 X105.521 Y101.413 E0.03315
G1 X105.623 Y101.361 E0.03482
G1 X105.958 Y101.162 E0.04052
G1 X107.004 Y100.817 E0.05664
G1 X107.434 Y100.66 E0.06334
G1 X108.113 Y100.429 E0.07384
G1 X109.301 Y100.351 E0.09126
G1 X111.186 Y100.351 E0.11885
G1 X111.394 Y100.352 E0.12189
G1 X113.33 Y100.876 E0.15124
G1 X114.011 Y101.199 E0.16227
G1 X114.606 Y101.458 E0.17177
G1 X115.989 Y102.345 E0.19581
G1 X116.6 Y102.907 E0.20796
G1 X116.832 Y103.149 E0.21287
G1 X117.669 Y103.935 E0.22967
G1 X118.864 Y106.016 E0.26479
G1 X118.943 Y106.24 E0.26827
G1 X119.107 Y106.745 E0.27604
G1 X119.121 Y106.768 E0.27643
G1 X119.247 Y107.16 E0.28246
G1 X119.335 Y107.577 E0.28869
G1 X119.409 Y108.081 E0.29615
G1 X119.454 Y108.482 E0.30205
G1 X119.555 Y110.193 E0.32714
G1 X119.656 Y110.595 E0.3332
G1 X119.649 Y110.996 E0.33907
G1 X119.337 Y112.74 E0.365
G1 X118.954 Y113.717 E0.38036
G1 X118.09 Y115.41 E0.40817
G1 X117.334 Y116.31 E0.42538
G1 X116.917 Y116.848 E0.43534
G1 X116.18 Y117.432 E0.4491
G1 X115.347 Y118.132 E0.46502
G1 X115.22 Y118.196 E0.4671
G1 X113.508 Y119.072 E0.49525
G1 X113.052 Y119.19 E0.50214
G1 X112.335 Y119.456 E0.51333
G1 X110.646 Y119.671 E0.53825
G1 X108.74 Y119.671 E0.56614
G1 X108.457 Y119.592 E0.57044
G1 X106.577 Y119.105 E0.59886
G1 X105.663 Y118.647 E0.61382
G1 X104.957 Y118.335 E0.62512
G1 X102.939 Y116.758 E0.6626
G1 X102.815 Y116.617 E0.66535
G1 X101.979 Y115.373 E0.68728
G1 X101.856 Y115.227 E0.69008
G1 X101.4 Y114.567 E0.70182
G1 X100.614 Y112.533 E0.73373
G1 X100.513 Y111.874 E0.74348
G1 X100.354 Y111.022 E0.75617
G1 X100.304 Y109.257 E0.78201
G1 X100.454 Y108.436 E0.79422
G1 X100.6 Y107.914 E0.80215
G1 X100.966 Y106.378 E0.82526
G1 X101.991 Y104.472 E0.85693
G1 X103.603 Y102.617 E0.8929
G0 F6000 X103.891 Y102.957
G1 F1200 X104.925 Y102.331 E0.91059
G1 X105.744 Y101.793 E0.92493
G1 X105.836 Y101.747 E0.92643
G1 X106.141 Y101.565 E0.93163
G1 X107.148 Y101.233 E0.94715
G1 X107.576 Y101.076 E0.95382
G1 X108.202 Y100.864 E0.96349
G1 X109.315 Y100.791 E0.97981
G1 X111.333 Y100.792 E1.00935
G1 X113.175 Y101.29 E1.03727
G1 X113.829 Y101.6 E1.04786
G1 X114.397 Y101.847 E1.05693
G1 X115.718 Y102.694 E1.07989
G1 X116.295 Y103.224 E1.09136
G1 X116.522 Y103.462 E1.09617
G1 X117.319 Y104.21 E1.11217
G1 X118.463 Y106.202 E1.14578
G1 X118.528 Y106.386 E1.14864
G1 X118.704 Y106.93 E1.15701
G1 X118.718 Y106.953 E1.1574
G1 X118.82 Y107.27 E1.16227
G1 X118.904 Y107.668 E1.16823
G1 X118.972 Y108.13 E1.17506
G1 X119.015 Y108.515 E1.18073
G1 X119.118 Y110.26 E1.20631
G1 X119.215 Y110.646 E1.21214
G1 X119.21 Y110.955 E1.21666
G1 X118.912 Y112.616 E1.24136
G1 X118.55 Y113.54 E1.25588
G1 X117.721 Y115.165 E1.28258
G1 X116.992 Y116.034 E1.29917
G1 X116.601 Y116.537 E1.3085
G1 X115.902 Y117.091 E1.32155
G1 X115.103 Y117.763 E1.33683
G1 X115.021 Y117.804 E1.33817
G1 X113.35 Y118.658 E1.36563
G1 X112.92 Y118.77 E1.37214
G1 X112.226 Y119.027 E1.38297
G1 X110.621 Y119.231 E1.40664
G1 X108.801 Y119.231 E1.43328
G1 X108.571 Y119.167 E1.43677
G1 X106.731 Y118.69 E1.46459
G1 X105.851 Y118.249 E1.479
G1 X105.187 Y117.956 E1.48962
G1 X103.241 Y116.435 E1.52576
G1 X103.162 Y116.346 E1.5275
G1 X102.331 Y115.108 E1.54932
G1 X102.205 Y114.959 E1.55218
G1 X101.791 Y114.359 E1.56285
G1 X101.042 Y112.421 E1.59325
G1 X100.947 Y111.8 E1.60245
G1 X100.793 Y110.973 E1.61476
G1 X100.745 Y109.291 E1.63938
G1 X100.883 Y108.537 E1.6506
G1 X101.026 Y108.024 E1.6584
G1 X101.38 Y106.537 E1.68076
G1 X102.356 Y104.723 E1.71091
G1 X103.891 Y102.957 E1.74515
G1 F2700 E-3.25485
G1 F600 Z0.28
G0 F6000 X105.561 Y105.196 Z0.28
G1 F600 Z0.08
G1 F2700 E1.74515
G1 F1200 X105.196 Y105.561 E1.75271
G1 X104.889 Y105.921 E1.75963
G1 X104.588 Y106.326 E1.76702
G1 X104.331 Y106.735 E1.77408
G1 X104.108 Y107.161 E1.78112
G1 X103.911 Y107.614 E1.78835
G1 X103.748 Y108.083 E1.79562
G1 X103.623 Y108.539 E1.80254
G1 X103.533 Y109.022 E1.80973
G1 X103.476 Y109.525 E1.81713
G1 X103.459 Y110.005 E1.82416
G1 X103.477 Y110.487 E1.83122
G1 X103.534 Y110.987 E1.83859
G1 X103.624 Y111.465 E1.84571
G1 X103.75 Y111.93 E1.85276
G1 X103.916 Y112.398 E1.86002
G1 X104.113 Y112.848 E1.86721
G1 X104.335 Y113.271 E1.8742
G1 X104.595 Y113.685 E1.88136
G1 X104.893 Y114.084 E1.88865
G1 X105.2 Y114.444 E1.89557
G1 X105.561 Y114.805 E1.90304
G1 X105.92 Y115.112 E1.90995
G1 X106.324 Y115.411 E1.91731
G1 X106.736 Y115.669 E1.92442
G1 X107.161 Y115.892 E1.93145
G1 X107.614 Y116.089 E1.93868
G1 X108.083 Y116.253 E1.94595
G1 X108.545 Y116.378 E1.95295
G1 X109.025 Y116.467 E1.9601
G1 X109.517 Y116.523 E1.96734
G1 X110.006 Y116.541 E1.9745
G1 X110.493 Y116.521 E1.98164
G1 X110.982 Y116.467 E1.98884
G1 X111.464 Y116.377 E1.99601
G1 X111.931 Y116.25 E2.00309
G1 X112.398 Y116.084 E2.01035
G1 X112.848 Y115.887 E2.01754
G1 X113.272 Y115.665 E2.02454
G1 X113.685 Y115.405 E2.03168
G1 X114.092 Y115.103 E2.0391
G1 X114.448 Y114.794 E2.046
G1 X114.805 Y114.438 E2.05338
G1 X115.114 Y114.077 E2.06033
G1 X115.412 Y113.674 E2.06767
G1 X115.669 Y113.265 E2.07473
G1 X115.892 Y112.839 E2.08177
G1 X116.089 Y112.386 E2.089
G1 X116.252 Y111.917 E2.09627
G1 X116.378 Y111.456 E2.10326
G1 X116.467 Y110.977 E2.11039
G1 X116.524 Y110.475 E2.11778
G1 X116.541 Y109.995 E2.12481
G1 X116.523 Y109.513 E2.13187
G1 X116.466 Y109.012 E2.13925
G1 X116.374 Y108.53 E2.14643
G1 X116.25 Y108.072 E2.15338
G1 X116.084 Y107.602 E2.16067
G1 X115.887 Y107.151 E2.16787
G1 X115.663 Y106.727 E2.17489
G1 X115.405 Y106.317 E2.18198
G1 X115.105 Y105.914 E2.18933
G1 X114.804 Y105.561 E2.19612
G1 X114.439 Y105.196 E2.20368
G1 X114.079 Y104.889 E2.2106
G1 X113.674 Y104.588 E2.21798
G1 X113.265 Y104.331 E2.22505
G1 X112.839 Y104.108 E2.23209
G1 X112.386 Y103.911 E2.23932
G1 X111.917 Y103.747 E2.24659
G1 X111.455 Y103.622 E2.25359
G1 X110.975 Y103.533 E2.26074
G1 X110.483 Y103.477 E2.26798
G1 X109.994 Y103.459 E2.27515
G1 X109.507 Y103.479 E2.28228
G1 X109.018 Y103.533 E2.28948
G1 X108.536 Y103.623 E2.29665
G1 X108.069 Y103.75 E2.30374
G1 X107.602 Y103.916 E2.31099
G1 X107.151 Y104.113 E2.31819
G1 X106.727 Y104.337 E2.32521
G1 X106.317 Y104.595 E2.3323
G1 X105.914 Y104.895 E2.33965
G1 X105.561 Y105.196 E2.34644
G0 F6000 X105.86 Y105.519
G1 F1200 X105.519 Y105.86 E2.3535
G1 X105.233 Y106.195 E2.35994
G1 X104.952 Y106.574 E2.36685
G1 X104.713 Y106.955 E2.37343
G1 X104.505 Y107.351 E2.37998
G1 X104.321 Y107.774 E2.38673
G1 X104.168 Y108.213 E2.39353
G1 X104.052 Y108.638 E2.39998
G1 X103.968 Y109.087 E2.40666
G1 X103.915 Y109.558 E2.4136
G1 X103.899 Y110.005 E2.42015
G1 X103.916 Y110.454 E2.42672
G1 X103.969 Y110.921 E2.4336
G1 X104.053 Y111.367 E2.44024
G1 X104.17 Y111.799 E2.44679
G1 X104.325 Y112.236 E2.45358
G1 X104.51 Y112.657 E2.46031
G1 X104.717 Y113.052 E2.46683
G1 X104.958 Y113.436 E2.47347
G1 X105.237 Y113.809 E2.48028
G1 X105.524 Y114.145 E2.48675
G1 X105.86 Y114.482 E2.49372
G1 X106.194 Y114.767 E2.50014
G1 X106.572 Y115.047 E2.50702
G1 X106.955 Y115.287 E2.51364
G1 X107.351 Y115.495 E2.52019
G1 X107.774 Y115.679 E2.52694
G1 X108.213 Y115.832 E2.53374
G1 X108.643 Y115.949 E2.54026
G1 X109.09 Y116.032 E2.54691
G1 X109.55 Y116.084 E2.55369
G1 X110.005 Y116.101 E2.56035
G1 X110.459 Y116.082 E2.567
G1 X110.918 Y116.031 E2.57376
G1 X111.366 Y115.948 E2.58043
G1 X111.799 Y115.83 E2.587
G1 X112.236 Y115.675 E2.59378
G1 X112.657 Y115.49 E2.60051
G1 X113.052 Y115.283 E2.60704
G1 X113.437 Y115.041 E2.61369
G1 X113.816 Y114.76 E2.6206
G1 X114.148 Y114.472 E2.62703
G1 X114.482 Y114.139 E2.63393
G1 X114.769 Y113.803 E2.6404
G1 X115.048 Y113.426 E2.64726
G1 X115.287 Y113.045 E2.65384
G1 X115.495 Y112.649 E2.66039
G1 X115.679 Y112.226 E2.66714
G1 X115.832 Y111.787 E2.67394
G1 X115.949 Y111.358 E2.68045
G1 X116.032 Y110.912 E2.68709
G1 X116.085 Y110.442 E2.69401
G1 X116.101 Y109.995 E2.70056
G1 X116.084 Y109.546 E2.70713
G1 X116.031 Y109.078 E2.71403
G1 X115.945 Y108.629 E2.72072
G1 X115.83 Y108.203 E2.72717
G1 X115.675 Y107.764 E2.73399
G1 X115.49 Y107.342 E2.74073
G1 X115.282 Y106.947 E2.74726
G1 X115.042 Y106.566 E2.75385
G1 X114.761 Y106.188 E2.76075
G1 X114.481 Y105.86 E2.76706
G1 X114.14 Y105.519 E2.77412
G1 X113.805 Y105.233 E2.78056
G1 X113.426 Y104.952 E2.78747
G1 X113.045 Y104.713 E2.79405
G1 X112.649 Y104.505 E2.80059
G1 X112.226 Y104.321 E2.80734
G1 X111.787 Y104.168 E2.81415
G1 X111.357 Y104.051 E2.82067
G1 X110.91 Y103.968 E2.82732
G1 X110.45 Y103.916 E2.8341
G1 X109.995 Y103.899 E2.84076
G1 X109.541 Y103.918 E2.84741
G1 X109.082 Y103.969 E2.85417
G1 X108.634 Y104.052 E2.86084
G1 X108.201 Y104.17 E2.86741
G1 X107.764 Y104.325 E2.87419
G1 X107.342 Y104.51 E2.88093
G1 X106.947 Y104.718 E2.88747
G1 X106.566 Y104.958 E2.89406
G1 X106.188 Y105.239 E2.90095
G1 X105.86 Y105.519 E2.90726
G0 F6000 X105.6 Y105.048
G1 F1200 X105.6 Y101.992 E2.95198
G1 F2700 E-2.04802
G1 F600 Z0.28
G0 F6000 X107.496 Y101.2 Z0.28
G1 F600 Z0.08
G1 F2700 E2.95198
G1 F1200 X112.507 Y101.2 E3.02532
G0 F6000 X112.2 Y101.118
G1 F1200 X112.2 Y103.753 E3.06388
G1 F2700 E-1.93612
G1 F600 Z0.28
G0 F6000 X110.589 Y103.4 Z0.28
G1 F600 Z0.08
G1 F2700 E3.06388
G1 F1200 X116.342 Y103.4 E3.14807
G0 F6000 X116.6 Y103.656
G1 F1200 X116.6 Y109.405 E3.2322
G0 F6000 X116.629 Y110
G1 F1200 X119.015 Y110 E3.26712
G1 F2700 E-1.73288
G1 F600 Z0.28
G0 F6000 X118.896 Y112.2 Z0.28
G1 F600 Z0.08
G1 F2700 E3.26712
G1 F1200 X116.247 Y112.2 E3.30589
G1 F2700 E-1.69411
G1 F600 Z0.28
G0 F6000 X116.6 Y110.589 Z0.28
G1 F600 Z0.08
G1 F2700 E3.30589
G1 F1200 X116.6 Y116.395 E3.39086
G0 F6000 X116.38 Y116.6
G1 F1200 X110.585 Y116.6 E3.47566
G0 F6000 X110 Y116.629
G1 F1200 X110 Y119.143 E3.51245
G1 F2700 E-1.48755
G1 F600 Z0.28
G0 F6000 X112.2 Y118.942 Z0.28
G1 F600 Z0.08
G1 F2700 E3.51245
G1 F1200 X112.2 Y116.248 E3.55188
G1 F2700 E-1.44812
G1 F600 Z0.28
G0 F6000 X114.4 Y114.951 Z0.28
G1 F600 Z0.08
G1 F2700 E3.55188
G1 F1200 X114.4 Y118.023 E3.59684
G1 F2700 E-1.40316
G1 F600 Z0.28
G0 F6000 X112.586 Y118.8 Z0.28
G1 F600 Z0.08
G1 F2700 E3.59684
G1 F1200 X107.506 Y118.8 E3.67118
G0 F6000 X107.8 Y118.876
G1 F1200 X107.8 Y116.247 E3.70965
G1 F2700 E-1.29035
G1 F600 Z0.28
G0 F6000 X109.411 Y116.6 Z0.28
G1 F600 Z0.08
G1 F2700 E3.70965
G1 F1200 X103.595 Y116.6 E3.79477
G0 F6000 X103.4 Y116.447
G1 F1200 X103.4 Y110.594 E3.88042
G0 F6000 X103.371 Y110
G1 F1200 X100.853 Y110 E3.91727
G1 F2700 E-1.08273
G1 F600 Z0.28
G0 F6000 X101.096 Y112.2 Z0.28
G1 F600 Z0.08
G1 F2700 E3.91727
G1 F1200 X103.752 Y112.2 E3.95614
G1 F2700 E-1.04386
G1 F600 Z0.28
G0 F6000 X105.047 Y114.4 Z0.28
G1 F600 Z0.08
G1 F2700 E3.95614
G1 F1200 X101.926 Y114.4 E4.00182
G1 F2700 E-0.99818
G1 F600 Z0.28
G0 F6000 X101.2 Y112.585 Z0.28
G1 F600 Z0.08
G1 F2700 E4.00182
G1 F1200 X101.2 Y107.674 E4.07369
G0 F6000 X101.171 Y107.8
G1 F1200 X103.753 Y107.8 E4.11147
G1 F2700 E-0.88853
G1 F600 Z0.28
G0 F6000 X103.4 Y109.409 Z0.28
G1 F600 Z0.08
G1 F2700 E4.11147
G1 F1200 X103.4 Y103.655 E4.19568
G0 F6000 X103.623 Y103.4
G1 F1200 X109.415 Y103.4 E4.28044
G0 F6000 X110 Y103.371
G1 F1200 X110 Y100.88 E4.3169
G1 F2700 E-0.6831
G1 F600 Z0.28
G0 F6000 X107.8 Y101.093 Z0.28
G1 F600 Z0.08
G1 F2700 E4.3169
G1 F1200 X107.8 Y103.752 E4.35581
G1 F2700 E-0.64419
G1 F600 Z0.28
G0 F6000 X105.047 Y105.6 Z0.28
G1 F600 Z0.08
G1 F2700 E4.35581
G1 F1200 X101.985 Y105.6 E4.40062
G1 F2700 E-0.59938
G1 F600 Z0.28
G0 F6000 X105.6 Y114.955 Z0.28
G1 F600 Z0.08
G1 F2700 E4.40062
G1 F1200 X105.6 Y118.042 E4.4458
G1 F2700 E-0.5542
G1 F600 Z0.28
G0 F6000 X114.954 Y114.4 Z0.28
G1 F600 Z0.08
G1 F2700 E4.4458
G1 F1200 X118.012 Y114.4 E4.49055
G1 F2700 E-0.50945
G1 F600 Z0.28
G0 F6000 X118.8 Y112.661 Z0.28
G1 F600 Z0.08
G1 F2700 E4.49055
G1 F1200 X118.8 Y107.601 E4.5646
G0 F6000 X118.835 Y107.8
G1 F1200 X116.246 Y107.8 E4.60249
G1 F2700 E-0.39751
G1 F600 Z0.28
G0 F6000 X114.952 Y105.6 Z0.28
G1 F600 Z0.08
G1 F2700 E4.60249
G1 F1200 X118.015 Y105.6 E4.64731
G1 F2700 E-0.35269
G1 F600 Z0.28
G0 F6000 X114.4 Y105.047 Z0.28
G1 F600 Z0.08
G1 F2700 E4.64731
G1 F1200 X114.4 Y101.954 E4.69258
G1 F2700 E-0.30742
G1 F600 Z0.28
;MESH:v2-Worm.stl
G0 F6000 X110.645 Y105.709 Z0.28
;TYPE:WALL-INNER
G1 F600 Z0.08
G1 F2700 E4.69258
G1 F1200 X110.973 Y105.77 E4.69746
G1 X111.275 Y105.852 E4.70204
G1 X111.589 Y105.963 E4.70691
G1 X111.885 Y106.091 E4.71163
G1 X112.167 Y106.241 E4.71631
G1 X112.437 Y106.41 E4.72097
G1 X112.72 Y106.619 E4.72612
G1 X112.944 Y106.812 E4.73044
G1 X113.188 Y107.056 E4.73549
G1 X113.381 Y107.28 E4.73982
G1 X113.59 Y107.563 E4.74497
G1 X113.759 Y107.833 E4.74963
G1 X113.909 Y108.115 E4.75431
G1 X114.037 Y108.411 E4.75903
G1 X114.148 Y108.725 E4.7639
G1 X114.232 Y109.035 E4.7686
G1 X114.29 Y109.342 E4.77317
G1 X114.327 Y109.677 E4.7781
G1 X114.339 Y110 E4.78283
G1 X114.327 Y110.323 E4.78756
G1 X114.292 Y110.639 E4.79222
G1 X114.23 Y110.973 E4.79719
G1 X114.148 Y111.275 E4.80177
G1 X114.037 Y111.589 E4.80664
G1 X113.909 Y111.885 E4.81136
G1 X113.759 Y112.167 E4.81604
G1 X113.591 Y112.437 E4.82069
G1 X113.389 Y112.709 E4.82565
G1 X113.181 Y112.951 E4.83032
G1 X112.944 Y113.188 E4.83522
G1 X112.711 Y113.388 E4.83972
G1 X112.442 Y113.588 E4.84462
G1 X112.174 Y113.756 E4.84925
G1 X111.885 Y113.909 E4.85404
G1 X111.589 Y114.037 E4.85876
G1 X111.275 Y114.148 E4.86363
G1 X110.973 Y114.23 E4.86821
G1 X110.645 Y114.291 E4.87309
G1 X110.329 Y114.326 E4.87774
G1 X110 Y114.339 E4.88256
G1 X109.671 Y114.326 E4.88738
G1 X109.355 Y114.291 E4.89203
G1 X109.027 Y114.23 E4.89692
G1 X108.725 Y114.148 E4.9015
G1 X108.411 Y114.037 E4.90637
G1 X108.115 Y113.909 E4.91109
G1 X107.826 Y113.756 E4.91588
G1 X107.558 Y113.588 E4.9205
G1 X107.289 Y113.388 E4.92541
G1 X107.056 Y113.188 E4.9299
G1 X106.819 Y112.951 E4.93481
G1 X106.611 Y112.709 E4.93948
G1 X106.409 Y112.437 E4.94444
G1 X106.241 Y112.167 E4.94909
G1 X106.091 Y111.885 E4.95377
G1 X105.963 Y111.589 E4.95848
G1 X105.852 Y111.275 E4.96336
G1 X105.77 Y110.973 E4.96794
G1 X105.708 Y110.639 E4.97291
G1 X105.673 Y110.323 E4.97756
G1 X105.661 Y110 E4.98229
G1 X105.673 Y109.677 E4.98702
G1 X105.71 Y109.342 E4.99195
G1 X105.768 Y109.035 E4.99653
G1 X105.852 Y108.725 E5.00123
G1 X105.963 Y108.411 E5.0061
G1 X106.091 Y108.115 E5.01082
G1 X106.241 Y107.833 E5.0155
G1 X106.41 Y107.563 E5.02016
G1 X106.619 Y107.28 E5.02531
G1 X106.812 Y107.056 E5.02963
G1 X107.056 Y106.812 E5.03468
G1 X107.28 Y106.619 E5.03901
G1 X107.563 Y106.41 E5.04416
G1 X107.833 Y106.241 E5.04882
G1 X108.115 Y106.091 E5.05349
G1 X108.411 Y105.963 E5.05821
G1 X108.725 Y105.852 E5.06309
G1 X109.027 Y105.77 E5.06767
G1 X109.355 Y105.709 E5.07255
G1 X109.671 Y105.674 E5.0772
G1 X110 Y105.661 E5.08202
G1 X110.329 Y105.674 E5.08684
G1 X110.645 Y105.709 E5.09149
G0 F6000 X110.72 Y105.275
;TYPE:WALL-OUTER
G1 F1200 X111.068 Y105.34 E5.09667
G1 X111.401 Y105.43 E5.10172
G1 X111.748 Y105.552 E5.1071
G1 X112.081 Y105.697 E5.11242
G1 X112.389 Y105.86 E5.11752
G1 X112.686 Y106.046 E5.12265
G1 X112.986 Y106.268 E5.12811
G1 X113.245 Y106.491 E5.13311
G1 X113.509 Y106.755 E5.13857
G1 X113.732 Y107.014 E5.14358
G1 X113.954 Y107.314 E5.14904
G1 X114.14 Y107.611 E5.15417
G1 X114.303 Y107.919 E5.15927
G1 X114.448 Y108.252 E5.16458
G1 X114.57 Y108.599 E5.16996
G1 X114.659 Y108.928 E5.17495
