;FLAVOR:Marlin
;TIME:1684
;Filament used: 1.61246m
;Layer height: 0.22
;MINX:83.612
;MINY:103.425
;MINZ:0.08
;MAXX:134.388
;MAXY:132.575
;MAXZ:9.3
;Generated with Cura_SteamEngine 4.2.1
M140 S60
M105
M190 S60
M104 S200
M105
M109 S200
M82 ;absolute extrusion mode
M201 X500.00 Y500.00 Z100.00 E5000.00 ;Setup machine max acceleration
M203 X500.00 Y500.00 Z10.00 E50.00 ;Setup machine max feedrate
M204 P500.00 R1000.00 T500.00 ;Setup Print/Retract/Travel acceleration
M205 X8.00 Y8.00 Z0.40 E5.00 ;Setup Jerk
M220 S100 ;Reset Feedrate
M221 S100 ;Reset Flowrate

G28 ;Home

G92 E0 ;Reset Extruder
G1 Z2.0 F3000 ;Move Z Axis up
G1 X10.1 Y20 Z0.28 F5000.0 ;Move to start position
G1 X10.1 Y200.0 Z0.28 F1500.0 E15 ;Draw the first line
G1 X10.4 Y200.0 Z0.28 F5000.0 ;Move to side a little
G1 X10.4 Y20 Z0.28 F1500.0 E30 ;Draw the second line
G92 E0 ;Reset Extruder
G1 Z2.0 F3000 ;Move Z Axis up

G92 E0
G92 E0
G1 F2700 E-5
;LAYER_COUNT:42
;LAYER:0
M107
;MESH:v2-Steppermount_Bottom.stl
G0 F6000 X99.37 Y113.047 Z0.08
;TYPE:WALL-INNER
G1 F2700 E0
G1 F1200 X99.384 Y112.795 E0.00369
G1 X99.37 Y112.543 E0.00739
G1 X99.325 Y112.295 E0.01108
G1 X99.253 Y112.057 E0.01471
G1 X99.154 Y111.825 E0.01841
G1 X99.029 Y111.608 E0.02207
G1 X98.879 Y111.405 E0.02576
G1 X98.706 Y111.224 E0.02943
G1 X98.515 Y111.062 E0.03309
G1 X98.302 Y110.923 E0.03682
G1 X98.078 Y110.811 E0.04048
G1 X97.843 Y110.725 E0.04414
G1 X97.597 Y110.667 E0.04784
G1 X97.348 Y110.638 E0.05151
G1 X97.098 Y110.638 E0.05517
G1 X96.848 Y110.667 E0.05885
G1 X96.603 Y110.725 E0.06254
G1 X96.368 Y110.811 E0.0662
G1 X96.143 Y110.923 E0.06988
G1 X95.933 Y111.061 E0.07355
G1 X95.739 Y111.224 E0.07726
G1 X95.567 Y111.407 E0.08094
G1 X95.418 Y111.607 E0.08459
G1 X95.291 Y111.825 E0.08828
G1 X95.192 Y112.057 E0.09197
G1 X95.12 Y112.296 E0.09562
G1 X95.076 Y112.545 E0.09933
G1 X95.062 Y112.795 E0.10299
G1 X95.076 Y113.045 E0.10665
G1 X95.12 Y113.294 E0.11035
G1 X95.192 Y113.533 E0.11401
G1 X95.291 Y113.765 E0.1177
G1 X95.418 Y113.983 E0.12139
G1 X95.567 Y114.183 E0.12504
G1 X95.739 Y114.366 E0.12872
G1 X95.933 Y114.529 E0.13242
G1 X96.143 Y114.667 E0.1361
G1 X96.368 Y114.779 E0.13978
G1 X96.603 Y114.865 E0.14344
G1 X96.846 Y114.923 E0.1471
G1 X97.097 Y114.953 E0.1508
G1 X97.349 Y114.953 E0.15449
G1 X97.599 Y114.923 E0.15817
G1 X97.843 Y114.865 E0.16184
G1 X98.078 Y114.779 E0.1655
G1 X98.302 Y114.667 E0.16917
G1 X98.515 Y114.528 E0.17289
G1 X98.706 Y114.366 E0.17656
G1 X98.879 Y114.185 E0.18022
G1 X99.029 Y113.982 E0.18391
G1 X99.154 Y113.765 E0.18758
G1 X99.253 Y113.533 E0.19127
G1 X99.325 Y113.295 E0.19491
G1 X99.37 Y113.047 E0.1986
G0 F6000 X98.932 Y112.995
;TYPE:WALL-OUTER
G1 F1200 X98.943 Y112.795 E0.20153
G1 X98.932 Y112.595 E0.20446
G1 X98.896 Y112.398 E0.20739
G1 X98.839 Y112.207 E0.21031
G1 X98.76 Y112.023 E0.21324
G1 X98.66 Y111.85 E0.21616
G1 X98.541 Y111.689 E0.21909
G1 X98.403 Y111.544 E0.22202
G1 X98.251 Y111.415 E0.22494
G1 X98.083 Y111.305 E0.22788
G1 X97.904 Y111.216 E0.2308
G1 X97.716 Y111.147 E0.23373
G1 X97.521 Y111.101 E0.23667
G1 X97.323 Y111.078 E0.23958
G1 X97.123 Y111.078 E0.24251
G1 X96.924 Y111.101 E0.24544
G1 X96.73 Y111.147 E0.24836
G1 X96.542 Y111.216 E0.25129
G1 X96.363 Y111.305 E0.25422
G1 X96.196 Y111.415 E0.25714
G1 X96.042 Y111.544 E0.26008
G1 X95.905 Y111.69 E0.26301
G1 X95.786 Y111.85 E0.26593
G1 X95.685 Y112.023 E0.26886
G1 X95.606 Y112.207 E0.27179
G1 X95.549 Y112.398 E0.27471
G1 X95.514 Y112.596 E0.27765
G1 X95.503 Y112.795 E0.28057
G1 X95.514 Y112.994 E0.28348
G1 X95.549 Y113.192 E0.28643
G1 X95.606 Y113.383 E0.28934
G1 X95.685 Y113.567 E0.29227
G1 X95.786 Y113.74 E0.29521
G1 X95.905 Y113.9 E0.29812
G1 X96.042 Y114.046 E0.30105
G1 X96.196 Y114.175 E0.30399
G1 X96.363 Y114.285 E0.30692
G1 X96.542 Y114.374 E0.30985
G1 X96.73 Y114.443 E0.31278
G1 X96.923 Y114.489 E0.31568
G1 X97.123 Y114.513 E0.31863
G1 X97.323 Y114.513 E0.32156
G1 X97.522 Y114.489 E0.32449
G1 X97.716 Y114.443 E0.32741
G1 X97.904 Y114.374 E0.33034
G1 X98.083 Y114.285 E0.33326
G1 X98.251 Y114.175 E0.3362
G1 X98.403 Y114.046 E0.33912
G1 X98.541 Y113.901 E0.34205
G1 X98.66 Y113.74 E0.34498
G1 X98.76 Y113.567 E0.3479
G1 X98.839 Y113.383 E0.35083
G1 X98.896 Y113.192 E0.35375
G1 X98.932 Y112.995 E0.35668
G0 F6000 X99.412 Y113.051
G0 X99.469 Y113.058
G0 X114.731 Y110.837
G0 X114.78 Y110.923
;TYPE:WALL-INNER
G1 F1200 X114.57 Y111.061 E0.36036
G1 X114.378 Y111.222 E0.36403
G1 X114.204 Y111.406 E0.36773
G1 X114.054 Y111.608 E0.37141
G1 X113.929 Y111.825 E0.37508
G1 X113.83 Y112.057 E0.37877
G1 X113.758 Y112.296 E0.38242
G1 X113.714 Y112.543 E0.38609
G1 X113.699 Y112.795 E0.38979
G1 X113.714 Y113.047 E0.39348
G1 X113.758 Y113.294 E0.39715
G1 X113.83 Y113.533 E0.40081
G1 X113.929 Y113.765 E0.4045
G1 X114.054 Y113.982 E0.40816
G1 X114.204 Y114.184 E0.41185
G1 X114.378 Y114.368 E0.41555
G1 X114.57 Y114.529 E0.41922
G1 X114.78 Y114.667 E0.4229
G1 X115.005 Y114.779 E0.42657
G1 X115.24 Y114.865 E0.43024
G1 X115.484 Y114.923 E0.43391
G1 X115.734 Y114.953 E0.43759
G1 X115.987 Y114.953 E0.44129
G1 X116.237 Y114.923 E0.44498
G1 X116.481 Y114.865 E0.44865
G1 X116.718 Y114.779 E0.45234
G1 X116.941 Y114.667 E0.45599
G1 X117.149 Y114.529 E0.45964
G1 X117.343 Y114.368 E0.46333
G1 X117.517 Y114.184 E0.46704
G1 X117.667 Y113.982 E0.47072
G1 X117.792 Y113.765 E0.47439
G1 X117.891 Y113.533 E0.47808
G1 X117.963 Y113.294 E0.48173
G1 X118.007 Y113.045 E0.48543
G1 X118.021 Y112.795 E0.4891
G1 X118.007 Y112.545 E0.49276
G1 X117.963 Y112.296 E0.49646
G1 X117.891 Y112.057 E0.50011
G1 X117.792 Y111.825 E0.5038
G1 X117.667 Y111.608 E0.50747
G1 X117.517 Y111.406 E0.51115
G1 X117.343 Y111.222 E0.51486
G1 X117.149 Y111.061 E0.51855
G1 X116.941 Y110.923 E0.5222
G1 X116.718 Y110.811 E0.52585
G1 X116.48 Y110.725 E0.52956
G1 X116.235 Y110.667 E0.53324
G1 X115.986 Y110.638 E0.53691
G1 X115.735 Y110.638 E0.54058
G1 X115.486 Y110.667 E0.54425
G1 X115.24 Y110.725 E0.54795
G1 X115.005 Y110.811 E0.55161
G1 X114.78 Y110.923 E0.55529
G0 F6000 X115 Y111.305
;TYPE:WALL-OUTER
G1 F1200 X114.833 Y111.415 E0.55822
G1 X114.68 Y111.543 E0.56114
G1 X114.542 Y111.689 E0.56408
G1 X114.423 Y111.85 E0.56701
G1 X114.323 Y112.023 E0.56993
G1 X114.244 Y112.207 E0.57286
G1 X114.187 Y112.398 E0.57578
G1 X114.152 Y112.595 E0.57871
G1 X114.14 Y112.795 E0.58164
G1 X114.152 Y112.995 E0.58457
G1 X114.187 Y113.192 E0.5875
G1 X114.244 Y113.383 E0.59041
G1 X114.323 Y113.567 E0.59335
G1 X114.423 Y113.74 E0.59627
G1 X114.542 Y113.901 E0.5992
G1 X114.68 Y114.047 E0.60214
G1 X114.833 Y114.175 E0.60506
G1 X115 Y114.285 E0.60799
G1 X115.179 Y114.374 E0.61091
G1 X115.367 Y114.443 E0.61384
G1 X115.561 Y114.489 E0.61676
G1 X115.76 Y114.513 E0.61969
G1 X115.961 Y114.513 E0.62263
G1 X116.16 Y114.489 E0.62557
G1 X116.354 Y114.443 E0.62849
G1 X116.543 Y114.374 E0.63143
G1 X116.72 Y114.285 E0.63433
G1 X116.887 Y114.175 E0.63726
G1 X117.041 Y114.047 E0.64019
G1 X117.179 Y113.901 E0.64313
G1 X117.298 Y113.74 E0.64606
G1 X117.398 Y113.567 E0.64898
G1 X117.477 Y113.383 E0.65191
G1 X117.534 Y113.192 E0.65483
G1 X117.569 Y112.994 E0.65777
G1 X117.58 Y112.795 E0.66069
G1 X117.569 Y112.596 E0.6636
G1 X117.534 Y112.398 E0.66655
G1 X117.477 Y112.207 E0.66946
G1 X117.398 Y112.023 E0.67239
G1 X117.298 Y111.85 E0.67532
G1 X117.179 Y111.689 E0.67825
G1 X117.041 Y111.543 E0.68119
G1 X116.887 Y111.415 E0.68412
G1 X116.72 Y111.305 E0.68705
G1 X116.543 Y111.216 E0.68994
G1 X116.354 Y111.147 E0.69289
G1 X116.159 Y111.101 E0.69582
G1 X115.961 Y111.078 E0.69874
G1 X115.76 Y111.078 E0.70168
G1 X115.562 Y111.101 E0.7046
G1 X115.367 Y111.147 E0.70753
G1 X115.179 Y111.216 E0.71046
G1 X115 Y111.305 E0.71338
G0 F6000 X114.759 Y110.886
G0 X114.731 Y110.837
G0 X115.632 Y110.623
G0 X129.257 Y110.63
G0 X129.229 Y110.725
;TYPE:WALL-INNER
G1 F1200 X128.983 Y110.667 E0.71708
G1 X128.734 Y110.638 E0.72075
G1 X128.483 Y110.638 E0.72443
G1 X128.234 Y110.667 E0.72809
G1 X127.988 Y110.725 E0.73179
G1 X127.753 Y110.811 E0.73546
G1 X127.528 Y110.923 E0.73913
G1 X127.318 Y111.061 E0.74281
G1 X127.126 Y111.222 E0.74648
G1 X126.952 Y111.406 E0.75018
G1 X126.802 Y111.608 E0.75387
G1 X126.677 Y111.825 E0.75753
G1 X126.578 Y112.057 E0.76122
G1 X126.506 Y112.296 E0.76487
G1 X126.462 Y112.543 E0.76855
G1 X126.447 Y112.795 E0.77224
G1 X126.462 Y113.047 E0.77594
G1 X126.506 Y113.294 E0.77961
G1 X126.578 Y113.533 E0.78326
G1 X126.677 Y113.765 E0.78695
G1 X126.802 Y113.982 E0.79062
G1 X126.952 Y114.184 E0.7943
G1 X127.126 Y114.368 E0.798
G1 X127.318 Y114.529 E0.80167
G1 X127.528 Y114.667 E0.80535
G1 X127.753 Y114.779 E0.80903
G1 X127.988 Y114.865 E0.81269
G1 X128.232 Y114.923 E0.81636
G1 X128.482 Y114.953 E0.82004
G1 X128.735 Y114.953 E0.82375
G1 X128.985 Y114.923 E0.82743
G1 X129.229 Y114.865 E0.8311
G1 X129.464 Y114.779 E0.83476
G1 X129.688 Y114.667 E0.83843
G1 X129.898 Y114.529 E0.84211
G1 X130.091 Y114.367 E0.84579
G1 X130.263 Y114.185 E0.84946
G1 X130.414 Y113.982 E0.85316
G1 X130.54 Y113.765 E0.85683
G1 X130.639 Y113.533 E0.86052
G1 X130.711 Y113.294 E0.86418
G1 X130.755 Y113.045 E0.86788
G1 X130.769 Y112.795 E0.87154
G1 X130.755 Y112.545 E0.87521
G1 X130.711 Y112.296 E0.87891
G1 X130.639 Y112.057 E0.88256
G1 X130.54 Y111.825 E0.88625
G1 X130.414 Y111.608 E0.88992
G1 X130.263 Y111.405 E0.89363
G1 X130.091 Y111.223 E0.89729
G1 X129.898 Y111.061 E0.90098
G1 X129.688 Y110.923 E0.90466
G1 X129.464 Y110.811 E0.90832
G1 X129.229 Y110.725 E0.91198
G0 F6000 X129.102 Y111.147
;TYPE:WALL-OUTER
G1 F1200 X128.907 Y111.101 E0.91492
G1 X128.709 Y111.078 E0.91783
G1 X128.508 Y111.078 E0.92077
G1 X128.31 Y111.101 E0.92369
G1 X128.115 Y111.147 E0.92662
G1 X127.927 Y111.216 E0.92955
G1 X127.748 Y111.305 E0.93248
G1 X127.581 Y111.415 E0.93541
G1 X127.428 Y111.543 E0.93833
G1 X127.29 Y111.689 E0.94127
G1 X127.171 Y111.85 E0.9442
G1 X127.071 Y112.023 E0.94712
G1 X126.992 Y112.207 E0.95005
G1 X126.935 Y112.398 E0.95297
G1 X126.9 Y112.595 E0.95589
G1 X126.888 Y112.795 E0.95883
G1 X126.9 Y112.995 E0.96176
G1 X126.935 Y113.192 E0.96469
G1 X126.992 Y113.383 E0.9676
G1 X127.071 Y113.567 E0.97053
G1 X127.171 Y113.74 E0.97346
G1 X127.29 Y113.901 E0.97639
G1 X127.428 Y114.047 E0.97933
G1 X127.581 Y114.175 E0.98225
G1 X127.748 Y114.285 E0.98517
G1 X127.927 Y114.374 E0.9881
G1 X128.115 Y114.443 E0.99103
G1 X128.309 Y114.489 E0.99395
G1 X128.508 Y114.513 E0.99688
G1 X128.709 Y114.513 E0.99982
G1 X128.908 Y114.489 E1.00276
G1 X129.102 Y114.443 E1.00567
G1 X129.289 Y114.374 E1.00859
G1 X129.468 Y114.285 E1.01152
G1 X129.635 Y114.175 E1.01444
G1 X129.789 Y114.046 E1.01738
G1 X129.926 Y113.901 E1.0203
G1 X130.046 Y113.74 E1.02324
G1 X130.146 Y113.567 E1.02617
G1 X130.225 Y113.383 E1.0291
G1 X130.282 Y113.192 E1.03201
G1 X130.317 Y112.994 E1.03496
G1 X130.328 Y112.795 E1.03787
G1 X130.317 Y112.596 E1.04079
G1 X130.282 Y112.398 E1.04373
G1 X130.225 Y112.207 E1.04665
G1 X130.146 Y112.023 E1.04958
G1 X130.046 Y111.85 E1.0525
G1 X129.926 Y111.689 E1.05544
G1 X129.789 Y111.544 E1.05836
G1 X129.635 Y111.415 E1.0613
G1 X129.468 Y111.305 E1.06423
G1 X129.289 Y111.216 E1.06715
G1 X129.102 Y111.147 E1.07007
G0 F6000 X129.241 Y110.684
G0 X129.257 Y110.63
G0 X128.422 Y109.525
G0 X128.352 Y109.455
;TYPE:WALL-INNER
G1 F1200 X128.352 Y105.25 E1.13161
G1 X128.361 Y105.056 E1.13445
G1 X128.38 Y104.934 E1.13626
G1 X128.416 Y104.796 E1.13834
G1 X128.46 Y104.676 E1.14022
G1 X128.52 Y104.553 E1.14222
G1 X128.595 Y104.433 E1.14429
G1 X128.673 Y104.332 E1.14616
G1 X128.765 Y104.236 E1.1481
G1 X128.878 Y104.14 E1.15027
G1 X128.988 Y104.063 E1.15224
G1 X129.107 Y103.997 E1.15423
G1 X129.227 Y103.946 E1.15614
G1 X129.359 Y103.905 E1.15816
G1 X129.482 Y103.88 E1.16
G1 X129.63 Y103.865 E1.16217
G1 X129.756 Y103.865 E1.16402
G1 X129.908 Y103.881 E1.16625
G1 X130.034 Y103.907 E1.16814
G1 X130.147 Y103.943 E1.16987
G1 X130.289 Y104.004 E1.17213
G1 X130.402 Y104.067 E1.17403
G1 X130.514 Y104.145 E1.17602
G1 X130.616 Y104.235 E1.17802
G1 X130.707 Y104.329 E1.17993
G1 X130.81 Y104.464 E1.18242
G1 X133.933 Y108.98 E1.26277
G1 X133.948 Y113.254 E1.32532
G1 X133.94 Y113.504 E1.32898
G1 X133.914 Y113.731 E1.33232
G1 X133.878 Y113.923 E1.33518
G1 X133.825 Y114.12 E1.33816
G1 X133.748 Y114.339 E1.34156
G1 X133.663 Y114.536 E1.3447
G1 X133.568 Y114.714 E1.34765
G1 X133.463 Y114.882 E1.35055
G1 X133.325 Y115.069 E1.35396
G1 X133.19 Y115.226 E1.35699
G1 X133.043 Y115.373 E1.36003
G1 X132.868 Y115.524 E1.36341
G1 X132.711 Y115.64 E1.36627
G1 X132.526 Y115.755 E1.36945
G1 X132.349 Y115.85 E1.37239
G1 X132.148 Y115.937 E1.3756
G1 X131.95 Y116.007 E1.37867
G1 X131.727 Y116.065 E1.38205
G1 X131.535 Y116.102 E1.38491
G1 X131.327 Y116.125 E1.38797
G1 X130.914 Y116.135 E1.39402
G1 X86.052 Y116.135 E2.05055
G1 X86.052 Y109.455 E2.1483
G1 X128.352 Y109.455 E2.76734
G0 F6000 X127.912 Y109.015
;TYPE:WALL-OUTER
G1 F1200 X127.912 Y105.229 E2.82275
G1 X127.922 Y105.016 E2.82587
G1 X127.948 Y104.847 E2.82837
G1 X127.995 Y104.665 E2.83112
G1 X128.055 Y104.504 E2.83364
G1 X128.136 Y104.338 E2.83634
G1 X128.234 Y104.181 E2.83905
G1 X128.34 Y104.044 E2.84158
G1 X128.467 Y103.911 E2.84427
G1 X128.599 Y103.799 E2.84681
G1 X128.759 Y103.687 E2.84967
G1 X128.909 Y103.604 E2.85217
G1 X129.077 Y103.532 E2.85485
G1 X129.252 Y103.478 E2.85753
G1 X129.419 Y103.444 E2.86002
G1 X129.606 Y103.425 E2.86277
G1 X129.784 Y103.425 E2.86538
G1 X129.972 Y103.445 E2.86815
G1 X130.141 Y103.48 E2.87067
G1 X130.308 Y103.533 E2.87324
G1 X130.481 Y103.607 E2.87599
G1 X130.638 Y103.695 E2.87862
G1 X130.784 Y103.797 E2.88123
G1 X130.919 Y103.915 E2.88385
G1 X131.043 Y104.044 E2.88647
G1 X131.16 Y104.197 E2.88929
G1 X134.373 Y108.842 E2.97195
G1 X134.388 Y113.267 E3.0367
G1 X134.38 Y113.532 E3.04058
G1 X134.35 Y113.792 E3.04441
G1 X134.306 Y114.027 E3.04791
G1 X134.245 Y114.254 E3.05135
G1 X134.158 Y114.5 E3.05517
G1 X134.062 Y114.722 E3.05871
G1 X133.949 Y114.934 E3.06223
G1 X133.823 Y115.136 E3.06571
G1 X133.67 Y115.343 E3.06948
G1 X133.518 Y115.52 E3.07289
G1 X133.338 Y115.7 E3.07662
G1 X133.147 Y115.865 E3.08031
G1 X132.958 Y116.004 E3.08374
G1 X132.747 Y116.136 E3.08739
G1 X132.535 Y116.249 E3.0909
G1 X132.314 Y116.345 E3.09443
G1 X132.073 Y116.43 E3.09817
G1 X131.833 Y116.493 E3.1018
G1 X131.603 Y116.537 E3.10523
G1 X131.352 Y116.565 E3.10892
G1 X130.924 Y116.575 E3.11519
G1 X85.612 Y116.575 E3.7783
G1 X85.612 Y109.015 E3.88894
G1 X127.912 Y109.015 E4.50798
G0 F6000 X128.452 Y109.015
G0 X128.782 Y109.885
;TYPE:SKIN
G1 F1200 X128.782 Y105.27 E4.57552
G1 X128.79 Y105.094 E4.5781
G1 X128.801 Y105.026 E4.5791
G1 X128.827 Y104.925 E4.58063
G1 X128.859 Y104.84 E4.58196
G1 X128.892 Y104.77 E4.58309
G1 X128.955 Y104.67 E4.58482
G1 X128.999 Y104.614 E4.58586
G1 X129.06 Y104.549 E4.58717
G1 X129.149 Y104.474 E4.58887
G1 X129.213 Y104.429 E4.59002
G1 X129.302 Y104.381 E4.5915
G1 X129.369 Y104.352 E4.59256
G1 X129.46 Y104.324 E4.59396
G1 X129.548 Y104.306 E4.59527
G1 X129.654 Y104.295 E4.59683
G1 X129.729 Y104.295 E4.59793
G1 X129.847 Y104.308 E4.59967
G1 X130.004 Y104.349 E4.60204
G1 X130.105 Y104.393 E4.60365
G1 X130.166 Y104.427 E4.60468
G1 X130.244 Y104.481 E4.60606
G1 X130.328 Y104.555 E4.6077
G1 X130.379 Y104.609 E4.60879
G1 X130.462 Y104.717 E4.61078
G1 X133.503 Y109.115 E4.68903
G1 X133.518 Y113.241 E4.74941
G1 X133.512 Y113.455 E4.75255
G1 X133.486 Y113.682 E4.75589
G1 X133.46 Y113.823 E4.75799
G1 X133.415 Y113.988 E4.76049
G1 X133.343 Y114.194 E4.76369
G1 X133.277 Y114.347 E4.76612
G1 X133.199 Y114.492 E4.76853
G1 X133.109 Y114.637 E4.77103
G1 X132.983 Y114.807 E4.77413
G1 X132.875 Y114.933 E4.77656
G1 X132.755 Y115.053 E4.77904
G1 X132.591 Y115.195 E4.78222
G1 X132.472 Y115.283 E4.78438
G1 X132.313 Y115.382 E4.78712
G1 X132.167 Y115.46 E4.78954
G1 X131.979 Y115.542 E4.79255
G1 X131.827 Y115.595 E4.7949
G1 X131.633 Y115.645 E4.79783
G1 X131.477 Y115.676 E4.80016
G1 X131.294 Y115.695 E4.80285
G1 X130.904 Y115.705 E4.80856
G1 X86.482 Y115.705 E5.45866
G1 X86.482 Y109.885 E5.54383
G1 X128.782 Y109.885 E6.16287
G0 F6000 X128.16 Y110.243
G1 F1200 X127.864 Y110.313 E6.16732
G1 X127.583 Y110.416 E6.1717
G1 X127.313 Y110.549 E6.1761
G1 X127.06 Y110.715 E6.18053
G1 X126.831 Y110.909 E6.18492
G1 X126.622 Y111.129 E6.18936
