;FLAVOR:Marlin
;TIME:691
;Filament used: 0.739351m
;Layer height: 0.22
;MINX:97.17
;MINY:97.172
;MINZ:0.08
;MAXX:122.83
;MAXY:122.828
;MAXZ:11.96
;Generated with Cura_SteamEngine 4.2.1
M140 S60
M105
M190 S60
M104 S200
M105
M109 S200
M82 ;absolute extrusion mode
M201 X500.00 Y500.00 Z100.00 E5000.00 ;Setup machine max acceleration
M203 X500.00 Y500.00 Z10.00 E50.00 ;Setup machine max feedrate
M204 P500.00 R1000.00 T500.00 ;Setup Print/Retract/Travel acceleration
M205 X8.00 Y8.00 Z0.40 E5.00 ;Setup Jerk
M220 S100 ;Reset Feedrate
M221 S100 ;Reset Flowrate

G28 ;Home

G92 E0 ;Reset Extruder
G1 Z2.0 F3000 ;Move Z Axis up
G1 X10.1 Y20 Z0.28 F5000.0 ;Move to start position
G1 X10.1 Y200.0 Z0.28 F1500.0 E15 ;Draw the first line
G1 X10.4 Y200.0 Z0.28 F5000.0 ;Move to side a little
G1 X10.4 Y20 Z0.28 F1500.0 E30 ;Draw the second line
G92 E0 ;Reset Extruder
G1 Z2.0 F3000 ;Move Z Axis up

G92 E0
G92 E0
G1 F2700 E-5
;LAYER_COUNT:55
;LAYER:0
M107
;MESH:1ee68678-64e4-4338-9850-e2a9b463108b.stl
G0 F6000 X103.663 Y102.174 Z0.08
;TYPE:WALL-OUTER
G1 F2700 E0
G1 F1200 X103.358 Y102.431 E0.00584
G1 X103.064 Y102.7 E0.01167
G1 X102.782 Y102.98 E0.01748
G1 X102.51 Y103.27 E0.0233
G1 X102.25 Y103.571 E0.02912
G1 X102.002 Y103.883 E0.03496
G1 X101.767 Y104.203 E0.04077
G1 X101.543 Y104.533 E0.0466
G1 X101.335 Y104.871 E0.05241
G1 X101.138 Y105.218 E0.05825
G1 X100.957 Y105.571 E0.06406
G1 X100.789 Y105.932 E0.06988
G1 X100.635 Y106.299 E0.07571
G1 X100.496 Y106.672 E0.08153
G1 X100.372 Y107.051 E0.08737
G1 X100.263 Y107.434 E0.0932
G1 X100.17 Y107.819 E0.09899
G1 X100.091 Y108.21 E0.10483
G1 X100.028 Y108.602 E0.11064
G1 X99.981 Y108.997 E0.11646
G1 X99.949 Y109.394 E0.12229
G1 X99.933 Y109.791 E0.12811
G1 X99.932 Y110.19 E0.13394
G1 X99.946 Y110.587 E0.13976
G1 X99.977 Y110.985 E0.1456
G1 X100.024 Y111.379 E0.15141
G1 X100.086 Y111.772 E0.15723
G1 X100.164 Y112.162 E0.16305
G1 X100.257 Y112.549 E0.16888
G1 X100.365 Y112.933 E0.17471
G1 X100.489 Y113.311 E0.18053
G1 X100.627 Y113.685 E0.18637
G1 X100.781 Y114.052 E0.19219
G1 X100.948 Y114.412 E0.198
G1 X101.128 Y114.766 E0.20381
G1 X101.325 Y115.113 E0.20965
G1 X101.533 Y115.451 E0.21546
G1 X101.756 Y115.782 E0.2213
G1 X101.99 Y116.103 E0.22711
G1 X102.238 Y116.415 E0.23295
G1 X102.497 Y116.716 E0.23876
G1 X102.769 Y117.007 E0.24459
G1 X103.05 Y117.288 E0.2504
G1 X103.344 Y117.557 E0.25623
G1 X103.649 Y117.814 E0.26207
G1 X103.962 Y118.058 E0.26788
G1 X104.285 Y118.29 E0.2737
G1 X104.617 Y118.51 E0.27953
G1 X104.957 Y118.716 E0.28535
G1 X105.305 Y118.908 E0.29116
G1 X105.661 Y119.087 E0.29699
G1 X106.023 Y119.251 E0.30281
G1 X106.392 Y119.401 E0.30864
G1 X106.766 Y119.535 E0.31445
G1 X107.146 Y119.657 E0.32029
G1 X107.529 Y119.761 E0.3261
G1 X107.916 Y119.851 E0.33192
G1 X108.307 Y119.926 E0.33774
G1 X108.701 Y119.985 E0.34357
G1 X109.097 Y120.028 E0.3494
G1 X109.494 Y120.056 E0.35523
G1 X109.891 Y120.069 E0.36104
G1 X110.289 Y120.067 E0.36686
G1 X110.687 Y120.047 E0.3727
G1 X111.082 Y120.013 E0.3785
G1 X111.478 Y119.962 E0.38434
G1 X111.87 Y119.895 E0.39016
G1 X112.259 Y119.814 E0.39598
G1 X112.645 Y119.717 E0.4018
G1 X113.028 Y119.605 E0.40764
G1 X113.404 Y119.477 E0.41345
G1 X113.776 Y119.336 E0.41927
G1 X114.143 Y119.179 E0.42512
G1 X114.501 Y119.008 E0.43092
G1 X114.854 Y118.824 E0.43675
G1 X115.199 Y118.624 E0.44258
G1 X115.535 Y118.413 E0.44839
G1 X115.863 Y118.187 E0.45422
G1 X116.182 Y117.95 E0.46004
G1 X116.491 Y117.699 E0.46586
G1 X116.791 Y117.436 E0.4717
G1 X117.079 Y117.162 E0.47752
G1 X117.357 Y116.877 E0.48334
G1 X117.622 Y116.581 E0.48916
G1 X117.876 Y116.274 E0.49499
G1 X118.117 Y115.958 E0.50081
G1 X118.347 Y115.633 E0.50663
G1 X118.563 Y115.3 E0.51244
G1 X118.766 Y114.956 E0.51829
G1 X118.954 Y114.607 E0.52409
G1 X119.129 Y114.249 E0.52992
G1 X119.29 Y113.885 E0.53574
G1 X119.436 Y113.515 E0.54156
G1 X119.567 Y113.139 E0.54739
G1 X119.685 Y112.758 E0.55323
G1 X119.785 Y112.375 E0.55902
G1 X119.871 Y111.986 E0.56485
G1 X119.942 Y111.594 E0.57068
G1 X119.998 Y111.2 E0.57651
G1 X120.036 Y110.805 E0.58231
G1 X120.062 Y110.398 E0.58828
G1 X120.07 Y110 E0.59411
G1 X120.062 Y109.602 E0.59993
G1 X120.038 Y109.205 E0.60575
G1 X120.002 Y108.818 E0.61144
G1 X119.946 Y108.424 E0.61727
G1 X119.876 Y108.032 E0.62309
G1 X119.791 Y107.644 E0.62891
G1 X119.691 Y107.259 E0.63473
G1 X119.574 Y106.878 E0.64056
G1 X119.444 Y106.502 E0.64638
G1 X119.298 Y106.131 E0.65222
G1 X119.138 Y105.767 E0.65804
G1 X118.963 Y105.41 E0.66385
G1 X118.776 Y105.06 E0.66966
G1 X118.573 Y104.716 E0.67551
G1 X118.358 Y104.382 E0.68132
G1 X118.129 Y104.056 E0.68715
G1 X117.888 Y103.74 E0.69297
G1 X117.634 Y103.433 E0.6988
G1 X117.369 Y103.137 E0.70461
G1 X117.092 Y102.852 E0.71043
G1 X116.805 Y102.576 E0.71625
G1 X116.505 Y102.313 E0.72209
G1 X116.196 Y102.062 E0.72792
G1 X115.878 Y101.824 E0.73373
G1 X115.55 Y101.598 E0.73956
G1 X115.215 Y101.386 E0.74536
G1 X114.87 Y101.186 E0.7512
G1 X114.518 Y101.001 E0.75702
G1 X114.159 Y100.829 E0.76284
G1 X113.793 Y100.672 E0.76867
G1 X113.421 Y100.53 E0.7745
G1 X113.045 Y100.401 E0.78032
G1 X112.662 Y100.289 E0.78616
G1 X112.278 Y100.192 E0.79195
G1 X111.888 Y100.11 E0.79778
G1 X111.496 Y100.042 E0.80361
G1 X111.101 Y99.991 E0.80944
G1 X110.706 Y99.957 E0.81524
G1 X110.308 Y99.935 E0.82107
G1 X109.91 Y99.931 E0.8269
G1 X109.513 Y99.941 E0.83271
G1 X109.115 Y99.968 E0.83855
G1 X108.719 Y100.011 E0.84437
G1 X108.325 Y100.07 E0.8502
G1 X107.935 Y100.144 E0.85601
G1 X107.548 Y100.233 E0.86183
G1 X107.163 Y100.337 E0.86766
G1 X106.783 Y100.458 E0.8735
G1 X106.409 Y100.591 E0.87931
G1 X106.039 Y100.741 E0.88515
G1 X105.677 Y100.904 E0.89096
G1 X105.322 Y101.083 E0.89678
G1 X104.973 Y101.274 E0.9026
G1 X104.633 Y101.48 E0.90842
G1 X104.3 Y101.698 E0.91424
G1 X103.976 Y101.93 E0.92007
G1 X103.663 Y102.174 E0.92588
G0 F6000 X103.067 Y101.764
G1 F1200 X103.28 Y101.586 E0.92994
G1 X103.876 Y101.143 E0.94081
G1 X103.956 Y101.092 E0.9422
G1 X104.184 Y100.937 E0.94624
G1 X104.266 Y100.889 E0.94763
G1 X104.824 Y100.557 E0.95713
G1 X104.909 Y100.515 E0.95852
G1 X105.154 Y100.384 E0.96258
G1 X105.582 Y100.183 E0.9695
G1 X105.918 Y100.038 E0.97486
G1 X106.173 Y99.935 E0.97888
G1 X106.877 Y99.695 E0.98977
G1 X107.327 Y99.572 E0.99659
G1 X107.687 Y99.486 E1.00201
G1 X108.059 Y99.411 E1.00756
G1 X108.426 Y99.35 E1.01301
G1 X108.787 Y99.303 E1.01834
G1 X109.157 Y99.268 E1.02377
G1 X109.536 Y99.245 E1.02933
G1 X109.905 Y99.235 E1.03473
G1 X110.274 Y99.238 E1.04013
G1 X110.641 Y99.254 E1.04551
G1 X111.014 Y99.282 E1.05098
G1 X111.386 Y99.324 E1.05646
G1 X111.758 Y99.379 E1.06197
G1 X112.117 Y99.445 E1.06731
G1 X112.477 Y99.523 E1.0727
G1 X113.197 Y99.72 E1.08362
G1 X113.465 Y99.805 E1.08774
G1 X113.548 Y99.837 E1.08904
G1 X113.898 Y99.965 E1.09449
G1 X114.241 Y100.105 E1.09991
G1 X114.58 Y100.258 E1.10536
G1 X114.921 Y100.425 E1.11091
G1 X115.246 Y100.599 E1.11631
G1 X115.566 Y100.785 E1.12173
G1 X115.808 Y100.932 E1.12587
G1 X115.877 Y100.981 E1.12711
G1 X116.186 Y101.189 E1.13256
G1 X116.412 Y101.349 E1.13661
G1 X116.485 Y101.408 E1.13798
G1 X116.786 Y101.642 E1.14356
G1 X117.005 Y101.82 E1.14769
G1 X117.064 Y101.876 E1.14888
G1 X117.339 Y102.123 E1.15429
G1 X117.607 Y102.382 E1.15975
G1 X117.871 Y102.655 E1.16531
G1 X118.115 Y102.926 E1.17064
G1 X118.356 Y103.212 E1.17612
G1 X118.529 Y103.426 E1.18014
G1 X118.807 Y103.808 E1.18706
G1 X119.013 Y104.112 E1.19243
G1 X119.209 Y104.424 E1.19782
G1 X119.396 Y104.744 E1.20325
G1 X119.573 Y105.075 E1.20874
G1 X119.737 Y105.407 E1.21416
G1 X119.855 Y105.659 E1.21823
G1 X119.889 Y105.745 E1.21959
G1 X120.031 Y106.088 E1.22502
G1 X120.25 Y106.7 E1.23453
G1 X120.38 Y107.147 E1.24134
G1 X120.473 Y107.507 E1.24678
G1 X120.554 Y107.877 E1.25233
G1 X120.62 Y108.235 E1.25765
G1 X120.674 Y108.602 E1.26308
G1 X120.716 Y108.979 E1.26863
G1 X120.745 Y109.343 E1.27398
G1 X120.762 Y109.714 E1.27941
G1 X120.765 Y110.086 E1.28486
G1 X120.756 Y110.457 E1.29029
G1 X120.733 Y110.836 E1.29585
G1 X120.698 Y111.205 E1.30127
G1 X120.651 Y111.566 E1.3066
G1 X120.59 Y111.936 E1.31209
G1 X120.538 Y112.215 E1.31624
G1 X120.517 Y112.296 E1.31746
G1 X120.432 Y112.659 E1.32292
G1 X120.333 Y113.021 E1.32841
G1 X120.255 Y113.285 E1.33244
G1 X120.223 Y113.373 E1.33381
G1 X120.136 Y113.636 E1.33786
G1 X120.101 Y113.722 E1.33922
G1 X119.967 Y114.07 E1.34468
G1 X119.82 Y114.414 E1.35016
G1 X119.663 Y114.747 E1.35554
G1 X119.492 Y115.081 E1.36103
G1 X119.312 Y115.403 E1.36643
G1 X119.121 Y115.72 E1.37185
G1 X118.76 Y116.263 E1.38139
G1 X118.703 Y116.337 E1.38276
G1 X118.537 Y116.564 E1.38687
G1 X118.48 Y116.632 E1.38817
G1 X118.24 Y116.927 E1.39374
G1 X118.002 Y117.202 E1.39906
G1 X117.749 Y117.473 E1.40449
G1 X117.278 Y117.937 E1.41416
G1 X117.214 Y117.992 E1.4154
G1 X117.004 Y118.18 E1.41952
G1 X116.933 Y118.236 E1.42084
G1 X116.72 Y118.414 E1.42491
G1 X116.124 Y118.857 E1.43577
G1 X116.044 Y118.908 E1.43716
G1 X115.816 Y119.063 E1.4412
G1 X115.734 Y119.111 E1.44259
G1 X115.176 Y119.443 E1.45209
G1 X115.091 Y119.485 E1.45348
G1 X114.846 Y119.616 E1.45754
G1 X114.42 Y119.816 E1.46443
G1 X114.082 Y119.962 E1.46982
G1 X113.827 Y120.065 E1.47384
G1 X113.123 Y120.305 E1.48473
G1 X112.673 Y120.428 E1.49156
G1 X112.313 Y120.514 E1.49697
G1 X111.941 Y120.589 E1.50253
G1 X111.573 Y120.65 E1.50798
G1 X111.213 Y120.697 E1.5133
G1 X110.843 Y120.732 E1.51874
G1 X110.464 Y120.755 E1.52429
G1 X110.095 Y120.765 E1.5297
G1 X109.726 Y120.762 E1.5351
G1 X109.359 Y120.746 E1.54047
G1 X108.986 Y120.718 E1.54595
G1 X108.614 Y120.676 E1.55142
G1 X108.242 Y120.621 E1.55693
G1 X107.883 Y120.555 E1.56227
G1 X107.523 Y120.477 E1.56766
G1 X106.803 Y120.28 E1.57858
G1 X106.535 Y120.195 E1.5827
G1 X106.452 Y120.163 E1.584
G1 X106.102 Y120.035 E1.58945
G1 X105.759 Y119.895 E1.59488
G1 X105.42 Y119.742 E1.60032
G1 X105.079 Y119.575 E1.60588
G1 X104.752 Y119.4 E1.6113
G1 X104.192 Y119.068 E1.62083
G1 X104.123 Y119.019 E1.62207
G1 X103.814 Y118.811 E1.62752
G1 X103.588 Y118.651 E1.63157
G1 X103.515 Y118.592 E1.63295
G1 X103.214 Y118.358 E1.63853
G1 X102.995 Y118.18 E1.64266
G1 X102.936 Y118.124 E1.64385
G1 X102.661 Y117.877 E1.64926
G1 X102.388 Y117.613 E1.65481
G1 X102.129 Y117.345 E1.66027
G1 X101.885 Y117.074 E1.6656
G1 X101.47 Y116.573 E1.67512
G1 X101.193 Y116.192 E1.68202
G1 X100.987 Y115.888 E1.68739
G1 X100.791 Y115.576 E1.69278
G1 X100.604 Y115.256 E1.69821
G1 X100.425 Y114.921 E1.70377
G1 X100.263 Y114.593 E1.70912
G1 X100.144 Y114.339 E1.71323
G1 X100.111 Y114.255 E1.71455
G1 X99.966 Y113.904 E1.7201
G1 X99.84 Y113.56 E1.72547
G1 X99.724 Y113.21 E1.73086
G1 X99.62 Y112.853 E1.7363
G1 X99.525 Y112.485 E1.74187
G1 X99.446 Y112.123 E1.74729
G1 X99.38 Y111.765 E1.75262
G1 X99.325 Y111.39 E1.75816
G1 X99.284 Y111.021 E1.7636
G1 X99.255 Y110.657 E1.76894
G1 X99.238 Y110.278 E1.77449
G1 X99.235 Y109.914 E1.77982
G1 X99.244 Y109.543 E1.78525
G1 X99.267 Y109.164 E1.79081
G1 X99.301 Y108.802 E1.79613
G1 X99.349 Y108.434 E1.80156
G1 X99.41 Y108.064 E1.80705
G1 X99.463 Y107.78 E1.81127
G1 X99.483 Y107.704 E1.81242
G1 X99.568 Y107.341 E1.81788
G1 X99.667 Y106.979 E1.82337
G1 X99.745 Y106.715 E1.8274
G1 X99.777 Y106.627 E1.82877
G1 X99.864 Y106.364 E1.83282
G1 X99.899 Y106.278 E1.83418
G1 X100.033 Y105.93 E1.83964
G1 X100.18 Y105.586 E1.84512
G1 X100.337 Y105.253 E1.8505
G1 X100.508 Y104.919 E1.85599
G1 X100.688 Y104.597 E1.86139
G1 X100.879 Y104.28 E1.86681
G1 X101.24 Y103.737 E1.87635
G1 X101.297 Y103.663 E1.87772
G1 X101.469 Y103.428 E1.88198
G1 X101.52 Y103.368 E1.88313
G1 X101.76 Y103.073 E1.8887
G1 X101.998 Y102.798 E1.89402
G1 X102.251 Y102.527 E1.89945
G1 X102.723 Y102.062 E1.90914
G1 X102.786 Y102.008 E1.91036
G1 X103.003 Y101.814 E1.91462
G1 X103.067 Y101.764 E1.91581
G0 F6000 X103.281 Y102.037
;TYPE:SKIN
G1 F1200 X103.113 Y102.18 E1.91821
G1 X102.038 Y103.282 E1.93499
G1 X101.124 Y104.546 E1.95199
G1 X100.387 Y105.987 E1.96963
G1 X99.917 Y107.384 E1.9857
G1 X99.634 Y108.968 E2.00323
G1 X99.595 Y110.484 E2.01976
G1 X99.758 Y111.892 E2.03521
G1 X100.071 Y113.138 E2.04921
G1 X100.447 Y114.137 E2.06085
G1 X100.733 Y114.734 E2.06806
G1 X101.168 Y115.48 E2.07748
G0 F6000 X101.125 Y115.748
G1 F1200 X104.255 Y118.878 E2.10987
G0 F6000 X104.516 Y118.828
G1 F1200 X105.263 Y119.264 E2.11939
G1 X106.383 Y119.761 E2.13289
G1 X107.713 Y120.158 E2.14818
G1 X109.18 Y120.381 E2.16453
G1 X110.743 Y120.388 E2.18175
G1 X112.365 Y120.143 E2.19982
G1 X113.79 Y119.701 E2.21625
G1 X115.256 Y118.99 E2.2342
G1 X116.547 Y118.102 E2.25146
G1 X117.669 Y117.047 E2.26843
G1 X118.63 Y115.83 E2.28551
G1 X119.42 Y114.442 E2.3031
G1 X120.015 Y112.859 E2.32173
G1 X120.332 Y111.309 E2.33916
G1 X120.413 Y109.834 E2.35544
G1 X120.303 Y108.48 E2.3704
G1 X120.055 Y107.299 E2.38369
G1 X119.551 Y105.861 E2.40048
G1 X119.265 Y105.264 E2.40777
G1 X118.831 Y104.519 E2.41727
G0 F6000 X118.873 Y104.25
G1 F1200 X115.748 Y101.125 E2.44961
G0 F6000 X115.476 Y101.164
G1 F1200 X114.737 Y100.736 E2.45931
G1 X113.613 Y100.234 E2.4733
G1 X112.286 Y99.84 E2.48902
G1 X110.818 Y99.617 E2.50589
G1 X109.255 Y99.61 E2.52365
G1 X107.634 Y99.856 E2.54228
G1 X106.207 Y100.295 E2.55924
G1 X104.741 Y101.007 E2.57776
G1 X103.451 Y101.895 E2.59555
G0 F6000 X103.563 Y102.007
G0 X106.024 Y100.705
G0 X107.539 Y100.195
G0 X109.112 Y99.929
G0 X110.708 Y99.918
G0 X112.287 Y100.154
G0 X113.655 Y100.586
G0 X117.1 Y102.166
G1 F1200 X117.834 Y102.9 E2.60315
G1 F2700 E-2.39685
G0 F6000 X119.481 Y106.489
G0 X119.915 Y108.025
G0 X120.101 Y109.601
G0 X120.037 Y111.204
G0 X119.723 Y112.768
G0 X119.165 Y114.265
G0 X118.38 Y115.655
G0 X117.386 Y116.904
G0 X116.206 Y117.981
G0 X114.873 Y118.859
G0 X113.417 Y119.514
G0 X111.877 Y119.934
G0 X110.29 Y120.106
G0 X108.696 Y120.024
G0 X107.135 Y119.695
G0 X105.929 Y119.233
G0 X102.898 Y117.832
G1 F2700 E2.60315
G1 F1200 X102.168 Y117.102 E2.6107
G0 F6000 X102.219 Y117.062
;MESH:NONMESH
G0 F600 X102.219 Y117.062 Z0.3
G0 F6000 X105.287 Y118.943
G0 X106.754 Y119.572
G0 X108.301 Y119.965
G0 X109.891 Y120.108
G0 X111.179 Y120.022
G0 X114.295 Y119.594
;TIME_ELAPSED:16.359355
;LAYER:1
M140 S60
M106 S85
;TYPE:WALL-INNER
;MESH:1ee68678-64e4-4338-9850-e2a9b463108b.stl
G1 F1524.2 X114.394 Y119.547 E2.61511
G1 X114.671 Y119.415 E2.62746
G1 X114.714 Y119.393 E2.6294
G1 X115.038 Y119.223 E2.64413
G1 X115.049 Y119.217 E2.64463
G1 X115.361 Y119.04 E2.65907
G1 X115.399 Y119.018 E2.66084
G1 X115.673 Y118.846 E2.67386
G1 X115.751 Y118.797 E2.67756
G1 X115.967 Y118.649 E2.6881
G1 X116.094 Y118.562 E2.6943
G1 X116.266 Y118.434 E2.70292
G1 X116.427 Y118.315 E2.71098
G1 X116.557 Y118.211 E2.71768
G1 X116.75 Y118.055 E2.72767
G1 X116.828 Y117.987 E2.73183
G1 X117.064 Y117.782 E2.74441
G1 X117.107 Y117.741 E2.7468
G1 X117.365 Y117.497 E2.7611
G1 X117.632 Y117.225 E2.77644
G1 X117.656 Y117.2 E2.77783
G1 X117.872 Y116.959 E2.79085
G1 X117.933 Y116.891 E2.79453
G1 X118.109 Y116.682 E2.80553
G1 X118.2 Y116.573 E2.81124
G1 X118.329 Y116.406 E2.81973
G1 X118.454 Y116.244 E2.82797
G1 X118.54 Y116.123 E2.83394
G1 X118.694 Y115.905 E2.84468
G1 X118.746 Y115.825 E2.84852
G1 X118.921 Y115.556 E2.86144
G1 X118.948 Y115.51 E2.86359
G1 X119.133 Y115.199 E2.87815
G1 X119.312 Y114.869 E2.89326
G1 X119.331 Y114.834 E2.89486
G1 X119.465 Y114.56 E2.90714
G1 X119.514 Y114.462 E2.91155
G1 X119.623 Y114.218 E2.9223
G1 X119.684 Y114.083 E2.92826
G1 X119.762 Y113.885 E2.93683
G1 X119.837 Y113.697 E2.94497
G1 X119.885 Y113.561 E2.95078
G1 X119.976 Y113.305 E2.96171
G1 X120.004 Y113.213 E2.96558
G1 X120.098 Y112.909 E2.97839
G1 X120.108 Y112.869 E2.98005
G1 X120.205 Y112.508 E2.99509
G1 X120.284 Y112.152 E3.00977
G1 X120.296 Y112.102 E3.01184
G1 X120.349 Y111.805 E3.02398
G1 X120.37 Y111.694 E3.02852
G1 X120.408 Y111.433 E3.03914
G1 X120.43 Y111.283 E3.04524
G1 X120.45 Y111.076 E3.05361
G1 X120.479 Y110.793 E3.06506
G1 X120.483 Y110.725 E3.0678
G1 X120.502 Y110.416 E3.08026
G1 X120.502 Y110.371 E3.08207
G1 X120.51 Y110 E3.097
G1 X120.503 Y109.622 E3.11222
G1 X120.502 Y109.584 E3.11375
G1 X120.483 Y109.262 E3.12673
G1 X120.477 Y109.171 E3.1304
G1 X120.453 Y108.913 E3.14083
G1 X120.442 Y108.797 E3.14552
G1 X120.407 Y108.542 E3.15588
G1 X120.385 Y108.386 E3.16222
