;FLAVOR:Marlin
;TIME:1319
;Filament used: 0.929729m
;Layer height: 0.22
;MINX:95.22
;MINY:99.22
;MINZ:0.08
;MAXX:124.78
;MAXY:120.78
;MAXZ:19.88
;Generated with Cura_SteamEngine 4.2.1
M140 S60
M105
M190 S60
M104 S200
M105
M109 S200
M82 ;absolute extrusion mode
M201 X500.00 Y500.00 Z100.00 E5000.00 ;Setup machine max acceleration
M203 X500.00 Y500.00 Z10.00 E50.00 ;Setup machine max feedrate
M204 P500.00 R1000.00 T500.00 ;Setup Print/Retract/Travel acceleration
M205 X8.00 Y8.00 Z0.40 E5.00 ;Setup Jerk
M220 S100 ;Reset Feedrate
M221 S100 ;Reset Flowrate

G28 ;Home

G92 E0 ;Reset Extruder
G1 Z2.0 F3000 ;Move Z Axis up
G1 X10.1 Y20 Z0.28 F5000.0 ;Move to start position
G1 X10.1 Y200.0 Z0.28 F1500.0 E15 ;Draw the first line
G1 X10.4 Y200.0 Z0.28 F5000.0 ;Move to side a little
G1 X10.4 Y20 Z0.28 F1500.0 E30 ;Draw the second line
G92 E0 ;Reset Extruder
G1 Z2.0 F3000 ;Move Z Axis up

G92 E0
G92 E0
G1 F2700 E-5
;LAYER_COUNT:91
;LAYER:0
M107
;MESH:19298c95-bebc-4183-8d7c-1ccca33fad48.stl
G0 F6000 X95.66 Y120.34 Z0.08
;TYPE:WALL-INNER
G1 F2700 E0
G1 F1200 X95.66 Y99.66 E0.30264
G1 X124.34 Y99.66 E0.72236
G1 X124.34 Y120.34 E1.025
G1 X95.66 Y120.34 E1.44471
G0 F6000 X95.22 Y120.78
;TYPE:WALL-OUTER
G1 F1200 X95.22 Y99.22 E1.76023
G1 X124.78 Y99.22 E2.19283
G1 X124.78 Y120.78 E2.50835
G1 X95.22 Y120.78 E2.94094
G0 F6000 X95.73 Y120.27
G0 X96.09 Y119.91
;TYPE:SKIN
G1 F1200 X96.09 Y100.09 E3.231
G1 X123.91 Y100.09 E3.63813
G1 X123.91 Y119.91 E3.92818
G1 X96.09 Y119.91 E4.33531
G0 F6000 X96.71 Y119.733
G1 F1200 X96.266 Y119.289 E4.3445
G0 F6000 X96.266 Y118.667
G1 F1200 X97.332 Y119.733 E4.36656
G0 F6000 X97.954 Y119.733
G1 F1200 X96.266 Y118.045 E4.4015
G0 F6000 X96.266 Y117.422
G1 F1200 X98.577 Y119.733 E4.44933
G0 F6000 X99.199 Y119.733
G1 F1200 X96.266 Y116.8 E4.51003
G0 F6000 X96.266 Y116.178
G1 F1200 X99.821 Y119.733 E4.58361
G0 F6000 X100.443 Y119.733
G1 F1200 X96.266 Y115.556 E4.67005
G0 F6000 X96.266 Y114.933
G1 F1200 X101.066 Y119.733 E4.7694
G0 F6000 X101.688 Y119.733
G1 F1200 X96.266 Y114.311 E4.88161
G0 F6000 X96.266 Y113.689
G1 F1200 X102.31 Y119.733 E5.0067
G0 F6000 X102.932 Y119.733
G1 F1200 X96.266 Y113.067 E5.14466
G0 F6000 X96.266 Y112.444
G1 F1200 X103.555 Y119.733 E5.29551
G0 F6000 X104.177 Y119.733
G1 F1200 X96.266 Y111.822 E5.45924
G0 F6000 X96.266 Y111.2
G1 F1200 X104.799 Y119.733 E5.63584
G0 F6000 X105.421 Y119.733
G1 F1200 X96.266 Y110.578 E5.82532
G0 F6000 X96.266 Y109.955
G1 F1200 X106.044 Y119.733 E6.02769
G0 F6000 X106.666 Y119.733
G1 F1200 X96.266 Y109.333 E6.24293
G0 F6000 X96.266 Y108.711
G1 F1200 X107.288 Y119.733 E6.47104
G0 F6000 X107.91 Y119.733
G1 F1200 X96.266 Y108.089 E6.71203
G0 F6000 X96.266 Y107.466
G1 F1200 X108.533 Y119.733 E6.96591
G0 F6000 X109.155 Y119.733
G1 F1200 X96.266 Y106.844 E7.23266
G0 F6000 X96.266 Y106.222
G1 F1200 X109.777 Y119.733 E7.51229
G0 F6000 X110.399 Y119.733
G1 F1200 X96.266 Y105.6 E7.80479
G0 F6000 X96.266 Y104.977
G1 F1200 X111.022 Y119.733 E8.11018
G0 F6000 X111.644 Y119.733
G1 F1200 X96.266 Y104.355 E8.42845
G0 F6000 X96.266 Y103.733
G1 F1200 X112.266 Y119.733 E8.75959
G0 F6000 X112.888 Y119.733
G1 F1200 X96.266 Y103.111 E9.1036
G0 F6000 X96.266 Y102.488
G1 F1200 X113.511 Y119.733 E9.46051
G0 F6000 X114.133 Y119.733
G1 F1200 X96.266 Y101.866 E9.83029
G0 F6000 X96.266 Y101.244
G1 F1200 X114.755 Y119.733 E10.21294
G0 F6000 X115.377 Y119.733
G1 F1200 X96.266 Y100.622 E10.60847
G0 F6000 X96.532 Y100.265
G1 F1200 X116 Y119.733 E11.01138
G0 F6000 X116.622 Y119.733
G1 F1200 X97.154 Y100.265 E11.4143
G0 F6000 X97.776 Y100.265
G1 F1200 X117.244 Y119.733 E11.81721
G0 F6000 X117.866 Y119.733
G1 F1200 X98.398 Y100.265 E12.22013
G0 F6000 X99.021 Y100.265
G1 F1200 X118.489 Y119.733 E12.62304
G0 F6000 X119.111 Y119.733
G1 F1200 X99.643 Y100.265 E13.02596
G0 F6000 X100.265 Y100.265
G1 F1200 X119.733 Y119.733 E13.42887
G0 F6000 X120.355 Y119.733
G1 F1200 X100.887 Y100.265 E13.83179
G0 F6000 X101.51 Y100.265
G1 F1200 X120.978 Y119.733 E14.2347
G0 F6000 X121.6 Y119.733
G1 F1200 X102.132 Y100.265 E14.63762
G0 F6000 X102.754 Y100.265
G1 F1200 X122.222 Y119.733 E15.04053
G0 F6000 X122.844 Y119.733
G1 F1200 X103.376 Y100.265 E15.44345
G0 F6000 X103.999 Y100.265
G1 F1200 X123.467 Y119.733 E15.84636
G0 F6000 X123.733 Y119.377
G1 F1200 X104.621 Y100.265 E16.24191
G0 F6000 X105.243 Y100.265
G1 F1200 X123.733 Y118.755 E16.62458
G0 F6000 X123.733 Y118.132
G1 F1200 X105.865 Y100.265 E16.99437
G0 F6000 X106.488 Y100.265
G1 F1200 X123.733 Y117.51 E17.35128
G0 F6000 X123.733 Y116.888
G1 F1200 X107.11 Y100.265 E17.69531
G0 F6000 X107.732 Y100.265
G1 F1200 X123.733 Y116.266 E18.02647
G0 F6000 X123.733 Y115.643
G1 F1200 X108.354 Y100.265 E18.34475
G0 F6000 X108.977 Y100.265
G1 F1200 X123.733 Y115.021 E18.65014
G0 F6000 X123.733 Y114.399
G1 F1200 X109.599 Y100.265 E18.94266
G0 F6000 X110.221 Y100.265
G1 F1200 X123.733 Y113.777 E19.22231
G0 F6000 X123.733 Y113.154
G1 F1200 X110.843 Y100.265 E19.48908
G0 F6000 X111.466 Y100.265
G1 F1200 X123.733 Y112.532 E19.74296
G0 F6000 X123.733 Y111.91
G1 F1200 X112.088 Y100.265 E19.98396
G0 F6000 X112.71 Y100.265
G1 F1200 X123.733 Y111.288 E20.2121
G0 F6000 X123.733 Y110.665
G1 F1200 X113.332 Y100.265 E20.42735
G0 F6000 X113.955 Y100.265
G1 F1200 X123.733 Y110.043 E20.62972
G0 F6000 X123.733 Y109.421
G1 F1200 X114.577 Y100.265 E20.81921
G0 F6000 X115.199 Y100.265
G1 F1200 X123.733 Y108.798 E20.99583
G0 F6000 X123.733 Y108.176
G1 F1200 X115.821 Y100.265 E21.15956
G0 F6000 X116.444 Y100.265
G1 F1200 X123.733 Y107.554 E21.31042
G0 F6000 X123.733 Y106.932
G1 F1200 X117.066 Y100.265 E21.4484
G0 F6000 X117.688 Y100.265
G1 F1200 X123.733 Y106.309 E21.5735
G0 F6000 X123.733 Y105.687
G1 F1200 X118.31 Y100.265 E21.68572
G0 F6000 X118.933 Y100.265
G1 F1200 X123.733 Y105.065 E21.78507
G0 F6000 X123.733 Y104.443
G1 F1200 X119.555 Y100.265 E21.87154
G0 F6000 X120.177 Y100.265
G1 F1200 X123.733 Y103.82 E21.94512
G0 F6000 X123.733 Y103.198
G1 F1200 X120.8 Y100.265 E22.00582
G0 F6000 X121.422 Y100.265
G1 F1200 X123.733 Y102.576 E22.05365
G0 F6000 X123.733 Y101.954
G1 F1200 X122.044 Y100.265 E22.08861
G0 F6000 X122.666 Y100.265
G1 F1200 X123.733 Y101.331 E22.11068
G0 F6000 X123.733 Y100.709
G1 F1200 X123.289 Y100.265 E22.11987
G1 F2700 E17.11987
;MESH:NONMESH
G0 F600 X123.289 Y100.265 Z0.3
G0 F6000 X95.73 Y120.27
G0 X95.66 Y120.34
;TIME_ELAPSED:86.622398
;LAYER:1
M140 S60
M106 S85
;TYPE:WALL-INNER
;MESH:19298c95-bebc-4183-8d7c-1ccca33fad48.stl
G1 F2700 E22.11987
G1 F2100 X95.66 Y99.66 E22.95213
G1 X124.34 Y99.66 E24.10635
G1 X124.34 Y120.34 E24.93861
G1 X95.66 Y120.34 E26.09283
G0 F9000 X95.22 Y120.78
;TYPE:WALL-OUTER
G1 F2400 X95.22 Y99.22 E26.96051
G1 X124.78 Y99.22 E28.15015
G1 X124.78 Y120.78 E29.01782
G1 X95.22 Y120.78 E30.20746
G0 F9000 X95.73 Y120.27
G0 X96.09 Y119.91
;TYPE:SKIN
G1 F1800 X96.09 Y100.09 E31.00511
G1 X123.91 Y100.09 E32.12472
G1 X123.91 Y119.91 E32.92237
G1 X96.09 Y119.91 E34.04198
G0 F9000 X96.266 Y100.366
G1 F1800 X96.366 Y100.265 E34.0477
G0 F9000 X96.988 Y100.265
G1 F1800 X96.266 Y100.988 E34.08882
G0 F9000 X96.266 Y101.61
G1 F1800 X97.611 Y100.265 E34.16537
G0 F9000 X98.233 Y100.265
G1 F1800 X96.266 Y102.232 E34.27732
G0 F9000 X96.266 Y102.855
G1 F1800 X98.855 Y100.265 E34.4247
G0 F9000 X99.477 Y100.265
G1 F1800 X96.266 Y103.477 E34.60748
G0 F9000 X96.266 Y104.099
G1 F1800 X100.1 Y100.265 E34.82569
G0 F9000 X100.722 Y100.265
G1 F1800 X96.266 Y104.721 E35.07931
G0 F9000 X96.266 Y105.344
G1 F1800 X101.344 Y100.265 E35.36835
G0 F9000 X101.966 Y100.265
G1 F1800 X96.266 Y105.966 E35.69279
G0 F9000 X96.266 Y106.588
G1 F1800 X102.589 Y100.265 E36.05266
G0 F9000 X103.211 Y100.265
G1 F1800 X96.266 Y107.21 E36.44793
G0 F9000 X96.266 Y107.833
G1 F1800 X103.833 Y100.265 E36.87864
G0 F9000 X104.455 Y100.265
G1 F1800 X96.266 Y108.455 E37.34474
G0 F9000 X96.266 Y109.077
G1 F1800 X105.078 Y100.265 E37.84627
G0 F9000 X105.7 Y100.265
G1 F1800 X96.266 Y109.699 E38.3832
G0 F9000 X96.266 Y110.322
G1 F1800 X106.322 Y100.265 E38.95557
G0 F9000 X106.944 Y100.265
G1 F1800 X96.266 Y110.944 E39.56333
G0 F9000 X96.266 Y111.566
G1 F1800 X107.567 Y100.265 E40.20652
G0 F9000 X108.189 Y100.265
G1 F1800 X96.266 Y112.188 E40.88512
G0 F9000 X96.266 Y112.811
G1 F1800 X108.811 Y100.265 E41.59914
G0 F9000 X109.433 Y100.265
G1 F1800 X96.266 Y113.433 E42.34856
G0 F9000 X96.266 Y114.055
G1 F1800 X110.056 Y100.265 E43.13342
G0 F9000 X110.678 Y100.265
G1 F1800 X96.266 Y114.677 E43.95367
G0 F9000 X96.266 Y115.3
G1 F1800 X111.3 Y100.265 E44.80936
G0 F9000 X111.922 Y100.265
G1 F1800 X96.266 Y115.922 E45.70044
G0 F9000 X96.266 Y116.544
G1 F1800 X112.545 Y100.265 E46.62695
G0 F9000 X113.167 Y100.265
G1 F1800 X96.266 Y117.166 E47.58887
G0 F9000 X96.266 Y117.789
G1 F1800 X113.789 Y100.265 E48.58621
G0 F9000 X114.411 Y100.265
G1 F1800 X96.266 Y118.411 E49.61896
G0 F9000 X96.266 Y119.033
G1 F1800 X115.034 Y100.265 E50.68714
G0 F9000 X115.656 Y100.265
G1 F1800 X96.266 Y119.655 E51.79071
G0 F9000 X96.81 Y119.733
G1 F1800 X116.278 Y100.265 E52.89873
G0 F9000 X116.901 Y100.265
G1 F1800 X97.432 Y119.733 E54.00677
G0 F9000 X98.055 Y119.733
G1 F1800 X117.523 Y100.265 E55.11478
G0 F9000 X118.145 Y100.265
G1 F1800 X98.677 Y119.733 E56.2228
G0 F9000 X99.299 Y119.733
G1 F1800 X118.767 Y100.265 E57.33082
G0 F9000 X119.39 Y100.265
G1 F1800 X99.921 Y119.733 E58.43886
G0 F9000 X100.544 Y119.733
G1 F1800 X120.012 Y100.265 E59.54687
G0 F9000 X120.634 Y100.265
G1 F1800 X101.166 Y119.733 E60.65489
G0 F9000 X101.788 Y119.733
G1 F1800 X121.256 Y100.265 E61.7629
G0 F9000 X121.879 Y100.265
G1 F1800 X102.41 Y119.733 E62.87095
G0 F9000 X103.033 Y119.733
G1 F1800 X122.501 Y100.265 E63.97896
G0 F9000 X123.123 Y100.265
G1 F1800 X103.655 Y119.733 E65.08698
G0 F9000 X104.277 Y119.733
G1 F1800 X123.733 Y100.278 E66.19428
G0 F9000 X123.733 Y100.9
G1 F1800 X104.899 Y119.733 E67.26619
G0 F9000 X105.522 Y119.733
G1 F1800 X123.733 Y101.522 E68.30266
G0 F9000 X123.733 Y102.145
G1 F1800 X106.144 Y119.733 E69.3037
G0 F9000 X106.766 Y119.733
G1 F1800 X123.733 Y102.767 E70.26935
G0 F9000 X123.733 Y103.389
G1 F1800 X107.389 Y119.733 E71.19956
G0 F9000 X108.011 Y119.733
G1 F1800 X123.733 Y104.011 E72.09437
G0 F9000 X123.733 Y104.634
G1 F1800 X108.633 Y119.733 E72.95376
G0 F9000 X109.255 Y119.733
G1 F1800 X123.733 Y105.256 E73.77774
G0 F9000 X123.733 Y105.878
G1 F1800 X109.878 Y119.733 E74.56629
G0 F9000 X110.5 Y119.733
G1 F1800 X123.733 Y106.5 E75.31944
G0 F9000 X123.733 Y107.123
G1 F1800 X111.122 Y119.733 E76.03717
G0 F9000 X111.744 Y119.733
G1 F1800 X123.733 Y107.745 E76.71949
G0 F9000 X123.733 Y108.367
G1 F1800 X112.367 Y119.733 E77.36638
G0 F9000 X112.989 Y119.733
G1 F1800 X123.733 Y108.989 E77.97787
G0 F9000 X123.733 Y109.612
G1 F1800 X113.611 Y119.733 E78.55393
G0 F9000 X114.233 Y119.733
G1 F1800 X123.733 Y110.234 E79.09459
G0 F9000 X123.733 Y110.856
G1 F1800 X114.856 Y119.733 E79.59983
G0 F9000 X115.478 Y119.733
G1 F1800 X123.733 Y111.478 E80.06966
G0 F9000 X123.733 Y112.101
G1 F1800 X116.1 Y119.733 E80.50406
G0 F9000 X116.722 Y119.733
G1 F1800 X123.733 Y112.723 E80.90306
G0 F9000 X123.733 Y113.345
G1 F1800 X117.345 Y119.733 E81.26663
G0 F9000 X117.967 Y119.733
G1 F1800 X123.733 Y113.967 E81.5948
G0 F9000 X123.733 Y114.59
G1 F1800 X118.589 Y119.733 E81.88754
G0 F9000 X119.211 Y119.733
G1 F1800 X123.733 Y115.212 E82.14488
G0 F9000 X123.733 Y115.834
G1 F1800 X119.834 Y119.733 E82.36679
G0 F9000 X120.456 Y119.733
G1 F1800 X123.733 Y116.456 E82.5533
G0 F9000 X123.733 Y117.079
G1 F1800 X121.078 Y119.733 E82.70438
G0 F9000 X121.7 Y119.733
G1 F1800 X123.733 Y117.701 E82.82006
G0 F9000 X123.733 Y118.323
G1 F1800 X122.323 Y119.733 E82.90031
G0 F9000 X122.945 Y119.733
G1 F1800 X123.733 Y118.945 E82.94516
G0 F9000 X123.733 Y119.568
G1 F1800 X123.567 Y119.733 E82.95458
;MESH:NONMESH
G0 F600 X123.567 Y119.733 Z0.52
G0 F9000 X95.73 Y120.27
G0 X95.66 Y120.34
;TIME_ELAPSED:144.317791
;LAYER:2
M106 S170
;TYPE:WALL-INNER
;MESH:19298c95-bebc-4183-8d7c-1ccca33fad48.stl
G1 F3000 X95.66 Y99.66 E83.78684
G1 X124.34 Y99.66 E84.94106
G1 X124.34 Y120.34 E85.77332
G1 X95.66 Y120.34 E86.92754
G0 F12000 X95.22 Y120.78
;TYPE:WALL-OUTER
G1 F3600 X95.22 Y99.22 E87.79522
G1 X124.78 Y99.22 E88.98485
G1 X124.78 Y120.78 E89.85253
G1 X95.22 Y120.78 E91.04216
G0 F12000 X95.73 Y120.27
G0 X96.09 Y119.91
;TYPE:SKIN
G1 F2400 X96.09 Y100.09 E91.83982
G1 X123.91 Y100.09 E92.95943
G1 X123.91 Y119.91 E93.75708
G1 X96.09 Y119.91 E94.87669
G0 F12000 X96.71 Y119.733
G1 F2400 X96.266 Y119.289 E94.90196
G0 F12000 X96.266 Y118.667
G1 F2400 X97.332 Y119.733 E94.96263
G0 F12000 X97.954 Y119.733
G1 F2400 X96.266 Y118.045 E95.0587
G0 F12000 X96.266 Y117.422
G1 F2400 X98.577 Y119.733 E95.19023
G0 F12000 X99.199 Y119.733
G1 F2400 X96.266 Y116.8 E95.35716
G0 F12000 X96.266 Y116.178
G1 F2400 X99.821 Y119.733 E95.55949
G0 F12000 X100.443 Y119.733
G1 F2400 X96.266 Y115.556 E95.79722
G0 F12000 X96.266 Y114.933
G1 F2400 X101.066 Y119.733 E96.07041
G0 F12000 X101.688 Y119.733
G1 F2400 X96.266 Y114.311 E96.37901
G0 F12000 X96.266 Y113.689
G1 F2400 X102.31 Y119.733 E96.723
G0 F12000 X102.932 Y119.733
G1 F2400 X96.266 Y113.067 E97.10239
G0 F12000 X96.266 Y112.444
G1 F2400 X103.555 Y119.733 E97.51724
G0 F12000 X104.177 Y119.733
G1 F2400 X96.266 Y111.822 E97.9675
G0 F12000 X96.266 Y111.2
G1 F2400 X104.799 Y119.733 E98.45315
G0 F12000 X105.421 Y119.733
G1 F2400 X96.266 Y110.578 E98.9742
G0 F12000 X96.266 Y109.955
G1 F2400 X106.044 Y119.733 E99.53071
G0 F12000 X106.666 Y119.733
G1 F2400 X96.266 Y109.333 E100.12263
G0 F12000 X96.266 Y108.711
G1 F2400 X107.288 Y119.733 E100.74994
G0 F12000 X107.91 Y119.733
G1 F2400 X96.266 Y108.089 E101.41266
G0 F12000 X96.266 Y107.466
G1 F2400 X108.533 Y119.733 E102.11083
G0 F12000 X109.155 Y119.733
G1 F2400 X96.266 Y106.844 E102.8444
G0 F12000 X96.266 Y106.222
G1 F2400 X109.777 Y119.733 E103.61338
G0 F12000 X110.399 Y119.733
G1 F2400 X96.266 Y105.6 E104.41775
G0 F12000 X96.266 Y104.977
G1 F2400 X111.022 Y119.733 E105.25758
G0 F12000 X111.644 Y119.733
G1 F2400 X96.266 Y104.355 E106.13282
G0 F12000 X96.266 Y103.733
G1 F2400 X112.266 Y119.733 E107.04345
G0 F12000 X112.888 Y119.733
G1 F2400 X96.266 Y103.111 E107.98949
G0 F12000 X96.266 Y102.488
G1 F2400 X113.511 Y119.733 E108.97098
G0 F12000 X114.133 Y119.733
G1 F2400 X96.266 Y101.866 E109.98788
G0 F12000 X96.266 Y101.244
G1 F2400 X114.755 Y119.733 E111.04017
G0 F12000 X115.377 Y119.733
G1 F2400 X96.266 Y100.622 E112.12787
G0 F12000 X96.532 Y100.265
G1 F2400 X116 Y119.733 E113.23589
G0 F12000 X116.622 Y119.733
G1 F2400 X97.154 Y100.265 E114.3439
G0 F12000 X97.776 Y100.265
G1 F2400 X117.244 Y119.733 E115.45192
G0 F12000 X117.866 Y119.733
G1 F2400 X98.398 Y100.265 E116.55993
G0 F12000 X99.021 Y100.265
G1 F2400 X118.489 Y119.733 E117.66795
G0 F12000 X119.111 Y119.733
G1 F2400 X99.643 Y100.265 E118.77596
G0 F12000 X100.265 Y100.265
G1 F2400 X119.733 Y119.733 E119.88398
G0 F12000 X120.355 Y119.733
G1 F2400 X100.887 Y100.265 E120.99199
G0 F12000 X101.51 Y100.265
G1 F2400 X120.978 Y119.733 E122.10001
G0 F12000 X121.6 Y119.733
G1 F2400 X102.132 Y100.265 E123.20802
G0 F12000 X102.754 Y100.265
G1 F2400 X122.222 Y119.733 E124.31604
G0 F12000 X122.844 Y119.733
G1 F2400 X103.376 Y100.265 E125.42405
G0 F12000 X103.999 Y100.265
G1 F2400 X123.467 Y119.733 E126.53207
G0 F12000 X123.733 Y119.377
G1 F2400 X104.621 Y100.265 E127.61982
G0 F12000 X105.243 Y100.265
G1 F2400 X123.733 Y118.755 E128.67217
G0 F12000 X123.733 Y118.132
G1 F2400 X105.865 Y100.265 E129.6891
G0 F12000 X106.488 Y100.265
G1 F2400 X123.733 Y117.51 E130.67059
G0 F12000 X123.733 Y116.888
G1 F2400 X107.11 Y100.265 E131.61668
G0 F12000 X107.732 Y100.265
G1 F2400 X123.733 Y116.266 E132.52738
G0 F12000 X123.733 Y115.643
G1 F2400 X108.354 Y100.265 E133.40264
G0 F12000 X108.977 Y100.265
G1 F2400 X123.733 Y115.021 E134.24247
G0 F12000 X123.733 Y114.399
G1 F2400 X109.599 Y100.265 E135.0469
G0 F12000 X110.221 Y100.265
G1 F2400 X123.733 Y113.777 E135.81593
G0 F12000 X123.733 Y113.154
G1 F2400 X110.843 Y100.265 E136.54954
G0 F12000 X111.466 Y100.265
G1 F2400 X123.733 Y112.532 E137.24771
G0 F12000 X123.733 Y111.91
G1 F2400 X112.088 Y100.265 E137.91048
