;FLAVOR:Marlin
;TIME:1454
;Filament used: 1.12787m
;Layer height: 0.22
;MINX:90.82
;MINY:90.82
;MINZ:0.1
;MAXX:129.18
;MAXY:129.18
;MAXZ:16.82
;Generated with Cura_SteamEngine 4.2.1
M140 S60
M105
M190 S60
M104 S200
M105
M109 S200
M82 ;absolute extrusion mode
M201 X500.00 Y500.00 Z100.00 E5000.00 ;Setup machine max acceleration
M203 X500.00 Y500.00 Z10.00 E50.00 ;Setup machine max feedrate
M204 P500.00 R1000.00 T500.00 ;Setup Print/Retract/Travel acceleration
M205 X8.00 Y8.00 Z0.40 E5.00 ;Setup Jerk
M220 S100 ;Reset Feedrate
M221 S100 ;Reset Flowrate

G28 ;Home

G92 E0 ;Reset Extruder
G1 Z2.0 F3000 ;Move Z Axis up
G1 X10.1 Y20 Z0.28 F5000.0 ;Move to start position
G1 X10.1 Y200.0 Z0.28 F1500.0 E15 ;Draw the first line
G1 X10.4 Y200.0 Z0.28 F5000.0 ;Move to side a little
G1 X10.4 Y20 Z0.28 F1500.0 E30 ;Draw the second line
G92 E0 ;Reset Extruder
G1 Z2.0 F3000 ;Move Z Axis up

G92 E0
G92 E0
G1 F2700 E-5
;LAYER_COUNT:77
;LAYER:0
M107
;MESH:Mini_Apprentice_Motor_Mount.stl
G0 F6000 X110.635 Y122.268 Z0.1
;TYPE:WALL-INNER
G1 F2700 E0
G1 F1200 X110.671 Y122.26 E0.00067
G1 X110.886 Y122.165 E0.00497
G1 X111.097 Y122.072 E0.00919
G1 X111.47 Y121.803 E0.01761
G1 X111.782 Y121.461 E0.02607
G1 X112.016 Y121.061 E0.03455
G1 X112.161 Y120.623 E0.04299
G1 X112.21 Y120.187 E0.05102
G1 X112.21 Y117.667 E0.09712
G1 X112.168 Y117.252 E0.10475
G1 X112.027 Y116.812 E0.1132
G1 X111.798 Y116.41 E0.12166
G1 X111.49 Y116.064 E0.13014
G1 X111.118 Y115.791 E0.13858
G1 X110.696 Y115.6 E0.14705
G1 X110.245 Y115.501 E0.1555
G1 X109.783 Y115.498 E0.16395
G1 X109.329 Y115.59 E0.17242
G1 X108.903 Y115.778 E0.18094
G1 X108.53 Y116.047 E0.18935
G1 X108.218 Y116.389 E0.19782
G1 X107.984 Y116.789 E0.2063
G1 X107.839 Y117.227 E0.21474
G1 X107.79 Y117.663 E0.22276
G1 X107.79 Y120.183 E0.26886
G1 X107.832 Y120.598 E0.27649
G1 X107.973 Y121.038 E0.28495
G1 X108.202 Y121.44 E0.29341
G1 X108.51 Y121.786 E0.30188
G1 X108.882 Y122.059 E0.31032
G1 X109.122 Y122.168 E0.31515
G1 X109.304 Y122.25 E0.3188
G1 X109.755 Y122.349 E0.32724
G1 X109.767 Y122.349 E0.32746
G1 X110.217 Y122.352 E0.3357
G1 X110.635 Y122.268 E0.34349
G0 F6000 X110.537 Y121.838
;TYPE:WALL-OUTER
G1 F1200 X110.877 Y121.688 E0.35029
G1 X111.176 Y121.473 E0.35703
G1 X111.426 Y121.199 E0.36381
G1 X111.613 Y120.879 E0.37059
G1 X111.729 Y120.528 E0.37736
G1 X111.77 Y120.162 E0.38409
G1 X111.77 Y117.689 E0.42933
G1 X111.735 Y117.342 E0.43571
G1 X111.622 Y116.99 E0.44248
G1 X111.439 Y116.668 E0.44925
G1 X111.192 Y116.391 E0.45604
G1 X110.895 Y116.173 E0.46278
G1 X110.557 Y116.02 E0.46957
G1 X110.196 Y115.941 E0.47633
G1 X109.826 Y115.938 E0.4831
G1 X109.463 Y116.012 E0.48987
G1 X109.123 Y116.162 E0.49667
G1 X108.824 Y116.377 E0.50341
G1 X108.574 Y116.651 E0.51019
G1 X108.387 Y116.971 E0.51697
G1 X108.271 Y117.322 E0.52373
G1 X108.23 Y117.688 E0.53047
G1 X108.23 Y120.161 E0.57571
G1 X108.265 Y120.508 E0.58209
G1 X108.378 Y120.86 E0.58885
G1 X108.561 Y121.182 E0.59563
G1 X108.808 Y121.459 E0.60242
G1 X109.105 Y121.677 E0.60916
G1 X109.443 Y121.83 E0.61594
G1 X109.804 Y121.909 E0.6227
G1 X110.174 Y121.912 E0.62947
G1 X110.537 Y121.838 E0.63625
G0 F6000 X110.683 Y122.299
G0 X110.701 Y122.355
G0 X109.751 Y122.388
G0 X109.292 Y122.287
G0 X108.862 Y122.093
G0 X108.484 Y121.815
G0 X98.168 Y111.496
G0 X97.645 Y110.701
G0 X97.74 Y110.671
;TYPE:WALL-INNER
G1 F1200 X97.78 Y110.763 E0.63808
G1 X97.801 Y110.812 E0.63906
G1 X97.928 Y111.097 E0.64477
G1 X98.197 Y111.47 E0.65318
G1 X98.539 Y111.782 E0.66165
G1 X98.939 Y112.016 E0.67013
G1 X99.377 Y112.161 E0.67857
G1 X99.813 Y112.21 E0.68659
G1 X102.333 Y112.21 E0.73269
G1 X102.748 Y112.168 E0.74032
G1 X103.188 Y112.027 E0.74877
G1 X103.59 Y111.798 E0.75724
G1 X103.936 Y111.49 E0.76571
G1 X104.209 Y111.118 E0.77415
G1 X104.4 Y110.696 E0.78263
G1 X104.499 Y110.245 E0.79107
G1 X104.502 Y109.783 E0.79952
G1 X104.41 Y109.329 E0.808
G1 X104.222 Y108.903 E0.81652
G1 X103.953 Y108.53 E0.82493
G1 X103.611 Y108.218 E0.8334
G1 X103.211 Y107.984 E0.84187
G1 X102.773 Y107.839 E0.85031
G1 X102.337 Y107.79 E0.85834
G1 X99.817 Y107.79 E0.90444
G1 X99.402 Y107.832 E0.91207
G1 X98.962 Y107.973 E0.92052
G1 X98.56 Y108.202 E0.92898
G1 X98.214 Y108.51 E0.93746
G1 X97.941 Y108.882 E0.9459
G1 X97.799 Y109.195 E0.95219
G1 X97.778 Y109.243 E0.95314
G1 X97.75 Y109.304 E0.95437
G1 X97.651 Y109.755 E0.96282
G1 X97.65 Y110.003 E0.96736
G1 X97.648 Y110.217 E0.97127
G1 X97.74 Y110.671 E0.97974
G0 F6000 X98.162 Y110.537
;TYPE:WALL-OUTER
G1 F1200 X98.312 Y110.877 E0.98654
G1 X98.527 Y111.176 E0.99328
G1 X98.801 Y111.426 E1.00006
G1 X99.121 Y111.613 E1.00684
G1 X99.472 Y111.729 E1.01361
G1 X99.838 Y111.77 E1.02034
G1 X102.311 Y111.77 E1.06558
G1 X102.658 Y111.735 E1.07196
G1 X103.01 Y111.622 E1.07873
G1 X103.332 Y111.439 E1.0855
G1 X103.609 Y111.192 E1.09229
G1 X103.827 Y110.895 E1.09903
G1 X103.98 Y110.557 E1.10582
G1 X104.059 Y110.196 E1.11258
G1 X104.062 Y109.826 E1.11935
G1 X103.988 Y109.463 E1.12612
G1 X103.838 Y109.123 E1.13292
G1 X103.623 Y108.824 E1.13966
G1 X103.349 Y108.574 E1.14644
G1 X103.029 Y108.387 E1.15322
G1 X102.678 Y108.271 E1.15998
G1 X102.312 Y108.23 E1.16672
G1 X99.839 Y108.23 E1.21196
G1 X99.492 Y108.265 E1.21834
G1 X99.14 Y108.378 E1.2251
G1 X98.818 Y108.561 E1.23188
G1 X98.541 Y108.808 E1.23867
G1 X98.323 Y109.105 E1.24541
G1 X98.17 Y109.443 E1.25219
G1 X98.091 Y109.804 E1.25895
G1 X98.088 Y110.174 E1.26572
G1 X98.162 Y110.537 E1.2725
G0 F6000 X97.701 Y110.683
G0 X97.645 Y110.701
G0 X98.168 Y111.496
G0 X98.516 Y111.814
G0 X98.923 Y112.052
G0 X99.175 Y112.135
G0 X106.81 Y113.189
G0 X106.88 Y113.119
;TYPE:WALL-INNER
G1 F1200 X107.335 Y113.515 E1.28353
G1 X107.824 Y113.837 E1.29424
G1 X108.366 Y114.098 E1.30525
G1 X108.94 Y114.281 E1.31627
G1 X109.532 Y114.386 E1.32727
G1 X110.133 Y114.408 E1.33827
G1 X110.731 Y114.351 E1.34926
G1 X111.32 Y114.21 E1.36034
G1 X111.88 Y113.991 E1.37134
G1 X112.405 Y113.698 E1.38234
G1 X112.887 Y113.337 E1.39335
G1 X113.315 Y112.911 E1.4044
G1 X113.679 Y112.433 E1.41539
G1 X113.977 Y111.909 E1.42642
G1 X114.199 Y111.35 E1.43742
G1 X114.343 Y110.764 E1.44846
G1 X114.407 Y110.168 E1.45942
G1 X114.39 Y109.566 E1.47044
G1 X114.29 Y108.972 E1.48146
G1 X114.11 Y108.396 E1.4925
G1 X113.852 Y107.852 E1.50351
G1 X113.524 Y107.348 E1.51451
G1 X113.131 Y106.893 E1.52551
G1 X112.679 Y106.496 E1.53652
G1 X112.177 Y106.164 E1.54753
G1 X111.634 Y105.902 E1.55855
G1 X111.06 Y105.719 E1.56958
G1 X110.468 Y105.614 E1.58057
G1 X109.867 Y105.592 E1.59158
G1 X109.269 Y105.649 E1.60256
G1 X108.68 Y105.79 E1.61364
G1 X108.12 Y106.009 E1.62464
G1 X107.595 Y106.302 E1.63564
G1 X107.113 Y106.663 E1.64666
G1 X106.685 Y107.089 E1.6577
G1 X106.321 Y107.567 E1.66869
G1 X106.023 Y108.091 E1.67972
G1 X105.801 Y108.65 E1.69072
G1 X105.657 Y109.236 E1.70176
G1 X105.593 Y109.832 E1.71273
G1 X105.61 Y110.434 E1.72375
G1 X105.71 Y111.028 E1.73476
G1 X105.89 Y111.604 E1.7458
G1 X106.148 Y112.148 E1.75682
G1 X106.475 Y112.652 E1.76781
G1 X106.88 Y113.119 E1.77912
G0 F6000 X107.192 Y112.808
;TYPE:WALL-OUTER
G1 F1200 X107.601 Y113.164 E1.78904
G1 X108.041 Y113.453 E1.79866
G1 X108.529 Y113.688 E1.80857
G1 X109.046 Y113.853 E1.8185
G1 X109.579 Y113.947 E1.8284
G1 X110.12 Y113.967 E1.8383
G1 X110.659 Y113.916 E1.84821
G1 X111.188 Y113.789 E1.85816
G1 X111.692 Y113.592 E1.86806
G1 X112.165 Y113.328 E1.87797
G1 X112.598 Y113.003 E1.88787
G1 X112.983 Y112.62 E1.89781
G1 X113.311 Y112.19 E1.9077
G1 X113.579 Y111.718 E1.91763
G1 X113.779 Y111.215 E1.92753
G1 X113.909 Y110.688 E1.93746
G1 X113.966 Y110.151 E1.94734
G1 X113.951 Y109.609 E1.95726
G1 X113.861 Y109.075 E1.96716
G1 X113.699 Y108.557 E1.97709
G1 X113.467 Y108.067 E1.98701
G1 X113.172 Y107.613 E1.99691
G1 X112.818 Y107.204 E2.00681
G1 X112.411 Y106.846 E2.01673
G1 X111.959 Y106.547 E2.02664
G1 X111.471 Y106.312 E2.03655
G1 X110.954 Y106.147 E2.04647
G1 X110.421 Y106.053 E2.05638
G1 X109.88 Y106.033 E2.06628
G1 X109.341 Y106.084 E2.07618
G1 X108.812 Y106.211 E2.08613
G1 X108.308 Y106.408 E2.09603
G1 X107.835 Y106.672 E2.10594
G1 X107.402 Y106.997 E2.11585
G1 X107.017 Y107.38 E2.12578
G1 X106.689 Y107.81 E2.13567
G1 X106.421 Y108.282 E2.1456
G1 X106.221 Y108.785 E2.15551
G1 X106.091 Y109.312 E2.16543
G1 X106.034 Y109.849 E2.17531
G1 X106.049 Y110.391 E2.18523
G1 X106.139 Y110.925 E2.19514
G1 X106.301 Y111.443 E2.20507
G1 X106.533 Y111.933 E2.21498
G1 X106.828 Y112.387 E2.22489
G1 X107.192 Y112.808 E2.23507
G0 F6000 X106.85 Y113.149
G0 X106.81 Y113.189
G0 X107.805 Y113.871
G0 X108.352 Y114.135
G0 X108.931 Y114.319
G0 X109.528 Y114.425
G0 X110.134 Y114.447
G0 X110.737 Y114.39
G0 X111.331 Y114.248
G0 X111.897 Y114.027
G0 X112.426 Y113.731
G0 X112.82 Y113.437
G0 X115.495 Y110.701
G0 X115.59 Y110.671
;TYPE:WALL-INNER
G1 F1200 X115.778 Y111.097 E2.24359
G1 X116.047 Y111.47 E2.252
G1 X116.389 Y111.782 E2.26047
G1 X116.789 Y112.016 E2.26895
G1 X117.227 Y112.161 E2.27739
G1 X117.663 Y112.21 E2.28541
G1 X120.183 Y112.21 E2.33151
G1 X120.598 Y112.168 E2.33914
G1 X121.038 Y112.027 E2.34759
G1 X121.44 Y111.798 E2.35606
G1 X121.786 Y111.49 E2.36453
G1 X122.059 Y111.118 E2.37297
G1 X122.166 Y110.882 E2.37771
G1 X122.25 Y110.696 E2.38144
G1 X122.315 Y110.4 E2.38699
G1 X122.349 Y110.245 E2.38989
G1 X122.352 Y109.783 E2.39834
G1 X122.313 Y109.589 E2.40196
G1 X122.26 Y109.329 E2.40682
G1 X122.165 Y109.112 E2.41115
G1 X122.072 Y108.903 E2.41533
G1 X121.803 Y108.53 E2.42375
G1 X121.461 Y108.218 E2.43222
G1 X121.061 Y107.984 E2.44069
G1 X120.623 Y107.839 E2.44913
G1 X120.187 Y107.79 E2.45716
G1 X117.667 Y107.79 E2.50326
G1 X117.252 Y107.832 E2.51089
G1 X116.812 Y107.973 E2.51934
G1 X116.41 Y108.202 E2.5278
G1 X116.064 Y108.51 E2.53628
G1 X115.791 Y108.882 E2.54472
G1 X115.6 Y109.304 E2.55319
G1 X115.501 Y109.755 E2.56164
G1 X115.498 Y110.217 E2.57009
G1 X115.59 Y110.671 E2.57856
G0 F6000 X116.012 Y110.537
;TYPE:WALL-OUTER
G1 F1200 X116.162 Y110.877 E2.58536
G1 X116.377 Y111.176 E2.5921
G1 X116.651 Y111.426 E2.59888
G1 X116.971 Y111.613 E2.60566
G1 X117.322 Y111.729 E2.61243
G1 X117.688 Y111.77 E2.61916
G1 X120.161 Y111.77 E2.6644
G1 X120.508 Y111.735 E2.67078
G1 X120.86 Y111.622 E2.67754
G1 X121.182 Y111.439 E2.68432
G1 X121.459 Y111.192 E2.69111
G1 X121.677 Y110.895 E2.69785
G1 X121.83 Y110.557 E2.70464
G1 X121.909 Y110.196 E2.7114
G1 X121.912 Y109.826 E2.71816
G1 X121.838 Y109.463 E2.72494
G1 X121.688 Y109.123 E2.73174
G1 X121.473 Y108.824 E2.73848
G1 X121.199 Y108.574 E2.74526
G1 X120.879 Y108.387 E2.75204
G1 X120.528 Y108.271 E2.7588
G1 X120.162 Y108.23 E2.76554
G1 X117.689 Y108.23 E2.81078
G1 X117.342 Y108.265 E2.81716
G1 X116.99 Y108.378 E2.82392
G1 X116.668 Y108.561 E2.8307
G1 X116.391 Y108.808 E2.83749
G1 X116.173 Y109.105 E2.84423
G1 X116.02 Y109.443 E2.85101
G1 X115.941 Y109.804 E2.85777
G1 X115.938 Y110.174 E2.86454
G1 X116.012 Y110.537 E2.87132
G0 F6000 X115.551 Y110.683
G0 X115.495 Y110.701
G0 X113.555 Y107.324
G0 X113.443 Y107.195
G0 X110.701 Y104.505
G0 X110.671 Y104.41
;TYPE:WALL-INNER
G1 F1200 X111.097 Y104.222 E2.87984
G1 X111.47 Y103.953 E2.88825
G1 X111.782 Y103.611 E2.89672
G1 X112.016 Y103.211 E2.9052
G1 X112.161 Y102.773 E2.91364
G1 X112.21 Y102.337 E2.92166
G1 X112.21 Y99.817 E2.96776
G1 X112.168 Y99.402 E2.97539
G1 X112.027 Y98.962 E2.98384
G1 X111.798 Y98.56 E2.99231
G1 X111.49 Y98.214 E3.00078
G1 X111.118 Y97.941 E3.00922
G1 X110.877 Y97.832 E3.01406
G1 X110.696 Y97.75 E3.01769
G1 X110.625 Y97.735 E3.01902
G1 X110.245 Y97.651 E3.02614
G1 X109.783 Y97.648 E3.03459
G1 X109.329 Y97.74 E3.04307
G1 X109.114 Y97.835 E3.04737
G1 X108.903 Y97.928 E3.05158
G1 X108.53 Y98.197 E3.06
G1 X108.218 Y98.539 E3.06847
G1 X107.984 Y98.939 E3.07694
G1 X107.839 Y99.377 E3.08538
G1 X107.79 Y99.813 E3.09341
G1 X107.79 Y102.333 E3.13951
G1 X107.832 Y102.748 E3.14714
G1 X107.973 Y103.188 E3.15559
G1 X108.202 Y103.59 E3.16405
G1 X108.51 Y103.936 E3.17253
G1 X108.882 Y104.209 E3.18097
G1 X109.304 Y104.4 E3.18944
G1 X109.755 Y104.499 E3.19789
G1 X110.217 Y104.502 E3.20634
G1 X110.671 Y104.41 E3.21481
G0 F6000 X110.537 Y103.988
;TYPE:WALL-OUTER
G1 F1200 X110.877 Y103.838 E3.22161
G1 X111.176 Y103.623 E3.22835
G1 X111.426 Y103.349 E3.23513
G1 X111.613 Y103.029 E3.24191
G1 X111.729 Y102.678 E3.24868
G1 X111.77 Y102.312 E3.25541
G1 X111.77 Y99.839 E3.30065
G1 X111.735 Y99.492 E3.30703
G1 X111.622 Y99.14 E3.31379
G1 X111.439 Y98.818 E3.32057
G1 X111.192 Y98.541 E3.32736
G1 X110.895 Y98.323 E3.3341
G1 X110.557 Y98.17 E3.34089
G1 X110.196 Y98.091 E3.34765
G1 X109.826 Y98.088 E3.35441
G1 X109.463 Y98.162 E3.36119
G1 X109.123 Y98.312 E3.36799
G1 X108.824 Y98.527 E3.37473
G1 X108.574 Y98.801 E3.38151
G1 X108.387 Y99.121 E3.38829
G1 X108.271 Y99.472 E3.39505
G1 X108.23 Y99.838 E3.40179
G1 X108.23 Y102.311 E3.44703
G1 X108.265 Y102.658 E3.45341
G1 X108.378 Y103.01 E3.46017
G1 X108.561 Y103.332 E3.46695
G1 X108.808 Y103.609 E3.47374
G1 X109.105 Y103.827 E3.48048
G1 X109.443 Y103.98 E3.48726
G1 X109.804 Y104.059 E3.49402
G1 X110.174 Y104.062 E3.50079
G1 X110.537 Y103.988 E3.50757
G0 F6000 X110.683 Y104.449
G0 X110.701 Y104.505
G0 X111.496 Y103.982
G0 X111.814 Y103.634
G0 X112.052 Y103.227
G0 X112.2 Y102.781
G0 X112.249 Y102.339
G0 X112.207 Y99.394
G0 X111.614 Y97.561
G0 X111.626 Y97.462
;TYPE:WALL-INNER
G1 F1200 X112.556 Y97.618 E3.52482
G1 X113.461 Y97.839 E3.54186
G1 X114.333 Y98.122 E3.55863
G1 X115.218 Y98.485 E3.57613
G1 X116.048 Y98.897 E3.59308
G1 X116.847 Y99.371 E3.61008
G1 X117.614 Y99.907 E3.62719
G1 X118.347 Y100.505 E3.6445
G1 X119.015 Y101.138 E3.66133
G1 X119.651 Y101.834 E3.67858
G1 X120.225 Y102.565 E3.69558
G1 X120.749 Y103.346 E3.71279
G1 X121.209 Y104.153 E3.72978
G1 X121.612 Y105.003 E3.74699
G1 X121.949 Y105.872 E3.76404
G1 X122.218 Y106.757 E3.78096
G1 X122.423 Y107.664 E3.79797
G1 X122.564 Y108.601 E3.8153
G1 X122.599 Y109.066 E3.82383
G1 X122.616 Y109.302 E3.82776
G1 X122.633 Y109.524 E3.83084
G1 X122.633 Y109.783 E3.8343
G1 X122.633 Y110.244 E3.83973
G1 X122.634 Y110.47 E3.8428
G1 X122.616 Y110.722 E3.84634
G1 X122.601 Y110.926 E3.84978
G1 X122.566 Y111.395 E3.85838
G1 X122.427 Y112.322 E3.87553
G1 X122.221 Y113.238 E3.89271
G1 X121.953 Y114.121 E3.90959
G1 X121.615 Y114.993 E3.92669
G1 X121.212 Y115.843 E3.9439
G1 X120.756 Y116.643 E3.96075
G1 X120.226 Y117.432 E3.97813
G1 X119.653 Y118.164 E3.99514
G1 X119.019 Y118.858 E4.01233
G1 X118.351 Y119.491 E4.02917
G1 X117.618 Y120.089 E4.04647
G1 X116.851 Y120.625 E4.06359
G1 X116.057 Y121.096 E4.08048
G1 X115.212 Y121.517 E4.09775
G1 X114.349 Y121.869 E4.1148
G1 X113.467 Y122.157 E4.13177
G1 X112.559 Y122.38 E4.14888
G1 X111.631 Y122.536 E4.16609
G1 X110.941 Y122.6 E4.17877
G1 X110.707 Y122.621 E4.18269
G1 X110.678 Y122.621 E4.18322
G1 X110.223 Y122.63 E4.18931
G1 X109.766 Y122.639 E4.19474
G1 X109.74 Y122.638 E4.1951
G1 X109.285 Y122.614 E4.20142
G1 X109.085 Y122.603 E4.20478
G1 X108.832 Y122.589 E4.20941
G1 X107.921 Y122.47 E4.22622
G1 X106.992 Y122.28 E4.24356
G1 X106.104 Y122.028 E4.26045
G1 X105.212 Y121.701 E4.27783
G1 X104.372 Y121.321 E4.29469
G1 X103.552 Y120.875 E4.31177
G1 X102.762 Y120.365 E4.32897
G1 X102.012 Y119.798 E4.34617
G1 X101.313 Y119.185 E4.36318
G1 X100.659 Y118.519 E4.38025
G1 X100.056 Y117.806 E4.39733
G1 X99.502 Y117.045 E4.41455
G1 X99.014 Y116.256 E4.43152
G1 X98.582 Y115.428 E4.44861
G1 X98.215 Y114.575 E4.4656
G1 X97.907 Y113.683 E4.48286
G1 X97.67 Y112.786 E4.49983
G1 X97.496 Y111.856 E4.51714
G1 X97.399 Y110.988 E4.53312
G1 X97.394 Y110.935 E4.53407
G1 X97.385 Y110.684 E4.5383
G1 X97.368 Y110.227 E4.54448
G1 X97.359 Y110.002 E4.5472
G1 X97.368 Y109.745 E4.5503
G1 X97.384 Y109.291 E4.55643
G1 X97.392 Y109.07 E4.56021
G1 X97.397 Y109.018 E4.56115
G1 X97.494 Y108.149 E4.57715
G1 X97.668 Y107.214 E4.59454
G1 X97.902 Y106.328 E4.61131
G1 X98.214 Y105.426 E4.62877
G1 X98.579 Y104.577 E4.64567
G1 X99.008 Y103.755 E4.66263
G1 X99.506 Y102.95 E4.67995
G1 X100.053 Y102.198 E4.69696
G1 X100.655 Y101.484 E4.71404
G1 X101.309 Y100.819 E4.73111
G1 X102.012 Y100.202 E4.74822
G1 X102.756 Y99.639 E4.76528
G1 X103.538 Y99.133 E4.78232
G1 X104.368 Y98.682 E4.7996
G1 X105.215 Y98.299 E4.81661
G1 X106.088 Y97.978 E4.83362
G1 X106.989 Y97.722 E4.85076
