;FLAVOR:Marlin
;TIME:2132
;Filament used: 1.72107m
;Layer height: 0.22
;MINX:94.511
;MINY:94.512
;MINZ:0.1
;MAXX:125.488
;MAXY:125.489
;MAXZ:22.98
;Generated with Cura_SteamEngine 4.2.1
M140 S60
M105
M190 S60
M104 S200
M105
M109 S200
M82 ;absolute extrusion mode
M201 X500.00 Y500.00 Z100.00 E5000.00 ;Setup machine max acceleration
M203 X500.00 Y500.00 Z10.00 E50.00 ;Setup machine max feedrate
M204 P500.00 R1000.00 T500.00 ;Setup Print/Retract/Travel acceleration
M205 X8.00 Y8.00 Z0.40 E5.00 ;Setup Jerk
M220 S100 ;Reset Feedrate
M221 S100 ;Reset Flowrate

G28 ;Home

G92 E0 ;Reset Extruder
G1 Z2.0 F3000 ;Move Z Axis up
G1 X10.1 Y20 Z0.28 F5000.0 ;Move to start position
G1 X10.1 Y200.0 Z0.28 F1500.0 E15 ;Draw the first line
G1 X10.4 Y200.0 Z0.28 F5000.0 ;Move to side a little
G1 X10.4 Y20 Z0.28 F1500.0 E30 ;Draw the second line
G92 E0 ;Reset Extruder
G1 Z2.0 F3000 ;Move Z Axis up

G92 E0
G92 E0
G1 F2700 E-5
;LAYER_COUNT:105
;LAYER:0
M107
;MESH:Gear_Gear Mechanism v1_Body1_57545K741_METAL WORM GEAR.stl
G0 F6000 X106.392 Y110.626 Z0.1
;TYPE:WALL-INNER
G1 F2700 E0
G1 F1200 X106.473 Y110.981 E0.00666
G1 X106.531 Y111.169 E0.01026
G1 X106.596 Y111.348 E0.01374
G1 X106.671 Y111.522 E0.01721
G1 X106.754 Y111.694 E0.0207
G1 X106.847 Y111.86 E0.02418
G1 X106.947 Y112.019 E0.02762
G1 X107.056 Y112.177 E0.03113
G1 X107.173 Y112.326 E0.0346
G1 X107.297 Y112.469 E0.03806
G1 X107.43 Y112.607 E0.04157
G1 X107.569 Y112.736 E0.04503
G1 X107.715 Y112.859 E0.04853
G1 X107.867 Y112.974 E0.05201
G1 X108.024 Y113.08 E0.05548
G1 X108.185 Y113.178 E0.05893
G1 X108.353 Y113.268 E0.06241
G1 X108.527 Y113.35 E0.06593
G1 X108.701 Y113.42 E0.06936
G1 X108.877 Y113.483 E0.07278
G1 X109.063 Y113.538 E0.07633
G1 X109.25 Y113.582 E0.07984
G1 X109.436 Y113.615 E0.0833
G1 X109.622 Y113.64 E0.08673
G1 X109.814 Y113.655 E0.09026
G1 X109.998 Y113.659 E0.09362
G1 X110.19 Y113.657 E0.09714
G1 X110.383 Y113.641 E0.10068
G1 X110.57 Y113.616 E0.10413
G1 X110.759 Y113.581 E0.10765
G1 X110.943 Y113.536 E0.11111
G1 X111.124 Y113.483 E0.11456
G1 X111.303 Y113.421 E0.11803
G1 X111.48 Y113.349 E0.12152
G1 X111.652 Y113.267 E0.12501
G1 X111.819 Y113.177 E0.12848
G1 X111.979 Y113.079 E0.13191
G1 X112.137 Y112.973 E0.13539
G1 X112.29 Y112.856 E0.13891
G1 X112.434 Y112.735 E0.14235
G1 X112.574 Y112.602 E0.14589
G1 X112.704 Y112.466 E0.14933
G1 X112.828 Y112.323 E0.15279
G1 X112.945 Y112.173 E0.15627
G1 X113.055 Y112.016 E0.15978
G1 X113.156 Y111.853 E0.16329
G1 X113.246 Y111.688 E0.16672
G1 X113.33 Y111.517 E0.17021
G1 X113.402 Y111.345 E0.17362
G1 X113.469 Y111.168 E0.17708
G1 X113.525 Y110.983 E0.18062
G1 X113.572 Y110.799 E0.18409
G1 X113.608 Y110.613 E0.18756
G1 X113.635 Y110.424 E0.19105
G1 X113.652 Y110.234 E0.19454
G1 X113.659 Y110.049 E0.19793
G1 X113.659 Y109.857 E0.20144
G1 X113.645 Y109.665 E0.20496
G1 X113.624 Y109.476 E0.20844
G1 X113.59 Y109.287 E0.21195
G1 X113.549 Y109.103 E0.2154
G1 X113.498 Y108.92 E0.21888
G1 X113.438 Y108.744 E0.22228
G1 X113.37 Y108.566 E0.22576
G1 X113.289 Y108.39 E0.22931
G1 X113.2 Y108.222 E0.23278
G1 X113.103 Y108.058 E0.23627
G1 X112.999 Y107.903 E0.23968
G1 X112.888 Y107.749 E0.24316
G1 X112.763 Y107.599 E0.24673
G1 X112.635 Y107.46 E0.25019
G1 X112.5 Y107.327 E0.25365
G1 X112.36 Y107.203 E0.25707
G1 X112.211 Y107.083 E0.26057
G1 X112.055 Y106.972 E0.26408
G1 X111.896 Y106.87 E0.26753
G1 X111.731 Y106.776 E0.27101
G1 X111.561 Y106.691 E0.27448
G1 X111.388 Y106.615 E0.27794
G1 X111.211 Y106.547 E0.28141
G1 X111.029 Y106.488 E0.28491
G1 X110.844 Y106.44 E0.2884
G1 X110.658 Y106.4 E0.29188
G1 X110.469 Y106.371 E0.29538
G1 X110.282 Y106.352 E0.29882
G1 X110.098 Y106.342 E0.30219
G1 X109.907 Y106.34 E0.30569
G1 X109.705 Y106.351 E0.30939
G1 X109.341 Y106.399 E0.3161
G1 X109.148 Y106.44 E0.31971
G1 X108.966 Y106.489 E0.32316
G1 X108.789 Y106.546 E0.32656
G1 X108.611 Y106.612 E0.33003
G1 X108.433 Y106.69 E0.33359
G1 X108.263 Y106.777 E0.33708
G1 X108.1 Y106.871 E0.34052
G1 X107.94 Y106.974 E0.34401
G1 X107.786 Y107.085 E0.34748
G1 X107.638 Y107.204 E0.35095
G1 X107.496 Y107.331 E0.35444
G1 X107.36 Y107.464 E0.35792
G1 X107.233 Y107.605 E0.36139
G1 X107.112 Y107.751 E0.36486
G1 X106.999 Y107.905 E0.36835
G1 X106.894 Y108.063 E0.37182
G1 X106.797 Y108.229 E0.37534
G1 X106.711 Y108.397 E0.37879
G1 X106.634 Y108.566 E0.38219
G1 X106.562 Y108.743 E0.38568
G1 X106.5 Y108.928 E0.38925
G1 X106.45 Y109.111 E0.39272
G1 X106.409 Y109.295 E0.39617
G1 X106.377 Y109.482 E0.39964
G1 X106.356 Y109.67 E0.4031
G1 X106.343 Y109.857 E0.40653
G1 X106.34 Y110.047 E0.41001
G1 X106.347 Y110.239 E0.41352
G1 X106.364 Y110.428 E0.41699
G1 X106.392 Y110.626 E0.42065
G0 F6000 X106.825 Y110.546
;TYPE:WALL-OUTER
G1 F1200 X106.898 Y110.867 E0.42667
G1 X106.948 Y111.029 E0.42978
G1 X107.005 Y111.186 E0.43283
G1 X107.071 Y111.339 E0.43588
G1 X107.144 Y111.49 E0.43895
G1 X107.226 Y111.636 E0.44201
G1 X107.314 Y111.777 E0.44505
G1 X107.41 Y111.915 E0.44813
G1 X107.513 Y112.046 E0.45117
G1 X107.622 Y112.172 E0.45422
G1 X107.739 Y112.293 E0.4573
G1 X107.861 Y112.407 E0.46036
G1 X107.989 Y112.515 E0.46342
G1 X108.123 Y112.616 E0.46649
G1 X108.261 Y112.709 E0.46953
G1 X108.404 Y112.796 E0.47259
G1 X108.551 Y112.875 E0.47565
G1 X108.703 Y112.947 E0.47872
G1 X108.857 Y113.009 E0.48176
G1 X109.014 Y113.065 E0.48481
G1 X109.176 Y113.113 E0.4879
G1 X109.338 Y113.151 E0.49095
G1 X109.503 Y113.18 E0.49401
G1 X109.668 Y113.202 E0.49706
G1 X109.836 Y113.215 E0.50014
G1 X110.001 Y113.219 E0.50316
G1 X110.169 Y113.217 E0.50623
G1 X110.336 Y113.203 E0.5093
G1 X110.502 Y113.181 E0.51236
G1 X110.667 Y113.151 E0.51543
G1 X110.829 Y113.111 E0.51848
G1 X110.99 Y113.064 E0.52155
G1 X111.147 Y113.009 E0.52459
G1 X111.302 Y112.946 E0.52765
G1 X111.453 Y112.874 E0.53071
G1 X111.6 Y112.795 E0.53376
G1 X111.742 Y112.708 E0.53681
G1 X111.881 Y112.615 E0.53987
G1 X112.014 Y112.513 E0.54294
G1 X112.141 Y112.406 E0.54597
G1 X112.264 Y112.29 E0.54907
G1 X112.379 Y112.17 E0.55211
G1 X112.488 Y112.044 E0.55516
G1 X112.591 Y111.912 E0.55822
G1 X112.687 Y111.774 E0.56129
G1 X112.775 Y111.632 E0.56435
G1 X112.855 Y111.485 E0.56741
G1 X112.929 Y111.335 E0.57047
G1 X112.993 Y111.182 E0.5735
G1 X113.052 Y111.026 E0.57656
G1 X113.101 Y110.865 E0.57963
G1 X113.142 Y110.703 E0.58269
G1 X113.174 Y110.539 E0.58575
G1 X113.198 Y110.373 E0.58882
G1 X113.213 Y110.206 E0.59188
G1 X113.219 Y110.041 E0.5949
G1 X113.219 Y109.873 E0.59798
G1 X113.207 Y109.706 E0.60104
G1 X113.188 Y109.539 E0.60411
G1 X113.159 Y109.374 E0.60718
G1 X113.122 Y109.211 E0.61024
G1 X113.077 Y109.05 E0.61329
G1 X113.024 Y108.893 E0.61633
G1 X112.964 Y108.737 E0.61938
G1 X112.894 Y108.585 E0.62244
G1 X112.816 Y108.437 E0.6255
G1 X112.73 Y108.292 E0.62859
G1 X112.638 Y108.154 E0.63162
G1 X112.54 Y108.019 E0.63467
G1 X112.432 Y107.889 E0.63777
G1 X112.319 Y107.766 E0.64082
G1 X112.2 Y107.649 E0.64387
G1 X112.076 Y107.539 E0.64691
G1 X111.945 Y107.434 E0.64998
G1 X111.809 Y107.337 E0.65303
G1 X111.668 Y107.247 E0.65609
G1 X111.523 Y107.164 E0.65915
G1 X111.374 Y107.089 E0.6622
G1 X111.221 Y107.022 E0.66526
G1 X111.064 Y106.962 E0.66833
G1 X110.905 Y106.91 E0.67139
G1 X110.743 Y106.868 E0.67445
G1 X110.579 Y106.833 E0.67752
G1 X110.414 Y106.808 E0.68057
G1 X110.248 Y106.791 E0.68363
G1 X110.083 Y106.782 E0.68665
G1 X109.916 Y106.78 E0.6897
G1 X109.746 Y106.789 E0.69282
G1 X109.416 Y106.833 E0.69891
G1 X109.251 Y106.868 E0.70199
G1 X109.091 Y106.911 E0.70502
G1 X108.933 Y106.962 E0.70806
G1 X108.776 Y107.02 E0.71112
G1 X108.622 Y107.088 E0.7142
G1 X108.473 Y107.164 E0.71726
G1 X108.329 Y107.247 E0.7203
G1 X108.188 Y107.338 E0.72337
G1 X108.052 Y107.436 E0.72644
G1 X107.922 Y107.54 E0.72948
G1 X107.797 Y107.652 E0.73255
G1 X107.678 Y107.769 E0.73561
G1 X107.566 Y107.893 E0.73866
G1 X107.459 Y108.022 E0.74173
G1 X107.36 Y108.157 E0.74479
G1 X107.268 Y108.296 E0.74784
G1 X107.183 Y108.441 E0.75092
G1 X107.107 Y108.589 E0.75396
G1 X107.038 Y108.74 E0.757
G1 X106.975 Y108.896 E0.76007
G1 X106.921 Y109.056 E0.76316
G1 X106.877 Y109.217 E0.76622
G1 X106.841 Y109.38 E0.76927
G1 X106.813 Y109.544 E0.77231
G1 X106.794 Y109.71 E0.77537
G1 X106.783 Y109.876 E0.77841
G1 X106.78 Y110.043 E0.78147
G1 X106.786 Y110.211 E0.78454
G1 X106.801 Y110.377 E0.78759
G1 X106.825 Y110.546 E0.79072
G0 F6000 X106.349 Y110.633
G0 X106.293 Y110.641
G0 X106.369 Y109.293
G0 X106.673 Y108.385
G0 X107.099 Y107.736
G0 X115.867 Y97.433
G0 X115.938 Y97.363
;TYPE:WALL-INNER
G1 F1200 X116.444 Y97.623 E0.80112
G1 X116.75 Y97.653 E0.80675
G1 X117.008 Y97.583 E0.81164
G1 X117.063 Y97.549 E0.81282
G1 X117.067 Y97.574
G1 X117.071 Y97.599
G1 X117.098 Y97.761 E0.81453
G1 X117.248 Y98.071 E0.82083
G1 X117.694 Y98.355 E0.8305
G1 X117.995 Y98.431 E0.83618
G1 X118.276 Y98.38 E0.84141
G1 X118.331 Y98.353 E0.84253
G1 X118.331 Y98.38
G1 X118.331 Y98.431
G1 X118.331 Y98.549 E0.84368
G1 X118.459 Y98.894 E0.85041
G1 X118.86 Y99.215 E0.85981
G1 X119.158 Y99.334 E0.86568
G1 X119.468 Y99.305 E0.87137
G1 X119.501 Y99.291 E0.87203
G1 X119.501 Y99.306
G1 X119.498 Y99.353
G1 X119.487 Y99.539 E0.8742
G1 X119.594 Y99.862 E0.88042
G1 X119.945 Y100.209 E0.88945
G1 X120.23 Y100.348 E0.89525
G1 X120.532 Y100.354 E0.90078
G1 X120.564 Y100.344 E0.90139
G1 X120.563 Y100.357
G1 X120.558 Y100.393
G1 X120.534 Y100.558 E0.90325
G1 X120.582 Y100.894 E0.90945
G1 X120.915 Y101.304 E0.91912
G1 X121.184 Y101.468 E0.92488
G1 X121.476 Y101.509 E0.93027
G1 X121.522 Y101.501 E0.93113
G1 X121.517 Y101.52
G1 X121.506 Y101.559
G1 X121.452 Y101.745 E0.93335
G1 X121.496 Y102.081 E0.93955
G1 X121.763 Y102.49 E0.94848
G1 X122.014 Y102.685 E0.9543
G1 X122.285 Y102.749 E0.95939
G1 X122.349 Y102.748 E0.96056
G1 X122.337 Y102.773
G1 X122.312 Y102.826
G1 X122.286 Y102.88 E0.96092
G1 X122.233 Y103.214 E0.96711
G1 X122.346 Y103.493 E0.97261
G1 X122.485 Y103.764 E0.97819
G1 X122.716 Y103.982 E0.984
G1 X122.992 Y104.079 E0.98935
G1 X123.038 Y104.081 E0.99019
G1 X123.027 Y104.099
G1 X122.993 Y104.154
G1 X122.955 Y104.214 E0.99079
G1 X122.879 Y104.536 E0.99685
G1 X122.957 Y104.82 E1.00223
G1 X123.07 Y105.105 E1.00784
G1 X123.279 Y105.35 E1.01373
G1 X123.521 Y105.458 E1.01858
G1 X123.588 Y105.473 E1.01984
G1 X123.572 Y105.494
G1 X123.538 Y105.541
G1 X123.479 Y105.62 E1.02071
G1 X123.368 Y105.974 E1.0275
G1 X123.514 Y106.517 E1.03779
G1 X123.738 Y106.799 E1.04438
G1 X123.938 Y106.903 E1.0485
G1 X123.955 Y106.912 E1.04885
G1 X123.979 Y106.925 E1.04935
G1 X123.916 Y106.986 E1.04935
G1 X123.753 Y107.257 E1.05383
G1 X123.747 Y107.6 E1.0601
G1 X123.801 Y107.93 E1.06622
G1 X123.955 Y108.209 E1.07205
G1 X124.17 Y108.371 E1.07697
G1 X124.226 Y108.395 E1.07809
G1 X124.212 Y108.41
G1 X124.19 Y108.433
G1 X124.047 Y108.581 E1.08043
G1 X123.913 Y108.884 E1.08649
G1 X123.943 Y109.385 E1.09567
G1 X124.064 Y109.671 E1.10135
G1 X124.258 Y109.86 E1.1063
G1 X124.32 Y109.894 E1.1076
G1 X124.298 Y109.911
G1 X124.27 Y109.933
G1 X124.129 Y110.043 E1.10953
G1 X123.954 Y110.339 E1.11582
G1 X123.928 Y110.873 E1.1256
G1 X124.057 Y111.199 E1.13201
G1 X124.223 Y111.374 E1.13643
G1 X124.244 Y111.396 E1.13698
G1 X124.178 Y111.43
G1 X124.145 Y111.448 E1.13727
G1 X123.888 Y111.69 E1.14373
G1 X123.811 Y111.994 E1.14947
G1 X123.766 Y112.295 E1.15503
G1 X123.823 Y112.604 E1.16078
G1 X123.993 Y112.852 E1.16628
G1 X124.024 Y112.875 E1.16699
G1 X124.007 Y112.882
G1 X123.955 Y112.905
G1 X123.879 Y112.938 E1.16776
G1 X123.628 Y113.15 E1.17377
G1 X123.528 Y113.427 E1.17916
G1 X123.448 Y113.724 E1.18478
G1 X123.478 Y114.039 E1.19057
G1 X123.618 Y114.296 E1.19593
G1 X123.645 Y114.321 E1.1966
G1 X123.63 Y114.326
G1 X123.596 Y114.34
G1 X123.458 Y114.394 E1.1982
G1 X123.183 Y114.602 E1.2045
G1 X122.976 Y115.131 E1.2149
G1 X122.999 Y115.491 E1.22149
G1 X123.101 Y115.694 E1.22565
G1 X123.119 Y115.728 E1.22635
G1 X123.048 Y115.741
G1 X122.983 Y115.754 E1.22697
G1 X122.637 Y115.938 E1.23414
G1 X122.377 Y116.444 E1.24454
G1 X122.347 Y116.75 E1.25017
G1 X122.417 Y117.008 E1.25506
G1 X122.451 Y117.063 E1.25624
G1 X122.426 Y117.067
G1 X122.401 Y117.071
G1 X122.239 Y117.098 E1.25795
G1 X121.929 Y117.248 E1.26425
G1 X121.645 Y117.694 E1.27392
G1 X121.569 Y117.995 E1.2796
G1 X121.62 Y118.276 E1.28483
G1 X121.647 Y118.331 E1.28595
G1 X121.62 Y118.331
G1 X121.569 Y118.331
G1 X121.451 Y118.331 E1.2871
G1 X121.106 Y118.459 E1.29383
G1 X120.766 Y118.884 E1.30379
G1 X120.663 Y119.228 E1.31036
G1 X120.698 Y119.448 E1.31443
G1 X120.707 Y119.501 E1.31542
G1 X120.648 Y119.498
G1 X120.461 Y119.487 E1.3176
G1 X120.138 Y119.594 E1.32382
G1 X119.791 Y119.945 E1.33285
G1 X119.652 Y120.23 E1.33865
G1 X119.646 Y120.532 E1.34418
G1 X119.656 Y120.564 E1.34479
G1 X119.643 Y120.563
G1 X119.607 Y120.558
G1 X119.442 Y120.534 E1.34664
G1 X119.106 Y120.582 E1.35285
G1 X118.696 Y120.915 E1.36252
G1 X118.532 Y121.184 E1.36828
G1 X118.491 Y121.476 E1.37367
G1 X118.5 Y121.522 E1.37453
G1 X118.48 Y121.517
G1 X118.441 Y121.505
G1 X118.255 Y121.452 E1.37675
G1 X117.919 Y121.496 E1.38295
G1 X117.51 Y121.763 E1.39188
G1 X117.315 Y122.013 E1.39768
G1 X117.246 Y122.304 E1.40315
G1 X117.249 Y122.347 E1.40394
G1 X117.23 Y122.339
G1 X117.174 Y122.312
G1 X117.12 Y122.286 E1.40441
G1 X116.786 Y122.233 E1.41059
G1 X116.507 Y122.346 E1.4161
G1 X116.236 Y122.485 E1.42167
G1 X116.017 Y122.717 E1.42751
G1 X115.928 Y122.974 E1.43248
G1 X115.921 Y123.039 E1.43368
G1 X115.898 Y123.025
G1 X115.847 Y122.993
G1 X115.786 Y122.955 E1.4342
G1 X115.464 Y122.879 E1.44025
G1 X115.18 Y122.957 E1.44564
G1 X114.895 Y123.07 E1.45125
G1 X114.65 Y123.279 E1.45714
G1 X114.542 Y123.521 E1.46199
G1 X114.527 Y123.587 E1.46323
G1 X114.504 Y123.568
G1 X114.449 Y123.523
G1 X114.424 Y123.502
G1 X114.041 Y123.364 E1.47067
G1 X113.509 Y123.507 E1.48075
G1 X113.272 Y123.665 E1.48596
G1 X113.118 Y123.882 E1.49083
G1 X113.096 Y123.945 E1.49205
G1 X113.081 Y123.985 E1.49283
G1 X113.048 Y123.951 E1.49295
G1 X113.014 Y123.916
G1 X112.743 Y123.753 E1.49734
G1 X112.4 Y123.747 E1.50362
G1 X112.07 Y123.801 E1.50974
G1 X111.791 Y123.955 E1.51557
G1 X111.629 Y124.17 E1.52049
G1 X111.605 Y124.226 E1.52161
G1 X111.59 Y124.212
G1 X111.567 Y124.19
G1 X111.419 Y124.047 E1.52394
G1 X111.119 Y123.915 E1.52994
G1 X110.616 Y123.943 E1.53916
G1 X110.329 Y124.064 E1.54485
G1 X110.14 Y124.258 E1.54981
G1 X110.106 Y124.32 E1.5511
G1 X110.089 Y124.298
G1 X110.067 Y124.27
G1 X109.957 Y124.129 E1.55303
G1 X109.662 Y123.954 E1.55931
G1 X109.156 Y123.929 E1.56858
G1 X108.881 Y124.013 E1.57384
G1 X108.673 Y124.169 E1.57859
G1 X108.652 Y124.197 E1.57923
G1 X108.609 Y124.254 E1.58054
G1 X108.589 Y124.217
G1 X108.57 Y124.183
G1 X108.527 Y124.104 E1.58126
G1 X108.286 Y123.882 E1.58726
G1 X108.006 Y123.811 E1.59254
G1 X107.705 Y123.766 E1.59811
G1 X107.396 Y123.823 E1.60386
G1 X107.16 Y123.985 E1.60909
G1 X107.126 Y124.027 E1.61008
G1 X107.117 Y124.004
G1 X107.095 Y123.954
G1 X107.062 Y123.879 E1.61077
G1 X106.85 Y123.628 E1.61678
G1 X106.573 Y123.528 E1.62217
G1 X106.276 Y123.448 E1.6278
G1 X105.961 Y123.478 E1.63359
G1 X105.704 Y123.618 E1.63894
G1 X105.679 Y123.645 E1.63961
G1 X105.674 Y123.63
G1 X105.66 Y123.596
G1 X105.606 Y123.458 E1.64121
G1 X105.398 Y123.182 E1.64753
G1 X104.889 Y122.984 E1.65752
G1 X104.574 Y122.984 E1.66329
G1 X104.324 Y123.085 E1.66822
G1 X104.273 Y123.124 E1.66939
G1 X104.268 Y123.097
G1 X104.258 Y123.045
G1 X104.246 Y122.983 E1.66979
G1 X104.062 Y122.637 E1.67696
G1 X103.556 Y122.377 E1.68737
G1 X103.251 Y122.347 E1.69298
G1 X102.977 Y122.42 E1.69816
G1 X102.932 Y122.451 E1.69916
G1 X102.93 Y122.425
G1 X102.925 Y122.38
G1 X102.913 Y122.266 E1.70027
G1 X102.755 Y121.932 E1.70702
G1 X102.307 Y121.645 E1.71676
G1 X102.005 Y121.569 E1.72245
G1 X101.724 Y121.62 E1.72768
G1 X101.669 Y121.647 E1.7288
G1 X101.669 Y121.62
G1 X101.669 Y121.569
G1 X101.669 Y121.451 E1.72995
G1 X101.541 Y121.106 E1.73668
G1 X101.14 Y120.785 E1.74608
G1 X100.842 Y120.666 E1.75195
G1 X100.532 Y120.695 E1.75764
G1 X100.499 Y120.709 E1.7583
G1 X100.499 Y120.694
G1 X100.502 Y120.647
G1 X100.513 Y120.461 E1.76047
G1 X100.406 Y120.138 E1.76669
G1 X100.033 Y119.77 E1.77628
G1 X99.706 Y119.645 E1.78268
G1 X99.472 Y119.651 E1.78697
G1 X99.436 Y119.652 E1.78762
G1 X99.442 Y119.608
