;FLAVOR:Marlin
;TIME:3388
;Filament used: 4.3802m
;Layer height: 0.22
;MINX:78.52
;MINY:93.02
;MINZ:0.08
;MAXX:141.48
;MAXY:126.98
;MAXZ:21.86
;Generated with Cura_SteamEngine 4.2.1
M140 S60
M105
M190 S60
M104 S200
M105
M109 S200
M82 ;absolute extrusion mode
M201 X500.00 Y500.00 Z100.00 E5000.00 ;Setup machine max acceleration
M203 X500.00 Y500.00 Z10.00 E50.00 ;Setup machine max feedrate
M204 P500.00 R1000.00 T500.00 ;Setup Print/Retract/Travel acceleration
M205 X8.00 Y8.00 Z0.40 E5.00 ;Setup Jerk
M220 S100 ;Reset Feedrate
M221 S100 ;Reset Flowrate

G28 ;Home

G92 E0 ;Reset Extruder
G1 Z2.0 F3000 ;Move Z Axis up
G1 X10.1 Y20 Z0.28 F5000.0 ;Move to start position
G1 X10.1 Y200.0 Z0.28 F1500.0 E15 ;Draw the first line
G1 X10.4 Y200.0 Z0.28 F5000.0 ;Move to side a little
G1 X10.4 Y20 Z0.28 F1500.0 E30 ;Draw the second line
G92 E0 ;Reset Extruder
G1 Z2.0 F3000 ;Move Z Axis up

G92 E0
G92 E0
G1 F2700 E-5
;LAYER_COUNT:100
;LAYER:0
M107
;MESH:27fc8180-d3fd-4d98-a835-151c6b8dbd6e.stl
G0 F6000 X139.873 Y125.37 Z0.08
;TYPE:WALL-INNER
G1 F2700 E0
G1 F1200 X138.87 Y125.376 E0.01468
G1 X135.852 Y125.367 E0.05885
G1 X83.649 Y125.367 E0.82281
G1 X80.888 Y125.375 E0.86321
G1 X80.12 Y125.372 E0.87445
G1 X80.133 Y121.573 E0.93005
G1 X80.133 Y98.428 E1.26876
G1 X80.127 Y94.626 E1.32441
G1 X80.897 Y94.624 E1.33567
G1 X83.684 Y94.633 E1.37646
G1 X136.315 Y94.633 E2.14669
G1 X139.102 Y94.625 E2.18747
G1 X139.661 Y94.627 E2.19565
G1 X139.88 Y94.627 E2.19886
G1 X139.88 Y94.846 E2.20093
G1 X139.867 Y98.355 E2.25229
G1 X139.867 Y121.144 E2.58579
G1 X139.873 Y125.37 E2.64764
G0 F6000 X140.304 Y125.68
;TYPE:WALL-OUTER
G1 F1200 X140.282 Y125.76 E2.64885
G1 X140.255 Y125.788 E2.64942
G1 X140.192 Y125.808 E2.65039
G1 X138.872 Y125.816 E2.6697
G1 X135.851 Y125.807 E2.71392
G1 X83.65 Y125.807 E3.47785
G1 X80.887 Y125.815 E3.51828
G1 X79.679 Y125.81 E3.53596
G1 X79.693 Y121.572 E3.59798
G1 X79.693 Y98.429 E3.93667
G1 X79.685 Y95.472 E3.97994
G1 X79.688 Y94.188 E3.99873
G1 X79.702 Y94.187 E3.99894
G1 X80.897 Y94.184 E4.01643
G1 X83.685 Y94.193 E4.05723
G1 X136.314 Y94.193 E4.82743
G1 X139.102 Y94.185 E4.86823
G1 X140.103 Y94.188 E4.88288
G1 X140.317 Y94.188 E4.88601
G1 X140.321 Y94.199 E4.88618
G1 X140.321 Y94.413 E4.88931
G1 X140.307 Y98.356 E4.94701
G1 X140.307 Y121.143 E5.28049
G1 X140.315 Y124.309 E5.32682
G1 X140.313 Y125.658 E5.34656
G1 X140.304 Y125.68 E5.34691
G0 F6000 X139.846 Y125.326
G0 X139.443 Y124.942
;TYPE:SKIN
G1 F1200 X138.87 Y124.946 E5.3553
G1 X135.854 Y124.937 E5.39944
G1 X83.649 Y124.937 E6.16343
G1 X80.552 Y124.944 E6.20875
G1 X80.563 Y121.575 E6.25805
G1 X80.563 Y98.428 E6.5968
G1 X80.557 Y95.055 E6.64616
G1 X80.896 Y95.054 E6.65112
G1 X83.682 Y95.063 E6.69189
G1 X136.315 Y95.063 E7.46215
G1 X139.103 Y95.055 E7.50295
G1 X139.448 Y95.056 E7.508
G1 X139.437 Y98.353 E7.55625
G1 X139.437 Y121.144 E7.88978
G1 X139.443 Y124.942 E7.94536
G0 F6000 X139.268 Y95.711
G1 F1200 X138.79 Y95.232 E7.95527
G0 F6000 X138.169 Y95.233
G1 F1200 X139.266 Y96.331 E7.97798
G0 F6000 X139.264 Y96.951
G1 F1200 X137.549 Y95.235 E8.01349
G0 F6000 X136.928 Y95.237
G1 F1200 X139.263 Y97.572 E8.06181
G0 F6000 X139.261 Y98.192
G1 F1200 X136.307 Y95.238 E8.12295
G0 F6000 X135.685 Y95.238
G1 F1200 X139.26 Y98.813 E8.19694
G0 F6000 X139.26 Y99.436
G1 F1200 X135.063 Y95.238 E8.28381
G0 F6000 X134.44 Y95.238
G1 F1200 X139.26 Y100.058 E8.38357
G0 F6000 X139.26 Y100.68
G1 F1200 X133.818 Y95.238 E8.4962
G0 F6000 X133.196 Y95.238
G1 F1200 X139.26 Y101.302 E8.6217
G0 F6000 X139.26 Y101.925
G1 F1200 X132.574 Y95.238 E8.76008
G0 F6000 X131.951 Y95.238
G1 F1200 X139.26 Y102.547 E8.91135
G0 F6000 X139.26 Y103.169
G1 F1200 X131.329 Y95.238 E9.07549
G0 F6000 X130.707 Y95.238
G1 F1200 X139.26 Y103.791 E9.25251
G0 F6000 X139.26 Y104.414
G1 F1200 X130.085 Y95.238 E9.44241
G0 F6000 X129.462 Y95.238
G1 F1200 X139.26 Y105.036 E9.64519
G0 F6000 X139.26 Y105.658
G1 F1200 X128.84 Y95.238 E9.86084
G0 F6000 X128.218 Y95.238
G1 F1200 X139.26 Y106.28 E10.08937
G0 F6000 X139.26 Y106.903
G1 F1200 X127.596 Y95.238 E10.33078
G0 F6000 X126.973 Y95.238
G1 F1200 X139.26 Y107.525 E10.58508
G0 F6000 X139.26 Y108.147
G1 F1200 X126.351 Y95.238 E10.85225
G0 F6000 X125.729 Y95.238
G1 F1200 X139.26 Y108.769 E11.13229
G0 F6000 X139.26 Y109.392
G1 F1200 X125.106 Y95.238 E11.42522
G0 F6000 X124.484 Y95.238
G1 F1200 X139.26 Y110.014 E11.73103
G0 F6000 X139.26 Y110.636
G1 F1200 X123.862 Y95.238 E12.04971
G0 F6000 X123.24 Y95.238
G1 F1200 X139.26 Y111.259 E12.38128
G0 F6000 X139.26 Y111.881
G1 F1200 X122.617 Y95.238 E12.72572
G0 F6000 X121.995 Y95.238
G1 F1200 X139.26 Y112.503 E13.08304
G0 F6000 X139.26 Y113.125
G1 F1200 X121.373 Y95.238 E13.45324
G0 F6000 X120.751 Y95.238
G1 F1200 X139.26 Y113.748 E13.83631
G0 F6000 X139.26 Y114.37
G1 F1200 X120.128 Y95.238 E14.23228
G0 F6000 X119.506 Y95.238
G1 F1200 X139.26 Y114.992 E14.64111
G0 F6000 X139.26 Y115.614
G1 F1200 X118.884 Y95.238 E15.06282
G0 F6000 X118.262 Y95.238
G1 F1200 X139.26 Y116.237 E15.49741
G0 F6000 X139.26 Y116.859
G1 F1200 X117.639 Y95.238 E15.94488
G0 F6000 X117.017 Y95.238
G1 F1200 X139.26 Y117.481 E16.40523
G0 F6000 X139.26 Y118.103
G1 F1200 X116.395 Y95.238 E16.87845
G0 F6000 X115.773 Y95.238
G1 F1200 X139.26 Y118.726 E17.36455
G0 F6000 X139.26 Y119.348
G1 F1200 X115.15 Y95.238 E17.86354
G0 F6000 X114.528 Y95.238
G1 F1200 X139.26 Y119.97 E18.3754
G0 F6000 X139.26 Y120.592
G1 F1200 X113.906 Y95.238 E18.90013
G0 F6000 X113.284 Y95.238
G1 F1200 X139.261 Y121.215 E19.43775
G0 F6000 X139.261 Y121.838
G1 F1200 X112.661 Y95.238 E19.98828
G0 F6000 X112.039 Y95.238
G1 F1200 X139.262 Y122.461 E20.55169
G0 F6000 X139.263 Y123.085
G1 F1200 X111.417 Y95.238 E21.12801
G0 F6000 X110.795 Y95.238
G1 F1200 X139.264 Y123.708 E21.71722
G0 F6000 X139.266 Y124.331
G1 F1200 X110.172 Y95.238 E22.31935
G0 F6000 X109.55 Y95.238
G1 F1200 X139.08 Y124.768 E22.93051
G0 F6000 X138.457 Y124.768
G1 F1200 X108.928 Y95.238 E23.54166
G0 F6000 X108.306 Y95.238
G1 F1200 X137.833 Y124.766 E24.15276
G0 F6000 X137.209 Y124.764
G1 F1200 X107.683 Y95.238 E24.76384
G0 F6000 X107.061 Y95.238
G1 F1200 X136.585 Y124.762 E25.37488
G0 F6000 X135.961 Y124.761
G1 F1200 X106.439 Y95.238 E25.98588
G0 F6000 X105.817 Y95.238
G1 F1200 X135.338 Y124.76 E26.59687
G0 F6000 X134.716 Y124.76
G1 F1200 X105.194 Y95.238 E27.20786
G0 F6000 X104.572 Y95.238
G1 F1200 X134.094 Y124.76 E27.81886
G0 F6000 X133.472 Y124.76
G1 F1200 X103.95 Y95.238 E28.42985
G0 F6000 X103.328 Y95.238
G1 F1200 X132.849 Y124.76 E29.04084
G0 F6000 X132.227 Y124.76
G1 F1200 X102.705 Y95.238 E29.65183
G0 F6000 X102.083 Y95.238
G1 F1200 X131.605 Y124.76 E30.26283
G0 F6000 X130.983 Y124.76
G1 F1200 X101.461 Y95.238 E30.87382
G0 F6000 X100.839 Y95.238
G1 F1200 X130.36 Y124.76 E31.4848
G0 F6000 X129.738 Y124.76
G1 F1200 X100.216 Y95.238 E32.0958
G0 F6000 X99.594 Y95.238
G1 F1200 X129.116 Y124.76 E32.70679
G0 F6000 X128.494 Y124.76
G1 F1200 X98.972 Y95.238 E33.31779
G0 F6000 X98.35 Y95.238
G1 F1200 X127.871 Y124.76 E33.92877
G0 F6000 X127.249 Y124.76
G1 F1200 X97.727 Y95.238 E34.53977
G0 F6000 X97.105 Y95.238
G1 F1200 X126.627 Y124.76 E35.15076
G0 F6000 X126.005 Y124.76
G1 F1200 X96.483 Y95.238 E35.76176
G0 F6000 X95.861 Y95.238
G1 F1200 X125.382 Y124.76 E36.37274
G0 F6000 X124.76 Y124.76
G1 F1200 X95.238 Y95.238 E36.98374
G0 F6000 X94.616 Y95.238
G1 F1200 X124.138 Y124.76 E37.59473
G0 F6000 X123.515 Y124.76
G1 F1200 X93.994 Y95.238 E38.20572
G0 F6000 X93.372 Y95.238
G1 F1200 X122.893 Y124.76 E38.8167
G0 F6000 X122.271 Y124.76
G1 F1200 X92.749 Y95.238 E39.42769
G0 F6000 X92.127 Y95.238
G1 F1200 X121.649 Y124.76 E40.03869
G0 F6000 X121.026 Y124.76
G1 F1200 X91.505 Y95.238 E40.64967
G0 F6000 X90.883 Y95.238
G1 F1200 X120.404 Y124.76 E41.26066
G0 F6000 X119.782 Y124.76
G1 F1200 X90.26 Y95.238 E41.87165
G0 F6000 X89.638 Y95.238
G1 F1200 X119.16 Y124.76 E42.48265
G0 F6000 X118.537 Y124.76
G1 F1200 X89.016 Y95.238 E43.09363
G0 F6000 X88.394 Y95.238
G1 F1200 X117.915 Y124.76 E43.70462
G0 F6000 X117.293 Y124.76
G1 F1200 X87.771 Y95.238 E44.31561
G0 F6000 X87.149 Y95.238
G1 F1200 X116.671 Y124.76 E44.92661
G0 F6000 X116.048 Y124.76
G1 F1200 X86.527 Y95.238 E45.53759
G0 F6000 X85.904 Y95.238
G1 F1200 X115.426 Y124.76 E46.14858
G0 F6000 X114.804 Y124.76
G1 F1200 X85.282 Y95.238 E46.75958
G0 F6000 X84.66 Y95.238
G1 F1200 X114.182 Y124.76 E47.37057
G0 F6000 X113.559 Y124.76
G1 F1200 X84.038 Y95.238 E47.98156
G0 F6000 X83.414 Y95.237
G1 F1200 X112.937 Y124.76 E48.59257
G0 F6000 X112.315 Y124.76
G1 F1200 X82.79 Y95.235 E49.20363
G0 F6000 X82.165 Y95.233
G1 F1200 X111.693 Y124.76 E49.81474
G0 F6000 X111.07 Y124.76
G1 F1200 X81.542 Y95.231 E50.42587
G0 F6000 X80.917 Y95.229
G1 F1200 X110.448 Y124.76 E51.03705
G0 F6000 X109.826 Y124.76
G1 F1200 X80.733 Y95.668 E51.63916
G0 F6000 X80.734 Y96.29
G1 F1200 X109.204 Y124.76 E52.22838
G0 F6000 X108.581 Y124.76
G1 F1200 X80.736 Y96.914 E52.80468
G0 F6000 X80.736 Y97.537
G1 F1200 X107.959 Y124.76 E53.36809
G0 F6000 X107.337 Y124.76
G1 F1200 X80.738 Y98.161 E53.91859
G0 F6000 X80.738 Y98.784
G1 F1200 X106.715 Y124.76 E54.4562
G0 F6000 X106.092 Y124.76
G1 F1200 X80.738 Y99.406 E54.98094
G0 F6000 X80.738 Y100.028
G1 F1200 X105.47 Y124.76 E55.4928
G0 F6000 X104.848 Y124.76
G1 F1200 X80.738 Y100.65 E55.99178
G0 F6000 X80.738 Y101.273
G1 F1200 X104.226 Y124.76 E56.47789
G0 F6000 X103.603 Y124.76
G1 F1200 X80.738 Y101.895 E56.95111
G0 F6000 X80.738 Y102.517
G1 F1200 X102.981 Y124.76 E57.41145
G0 F6000 X102.359 Y124.76
G1 F1200 X80.738 Y103.14 E57.85892
G0 F6000 X80.738 Y103.762
G1 F1200 X101.737 Y124.76 E58.29351
G0 F6000 X101.114 Y124.76
G1 F1200 X80.738 Y104.384 E58.71521
G0 F6000 X80.738 Y105.006
G1 F1200 X100.492 Y124.76 E59.12405
G0 F6000 X99.87 Y124.76
G1 F1200 X80.738 Y105.629 E59.52
G0 F6000 X80.738 Y106.251
G1 F1200 X99.248 Y124.76 E59.90308
G0 F6000 X98.625 Y124.76
G1 F1200 X80.738 Y106.873 E60.27327
G0 F6000 X80.738 Y107.495
G1 F1200 X98.003 Y124.76 E60.63059
G0 F6000 X97.381 Y124.76
G1 F1200 X80.738 Y108.118 E60.97503
G0 F6000 X80.738 Y108.74
G1 F1200 X96.759 Y124.76 E61.30659
G0 F6000 X96.136 Y124.76
G1 F1200 X80.738 Y109.362 E61.62527
G0 F6000 X80.738 Y109.984
G1 F1200 X95.514 Y124.76 E61.93108
G0 F6000 X94.892 Y124.76
G1 F1200 X80.738 Y110.607 E62.224
G0 F6000 X80.738 Y111.229
G1 F1200 X94.27 Y124.76 E62.50406
G0 F6000 X93.647 Y124.76
G1 F1200 X80.738 Y111.851 E62.77122
G0 F6000 X80.738 Y112.473
G1 F1200 X93.025 Y124.76 E63.02552
G0 F6000 X92.403 Y124.76
G1 F1200 X80.738 Y113.096 E63.26693
G0 F6000 X80.738 Y113.718
G1 F1200 X91.781 Y124.76 E63.49547
G0 F6000 X91.158 Y124.76
G1 F1200 X80.738 Y114.34 E63.71112
G0 F6000 X80.738 Y114.962
G1 F1200 X90.536 Y124.76 E63.91391
G0 F6000 X89.914 Y124.76
G1 F1200 X80.738 Y115.585 E64.1038
G0 F6000 X80.738 Y116.207
G1 F1200 X89.292 Y124.76 E64.28083
G0 F6000 X88.669 Y124.76
G1 F1200 X80.738 Y116.829 E64.44497
G0 F6000 X80.738 Y117.451
G1 F1200 X88.047 Y124.76 E64.59624
G0 F6000 X87.425 Y124.76
G1 F1200 X80.738 Y118.074 E64.73463
G0 F6000 X80.738 Y118.696
G1 F1200 X86.803 Y124.76 E64.86014
G0 F6000 X86.18 Y124.76
G1 F1200 X80.738 Y119.318 E64.97277
G0 F6000 X80.738 Y119.94
G1 F1200 X85.558 Y124.76 E65.07252
G0 F6000 X84.936 Y124.76
G1 F1200 X80.738 Y120.563 E65.1594
G0 F6000 X80.738 Y121.185
G1 F1200 X84.313 Y124.76 E65.23338
G0 F6000 X83.691 Y124.76
G1 F1200 X80.737 Y121.806 E65.29452
G0 F6000 X80.736 Y122.427
G1 F1200 X83.07 Y124.761 E65.34283
G0 F6000 X82.45 Y124.763
G1 F1200 X80.733 Y123.047 E65.37835
G0 F6000 X80.731 Y123.667
G1 F1200 X81.829 Y124.764 E65.40107
G0 F6000 X81.208 Y124.766
G1 F1200 X80.73 Y124.288 E65.41096
;MESH:NONMESH
G0 F600 X80.73 Y124.288 Z0.3
G0 F6000 X80.233 Y98.429
G0 X79.737 Y98.429
;TIME_ELAPSED:239.599391
;LAYER:1
M140 S60
;TYPE:WALL-INNER
;MESH:27fc8180-d3fd-4d98-a835-151c6b8dbd6e.stl
G1 F2100 X79.731 Y94.232 E65.57987
G1 X80.25 Y94.231 E65.60075
G1 X136.315 Y94.237 E67.85708
G1 X140.049 Y94.231 E68.00735
G1 X140.268 Y94.231 E68.01616
G1 X140.268 Y94.45 E68.02187
G1 X140.263 Y121.144 E69.09616
G1 X140.268 Y125.522 E69.27235
G1 X140.268 Y125.674 E69.27847
G1 X140.252 Y125.73 E69.28081
G1 X140.207 Y125.759 E69.28297
G1 X140.172 Y125.769 E69.28443
G1 X140.02 Y125.769 E69.29055
G1 X139.465 Y125.769 E69.31289
G1 X83.65 Y125.763 E71.55915
G1 X79.95 Y125.765 E71.70805
G1 X79.731 Y125.765 E71.71687
G1 X79.731 Y125.546 E71.72257
G1 X79.731 Y125.21 E71.73609
G1 X79.737 Y98.429 E72.81389
G0 F9000 X79.297 Y98.429
;TYPE:WALL-OUTER
G1 F2400 X79.291 Y94.068 E72.9894
G1 X79.302 Y93.973 E72.99325
G1 X79.333 Y93.901 E72.9964
G1 X79.382 Y93.848 E72.99931
G1 X79.459 Y93.804 E73.00287
G1 X79.555 Y93.792 E73.00677
G1 X80.249 Y93.791 E73.0347
G1 X136.314 Y93.797 E75.29102
G1 X140.401 Y93.791 E75.4555
G1 X140.428 Y93.791 E75.45659
G1 X140.527 Y93.802 E75.4606
G1 X140.578 Y93.821 E75.46279
G1 X140.598 Y93.832 E75.46371
G1 X140.649 Y93.878 E75.46647
G1 X140.686 Y93.931 E75.46907
G1 X140.708 Y94.056 E75.47418
G1 X140.708 Y94.083 E75.47527
G1 X140.709 Y94.778 E75.50324
G1 X140.703 Y121.143 E76.56429
G1 X140.709 Y125.691 E76.74732
G1 X140.701 Y125.757 E76.75
G1 X140.662 Y125.899 E76.75592
G1 X140.601 Y126.007 E76.76092
G1 X140.539 Y126.068 E76.76442
G1 X140.391 Y126.164 E76.77152
G1 X140.257 Y126.202 E76.77712
G1 X140.206 Y126.209 E76.77919
G1 X139.465 Y126.209 E76.80901
G1 X83.65 Y126.203 E79.05528
G1 X79.564 Y126.205 E79.21972
G1 X79.514 Y126.205 E79.22173
G1 X79.468 Y126.197 E79.22361
G1 X79.402 Y126.167 E79.22653
G1 X79.353 Y126.126 E79.2291
G1 X79.323 Y126.083 E79.23121
G1 X79.3 Y126.028 E79.23361
G1 X79.291 Y125.949 E79.23681
G1 X79.291 Y125.899 E79.23882
G1 X79.291 Y125.21 E79.26655
G1 X79.297 Y98.429 E80.34434
G0 F9000 X79.781 Y98.429
G0 X80.167 Y98.429
;TYPE:SKIN
G1 F1800 X80.161 Y94.661 E80.49598
G1 X80.251 Y94.661 E80.49961
G1 X136.316 Y94.667 E82.75593
G1 X139.838 Y94.661 E82.89767
G1 X139.838 Y125.339 E84.1323
G1 X139.465 Y125.339 E84.14731
G1 X83.65 Y125.333 E86.39357
G1 X80.161 Y125.335 E86.53399
G1 X80.161 Y125.21 E86.53902
G1 X80.167 Y98.429 E87.61681
G0 F9000 X80.337 Y95.138
G1 F1800 X80.639 Y94.836 E87.634
G0 F9000 X81.261 Y94.836
G1 F1800 X80.338 Y95.759 E87.68653
G0 F9000 X80.339 Y96.38
G1 F1800 X81.883 Y94.836 E87.77441
G0 F9000 X82.505 Y94.836
G1 F1800 X80.34 Y97.001 E87.89763
G0 F9000 X80.341 Y97.623
G1 F1800 X83.128 Y94.836 E88.05625
G0 F9000 X83.75 Y94.836
G1 F1800 X80.342 Y98.244 E88.25022
G0 F9000 X80.342 Y98.866
G1 F1800 X84.372 Y94.836 E88.47958
G0 F9000 X84.994 Y94.836
G1 F1800 X80.342 Y99.488 E88.74435
G0 F9000 X80.342 Y100.11
G1 F1800 X85.617 Y94.836 E89.04455
G0 F9000 X86.238 Y94.837
G1 F1800 X80.342 Y100.733 E89.38011
G0 F9000 X80.342 Y101.355
G1 F1800 X86.86 Y94.837 E89.75108
G0 F9000 X87.483 Y94.837
G1 F1800 X80.342 Y101.978 E90.15751
G0 F9000 X80.342 Y102.6
G1 F1800 X88.105 Y94.837 E90.59934
G0 F9000 X88.727 Y94.837
G1 F1800 X80.342 Y103.222 E91.07657
G0 F9000 X80.342 Y103.844
G1 F1800 X89.35 Y94.837 E91.58923
G0 F9000 X89.972 Y94.837
G1 F1800 X80.342 Y104.467 E92.13732
G0 F9000 X80.342 Y105.089
G1 F1800 X90.594 Y94.837 E92.72081
G0 F9000 X91.216 Y94.837
G1 F1800 X80.341 Y105.712 E93.33975
G0 F9000 X80.341 Y106.334
G1 F1800 X91.838 Y94.837 E93.9941
G0 F9000 X92.46 Y94.837
G1 F1800 X80.341 Y106.956 E94.68385
G0 F9000 X80.341 Y107.579
G1 F1800 X93.082 Y94.837 E95.40903
G0 F9000 X93.705 Y94.837
G1 F1800 X80.341 Y108.201 E96.16964
G0 F9000 X80.34 Y108.824
G1 F1800 X94.327 Y94.837 E96.9657
G0 F9000 X94.949 Y94.837
G1 F1800 X80.34 Y109.446 E97.79717
G0 F9000 X80.34 Y110.068
G1 F1800 X95.571 Y94.837 E98.66404
G0 F9000 X96.194 Y94.837
G1 F1800 X80.34 Y110.691 E99.56636
G0 F9000 X80.34 Y111.313
G1 F1800 X96.816 Y94.837 E100.50409
G0 F9000 X97.437 Y94.838
G1 F1800 X80.34 Y111.936 E101.47719
G0 F9000 X80.34 Y112.558
G1 F1800 X98.06 Y94.838 E102.48572
G0 F9000 X98.682 Y94.838
G1 F1800 X80.34 Y113.18 E103.52965
G0 F9000 X80.34 Y113.803
G1 F1800 X99.304 Y94.838 E104.60901
G0 F9000 X99.926 Y94.838
G1 F1800 X80.34 Y114.425 E105.72377
G0 F9000 X80.34 Y115.047
G1 F1800 X100.549 Y94.838 E106.87395
G0 F9000 X101.171 Y94.838
G1 F1800 X80.339 Y115.67 E108.0596
G0 F9000 X80.339 Y116.292
G1 F1800 X101.793 Y94.838 E109.28065
