;FLAVOR:Marlin
;TIME:8546
;Filament used: 10.8155m
;Layer height: 0.22
;MINX:50.208
;MINY:61.194
;MINZ:0.1
;MAXX:169.792
;MAXY:158.806
;MAXZ:16.82
;Generated with Cura_SteamEngine 4.2.1
M140 S60
M105
M190 S60
M104 S200
M105
M109 S200
M82 ;absolute extrusion mode
M201 X500.00 Y500.00 Z100.00 E5000.00 ;Setup machine max acceleration
M203 X500.00 Y500.00 Z10.00 E50.00 ;Setup machine max feedrate
M204 P500.00 R1000.00 T500.00 ;Setup Print/Retract/Travel acceleration
M205 X8.00 Y8.00 Z0.40 E5.00 ;Setup Jerk
M220 S100 ;Reset Feedrate
M221 S100 ;Reset Flowrate

G28 ;Home

G92 E0 ;Reset Extruder
G1 Z2.0 F3000 ;Move Z Axis up
G1 X10.1 Y20 Z0.28 F5000.0 ;Move to start position
G1 X10.1 Y200.0 Z0.28 F1500.0 E15 ;Draw the first line
G1 X10.4 Y200.0 Z0.28 F5000.0 ;Move to side a little
G1 X10.4 Y20 Z0.28 F1500.0 E30 ;Draw the second line
G92 E0 ;Reset Extruder
G1 Z2.0 F3000 ;Move Z Axis up

G92 E0
G92 E0
G1 F2700 E-5
;LAYER_COUNT:77
;LAYER:0
M107
;MESH:Untitled v3.stl
G0 F6000 X52.456 Y125.468 Z0.1
;TYPE:WALL-INNER
G1 F2700 E0
G1 F1200 X52.112 Y125.918 E0.01036
G1 X51.896 Y126.44 E0.0207
G1 X51.822 Y127 E0.03103
G1 X51.896 Y127.56 E0.04136
G1 X52.112 Y128.082 E0.0517
G1 X52.456 Y128.532 E0.06206
G1 X52.906 Y128.876 E0.07242
G1 X53.428 Y129.092 E0.08275
G1 X53.988 Y129.166 E0.09309
G1 X54.548 Y129.092 E0.10342
G1 X55.07 Y128.876 E0.11375
G1 X55.52 Y128.532 E0.12412
G1 X55.864 Y128.082 E0.13448
G1 X56.08 Y127.56 E0.14481
G1 X56.154 Y127 E0.15515
G1 X56.08 Y126.44 E0.16548
G1 X55.864 Y125.918 E0.17581
G1 X55.52 Y125.468 E0.18617
G1 X55.07 Y125.124 E0.19654
G1 X54.548 Y124.908 E0.20687
G1 X53.988 Y124.834 E0.2172
G1 X53.428 Y124.908 E0.22754
G1 X52.906 Y125.124 E0.23787
G1 X52.456 Y125.468 E0.24823
G0 F6000 X52.77 Y125.782
;TYPE:WALL-OUTER
G1 F1200 X52.497 Y126.139 E0.25645
G1 X52.325 Y126.555 E0.26469
G1 X52.266 Y127 E0.2729
G1 X52.325 Y127.445 E0.28111
G1 X52.497 Y127.861 E0.28935
G1 X52.77 Y128.218 E0.29757
G1 X53.127 Y128.491 E0.30579
G1 X53.543 Y128.663 E0.31402
G1 X53.988 Y128.722 E0.32224
G1 X54.433 Y128.663 E0.33045
G1 X54.849 Y128.491 E0.33868
G1 X55.206 Y128.218 E0.3469
G1 X55.479 Y127.861 E0.35512
G1 X55.651 Y127.445 E0.36336
G1 X55.71 Y127 E0.37157
G1 X55.651 Y126.555 E0.37978
G1 X55.479 Y126.139 E0.38802
G1 X55.206 Y125.782 E0.39624
G1 X54.849 Y125.509 E0.40446
G1 X54.433 Y125.337 E0.41269
G1 X53.988 Y125.278 E0.42091
G1 X53.543 Y125.337 E0.42912
G1 X53.127 Y125.509 E0.43735
G1 X52.77 Y125.782 E0.44557
G0 F6000 X52.428 Y125.44
G1 F2700 E-4.55443
G0 F6000 X52.386 Y125.398
G0 X51.782 Y93
G0 X51.858 Y92.43
G0 X51.982 Y92.13
G0 X52.386 Y91.398
G0 X52.456 Y91.468
;TYPE:WALL-INNER
G1 F2700 E0.44557
G1 F1200 X52.112 Y91.918 E0.45593
G1 X51.896 Y92.44 E0.46627
G1 X51.822 Y93 E0.4766
G1 X51.896 Y93.56 E0.48694
G1 X52.112 Y94.082 E0.49727
G1 X52.456 Y94.532 E0.50763
G1 X52.906 Y94.876 E0.51799
G1 X53.428 Y95.092 E0.52833
G1 X53.988 Y95.166 E0.53866
G1 X54.548 Y95.092 E0.54899
G1 X55.07 Y94.876 E0.55933
G1 X55.52 Y94.532 E0.56969
G1 X55.864 Y94.082 E0.58005
G1 X56.08 Y93.56 E0.59039
G1 X56.154 Y93 E0.60072
G1 X56.08 Y92.44 E0.61105
G1 X55.864 Y91.918 E0.62139
G1 X55.52 Y91.468 E0.63175
G1 X55.07 Y91.124 E0.64211
G1 X54.548 Y90.908 E0.65244
G1 X53.988 Y90.834 E0.66278
G1 X53.428 Y90.908 E0.67311
G1 X52.906 Y91.124 E0.68344
G1 X52.456 Y91.468 E0.69381
G0 F6000 X52.77 Y91.782
;TYPE:WALL-OUTER
G1 F1200 X52.497 Y92.139 E0.70203
G1 X52.325 Y92.555 E0.71026
G1 X52.266 Y93 E0.71847
G1 X52.325 Y93.445 E0.72668
G1 X52.497 Y93.861 E0.73492
G1 X52.77 Y94.218 E0.74314
G1 X53.127 Y94.491 E0.75136
G1 X53.543 Y94.663 E0.7596
G1 X53.988 Y94.722 E0.76781
G1 X54.433 Y94.663 E0.77602
G1 X54.849 Y94.491 E0.78425
G1 X55.206 Y94.218 E0.79248
G1 X55.479 Y93.861 E0.8007
G1 X55.651 Y93.445 E0.80893
G1 X55.71 Y93 E0.81714
G1 X55.651 Y92.555 E0.82536
G1 X55.479 Y92.139 E0.83359
G1 X55.206 Y91.782 E0.84181
G1 X54.849 Y91.509 E0.85003
G1 X54.433 Y91.337 E0.85827
G1 X53.988 Y91.278 E0.86648
G1 X53.543 Y91.337 E0.87469
G1 X53.127 Y91.509 E0.88293
G1 X52.77 Y91.782 E0.89115
G0 F6000 X52.428 Y91.44
G0 X52.386 Y91.398
G0 X52.887 Y91.09
G0 X53.418 Y90.87
G0 X53.988 Y90.794
G0 X54.558 Y90.87
G0 X69.955 Y98.195
G0 X69.962 Y98.294
;TYPE:WALL-INNER
G1 F1200 X68.687 Y98.468 E0.91469
G1 X67.442 Y98.78 E0.93817
G1 X66.237 Y99.226 E0.96167
G1 X65.09 Y99.803 E0.98516
G1 X64.012 Y100.502 E1.00866
G1 X63.018 Y101.318 E1.03219
G1 X62.12 Y102.235 E1.05566
G1 X61.329 Y103.247 E1.07916
G1 X60.654 Y104.339 E1.10265
G1 X60.102 Y105.5 E1.12616
G1 X59.681 Y106.712 E1.14963
G1 X59.398 Y107.965 E1.17313
G1 X59.252 Y109.242 E1.19664
G1 X59.248 Y110.527 E1.22015
G1 X59.385 Y111.804 E1.24364
G1 X59.662 Y113.058 E1.26714
G1 X60.076 Y114.274 E1.29064
G1 X60.621 Y115.438 E1.31415
G1 X61.291 Y116.533 E1.33763
G1 X62.076 Y117.549 E1.36112
G1 X62.97 Y118.473 E1.38464
G1 X63.959 Y119.292 E1.40813
G1 X65.033 Y119.998 E1.43164
G1 X66.177 Y120.581 E1.45513
G1 X67.379 Y121.034 E1.47862
G1 X68.623 Y121.354 E1.50212
G1 X69.896 Y121.534 E1.52564
G1 X71.179 Y121.572 E1.54912
G1 X72.459 Y121.471 E1.57261
G1 X73.72 Y121.23 E1.59609
G1 X74.948 Y120.849 E1.61961
G1 X76.126 Y120.336 E1.64312
G1 X77.24 Y119.697 E1.66661
G1 X78.278 Y118.94 E1.69011
G1 X79.226 Y118.072 E1.71363
G1 X80.072 Y117.105 E1.73713
G1 X80.806 Y116.052 E1.76061
G1 X81.421 Y114.924 E1.78411
G1 X81.907 Y113.734 E1.80763
G1 X82.261 Y112.5 E1.83111
G1 X82.475 Y111.233 E1.85462
G1 X82.549 Y109.952 E1.87809
G1 X82.484 Y108.669 E1.90159
G1 X82.276 Y107.4 E1.92511
G1 X81.93 Y106.163 E1.94861
G1 X81.45 Y104.971 E1.97212
G1 X80.841 Y103.84 E1.99561
G1 X80.113 Y102.782 E2.01911
G1 X79.272 Y101.812 E2.04259
G1 X78.328 Y100.938 E2.06613
G1 X77.295 Y100.176 E2.08961
G1 X76.185 Y99.53 E2.1131
G1 X75.011 Y99.011 E2.13658
G1 X73.785 Y98.624 E2.1601
G1 X72.526 Y98.375 E2.18358
G1 X71.246 Y98.265 E2.20708
G1 X69.962 Y98.294 E2.23057
G0 F6000 X69.997 Y98.733
;TYPE:WALL-OUTER
G1 F1200 X68.771 Y98.901 E2.25321
G1 X67.572 Y99.201 E2.27582
G1 X66.413 Y99.63 E2.29843
G1 X65.309 Y100.185 E2.32103
G1 X64.272 Y100.858 E2.34365
G1 X63.316 Y101.643 E2.36627
G1 X62.452 Y102.525 E2.38886
G1 X61.691 Y103.499 E2.41147
G1 X61.041 Y104.55 E2.43408
G1 X60.51 Y105.667 E2.4567
G1 X60.105 Y106.833 E2.47928
G1 X59.832 Y108.039 E2.5019
G1 X59.692 Y109.268 E2.52453
G1 X59.688 Y110.504 E2.54714
G1 X59.82 Y111.733 E2.56975
G1 X60.086 Y112.939 E2.59234
G1 X60.485 Y114.109 E2.61496
G1 X61.009 Y115.229 E2.63758
G1 X61.654 Y116.283 E2.66018
G1 X62.409 Y117.261 E2.68278
G1 X63.269 Y118.15 E2.70541
G1 X64.221 Y118.938 E2.72801
G1 X65.254 Y119.617 E2.75063
G1 X66.355 Y120.178 E2.77323
G1 X67.512 Y120.614 E2.79585
G1 X68.709 Y120.922 E2.81846
G1 X69.933 Y121.095 E2.84107
G1 X71.168 Y121.131 E2.86368
G1 X72.4 Y121.034 E2.88628
G1 X73.613 Y120.802 E2.90887
G1 X74.795 Y120.436 E2.93151
G1 X75.928 Y119.942 E2.95412
G1 X77 Y119.327 E2.97673
G1 X77.999 Y118.599 E2.99934
G1 X78.911 Y117.764 E3.02196
G1 X79.725 Y116.834 E3.04457
G1 X80.431 Y115.82 E3.06717
G1 X81.023 Y114.735 E3.08978
G1 X81.491 Y113.59 E3.11241
G1 X81.831 Y112.402 E3.13501
G1 X82.037 Y111.184 E3.15761
G1 X82.108 Y109.95 E3.18022
G1 X82.046 Y108.716 E3.20282
G1 X81.846 Y107.495 E3.22546
G1 X81.513 Y106.305 E3.24806
G1 X81.051 Y105.158 E3.27068
G1 X80.465 Y104.07 E3.29329
G1 X79.764 Y103.052 E3.3159
G1 X78.955 Y102.118 E3.3385
G1 X78.047 Y101.278 E3.36113
G1 X77.053 Y100.544 E3.38373
G1 X75.985 Y99.923 E3.40633
G1 X74.855 Y99.423 E3.42894
G1 X73.676 Y99.051 E3.45155
G1 X72.464 Y98.811 E3.47416
G1 X71.232 Y98.705 E3.49678
G1 X69.997 Y98.733 E3.51937
G0 F6000 X69.959 Y98.251
G0 X69.955 Y98.195
G0 X85.386 Y91.398
G0 X85.456 Y91.468
;TYPE:WALL-INNER
G1 F1200 X85.112 Y91.918 E3.52974
G1 X84.896 Y92.44 E3.54007
G1 X84.822 Y93 E3.5504
G1 X84.896 Y93.56 E3.56074
G1 X85.112 Y94.082 E3.57107
G1 X85.456 Y94.532 E3.58143
G1 X85.906 Y94.876 E3.59179
G1 X86.428 Y95.092 E3.60213
G1 X86.988 Y95.166 E3.61246
G1 X87.548 Y95.092 E3.62279
G1 X88.07 Y94.876 E3.63313
G1 X88.52 Y94.532 E3.64349
G1 X88.864 Y94.082 E3.65385
G1 X89.08 Y93.56 E3.66419
G1 X89.154 Y93 E3.67452
G1 X89.08 Y92.44 E3.68485
G1 X88.864 Y91.918 E3.69519
G1 X88.52 Y91.468 E3.70555
G1 X88.07 Y91.124 E3.71591
G1 X87.548 Y90.908 E3.72624
G1 X86.988 Y90.834 E3.73658
G1 X86.428 Y90.908 E3.74691
G1 X85.906 Y91.124 E3.75724
G1 X85.456 Y91.468 E3.76761
G0 F6000 X85.77 Y91.782
;TYPE:WALL-OUTER
G1 F1200 X85.497 Y92.139 E3.77583
G1 X85.325 Y92.555 E3.78406
G1 X85.266 Y93 E3.79227
G1 X85.325 Y93.445 E3.80049
G1 X85.497 Y93.861 E3.80872
G1 X85.77 Y94.218 E3.81694
G1 X86.127 Y94.491 E3.82516
G1 X86.543 Y94.663 E3.8334
G1 X86.988 Y94.722 E3.84161
G1 X87.433 Y94.663 E3.84982
G1 X87.849 Y94.491 E3.85806
G1 X88.206 Y94.218 E3.86628
G1 X88.479 Y93.861 E3.8745
G1 X88.651 Y93.445 E3.88273
G1 X88.71 Y93 E3.89094
G1 X88.651 Y92.555 E3.89916
G1 X88.479 Y92.139 E3.90739
G1 X88.206 Y91.782 E3.91561
G1 X87.849 Y91.509 E3.92383
G1 X87.433 Y91.337 E3.93207
G1 X86.988 Y91.278 E3.94028
G1 X86.543 Y91.337 E3.94849
G1 X86.127 Y91.509 E3.95673
G1 X85.77 Y91.782 E3.96495
G0 F6000 X85.428 Y91.44
G0 X85.386 Y91.398
G0 X85.887 Y91.09
G0 X86.418 Y90.87
G0 X86.988 Y90.794
G0 X87.558 Y90.87
G0 X88.089 Y91.09
G0 X88.348 Y91.288
G0 X106.299 Y108.554
G0 X106.398 Y108.563
;TYPE:WALL-INNER
G1 F1200 X106.327 Y110 E3.99127
G1 X106.398 Y111.437 E4.01759
G1 X106.609 Y112.86 E4.0439
G1 X106.958 Y114.256 E4.07022
G1 X107.443 Y115.611 E4.09655
G1 X108.059 Y116.912 E4.12288
G1 X108.798 Y118.145 E4.14918
G1 X109.656 Y119.302 E4.17553
G1 X110.622 Y120.367 E4.20183
G1 X111.687 Y121.332 E4.22812
G1 X112.843 Y122.19 E4.25446
G1 X114.076 Y122.929 E4.28075
G1 X115.377 Y123.545 E4.30709
G1 X116.732 Y124.03 E4.33341
G1 X118.128 Y124.379 E4.35974
G1 X119.551 Y124.59 E4.38605
G1 X120.988 Y124.661 E4.41237
G1 X122.425 Y124.59 E4.43869
G1 X123.848 Y124.379 E4.46501
G1 X125.244 Y124.03 E4.49133
G1 X126.599 Y123.545 E4.51766
G1 X127.9 Y122.929 E4.54399
G1 X129.133 Y122.19 E4.57028
G1 X130.289 Y121.333 E4.59661
G1 X131.356 Y120.366 E4.62295
G1 X132.321 Y119.301 E4.64924
G1 X133.178 Y118.145 E4.67557
G1 X133.917 Y116.912 E4.70186
G1 X134.533 Y115.611 E4.72819
G1 X135.018 Y114.256 E4.75452
G1 X135.367 Y112.86 E4.78084
G1 X135.578 Y111.437 E4.80716
G1 X135.649 Y110 E4.83348
G1 X135.578 Y108.563 E4.8598
G1 X135.367 Y107.14 E4.88611
G1 X135.018 Y105.744 E4.91244
G1 X134.533 Y104.389 E4.93876
G1 X133.917 Y103.088 E4.9651
G1 X133.178 Y101.855 E4.99139
G1 X132.321 Y100.699 E5.01772
G1 X131.356 Y99.634 E5.04401
G1 X130.289 Y98.667 E5.07035
G1 X129.133 Y97.81 E5.09667
G1 X127.9 Y97.071 E5.12297
G1 X126.599 Y96.455 E5.1493
G1 X125.244 Y95.97 E5.17563
G1 X123.848 Y95.621 E5.20195
G1 X122.425 Y95.41 E5.22827
G1 X120.988 Y95.339 E5.25459
G1 X119.551 Y95.41 E5.28091
G1 X118.128 Y95.621 E5.30722
G1 X116.732 Y95.97 E5.33354
G1 X115.377 Y96.455 E5.35987
G1 X114.076 Y97.071 E5.3862
G1 X112.843 Y97.81 E5.4125
G1 X111.687 Y98.668 E5.43884
G1 X110.622 Y99.633 E5.46513
G1 X109.656 Y100.698 E5.49143
G1 X108.798 Y101.855 E5.51778
G1 X108.059 Y103.088 E5.54407
G1 X107.443 Y104.389 E5.57041
G1 X106.958 Y105.744 E5.59673
G1 X106.609 Y107.14 E5.62306
G1 X106.398 Y108.563 E5.64937
G0 F6000 X106.836 Y108.606
;TYPE:WALL-OUTER
G1 F1200 X106.768 Y110 E5.6749
G1 X106.836 Y111.394 E5.70043
G1 X107.041 Y112.774 E5.72596
G1 X107.38 Y114.128 E5.75149
G1 X107.85 Y115.442 E5.77702
G1 X108.447 Y116.704 E5.80256
G1 X109.164 Y117.9 E5.82806
G1 X109.996 Y119.022 E5.85362
G1 X110.933 Y120.055 E5.87913
G1 X111.967 Y120.992 E5.90466
G1 X113.088 Y121.824 E5.93019
G1 X114.284 Y122.541 E5.9557
G1 X115.546 Y123.138 E5.98124
G1 X116.86 Y123.608 E6.00677
G1 X118.214 Y123.947 E6.0323
G1 X119.594 Y124.152 E6.05782
G1 X120.988 Y124.22 E6.08335
G1 X122.382 Y124.152 E6.10889
G1 X123.762 Y123.947 E6.13441
G1 X125.116 Y123.608 E6.15994
G1 X126.43 Y123.138 E6.18547
G1 X127.692 Y122.541 E6.21101
G1 X128.888 Y121.824 E6.23652
G1 X130.01 Y120.992 E6.26207
G1 X131.044 Y120.055 E6.28759
G1 X131.98 Y119.022 E6.31309
G1 X132.812 Y117.9 E6.33865
G1 X133.529 Y116.704 E6.36416
G1 X134.126 Y115.442 E6.38969
G1 X134.596 Y114.128 E6.41522
G1 X134.935 Y112.774 E6.44076
G1 X135.14 Y111.394 E6.46628
G1 X135.208 Y110 E6.49181
G1 X135.14 Y108.606 E6.51734
G1 X134.935 Y107.226 E6.54286
G1 X134.596 Y105.872 E6.56839
G1 X134.126 Y104.558 E6.59392
G1 X133.529 Y103.296 E6.61946
G1 X132.812 Y102.1 E6.64497
G1 X131.98 Y100.978 E6.67052
G1 X131.044 Y99.945 E6.69602
G1 X130.01 Y99.008 E6.72155
G1 X128.888 Y98.176 E6.7471
G1 X127.692 Y97.459 E6.77261
G1 X126.43 Y96.862 E6.79815
G1 X125.116 Y96.392 E6.82368
G1 X123.762 Y96.053 E6.84921
G1 X122.382 Y95.848 E6.87473
G1 X120.988 Y95.78 E6.90026
G1 X119.594 Y95.848 E6.92579
G1 X118.214 Y96.053 E6.95131
G1 X116.86 Y96.392 E6.97685
G1 X115.546 Y96.862 E7.00238
G1 X114.284 Y97.459 E7.02792
G1 X113.088 Y98.176 E7.05342
G1 X111.967 Y99.008 E7.07896
G1 X110.933 Y99.945 E7.10449
G1 X109.996 Y100.978 E7.13
G1 X109.164 Y102.1 E7.15555
G1 X108.447 Y103.296 E7.18106
G1 X107.85 Y104.558 E7.2066
G1 X107.38 Y105.872 E7.23213
G1 X107.041 Y107.226 E7.25766
G1 X106.836 Y108.606 E7.28318
G0 F6000 X106.355 Y108.559
G0 X106.299 Y108.554
G0 X85.386 Y125.398
G0 X85.456 Y125.468
;TYPE:WALL-INNER
G1 F1200 X85.112 Y125.918 E7.29354
G1 X84.896 Y126.44 E7.30388
G1 X84.822 Y127 E7.31421
G1 X84.896 Y127.56 E7.32455
G1 X85.112 Y128.082 E7.33488
G1 X85.456 Y128.532 E7.34524
G1 X85.906 Y128.876 E7.3556
G1 X86.428 Y129.092 E7.36594
G1 X86.988 Y129.166 E7.37627
G1 X87.548 Y129.092 E7.3866
G1 X88.07 Y128.876 E7.39694
G1 X88.52 Y128.532 E7.4073
G1 X88.864 Y128.082 E7.41766
G1 X89.08 Y127.56 E7.42799
G1 X89.154 Y127 E7.43833
G1 X89.08 Y126.44 E7.44866
G1 X88.864 Y125.918 E7.459
G1 X88.52 Y125.468 E7.46936
G1 X88.07 Y125.124 E7.47972
G1 X87.548 Y124.908 E7.49005
G1 X86.988 Y124.834 E7.50039
G1 X86.428 Y124.908 E7.51072
G1 X85.906 Y125.124 E7.52105
G1 X85.456 Y125.468 E7.53142
G0 F6000 X85.77 Y125.782
;TYPE:WALL-OUTER
G1 F1200 X85.497 Y126.139 E7.53964
G1 X85.325 Y126.555 E7.54787
G1 X85.266 Y127 E7.55608
G1 X85.325 Y127.445 E7.56429
G1 X85.497 Y127.861 E7.57253
G1 X85.77 Y128.218 E7.58075
G1 X86.127 Y128.491 E7.58897
G1 X86.543 Y128.663 E7.59721
G1 X86.988 Y128.722 E7.60542
G1 X87.433 Y128.663 E7.61363
G1 X87.849 Y128.491 E7.62186
G1 X88.206 Y128.218 E7.63009
G1 X88.479 Y127.861 E7.63831
G1 X88.651 Y127.445 E7.64654
G1 X88.71 Y127 E7.65475
G1 X88.651 Y126.555 E7.66296
G1 X88.479 Y126.139 E7.6712
G1 X88.206 Y125.782 E7.67942
G1 X87.849 Y125.509 E7.68764
G1 X87.433 Y125.337 E7.69588
G1 X86.988 Y125.278 E7.70409
G1 X86.543 Y125.337 E7.7123
G1 X86.127 Y125.509 E7.72053
G1 X85.77 Y125.782 E7.72876
G0 F6000 X85.428 Y125.44
G0 X85.386 Y125.398
G0 X77.128 Y130.255
G0 X77.076 Y130.34
;TYPE:WALL-INNER
G1 F1200 X50.648 Y130.34 E8.21221
G1 X50.648 Y89.66 E8.95637
G1 X77.076 Y89.66 E9.43982
G1 X78.416 Y87.016 E9.49404
G1 X79.677 Y84.821 E9.54035
G1 X81.055 Y82.688 E9.5868
G1 X82.535 Y80.639 E9.63304
G1 X84.116 Y78.677 E9.67913
G1 X85.831 Y76.764 E9.72613
G1 X87.603 Y74.983 E9.77209
G1 X89.493 Y73.276 E9.81868
G1 X91.46 Y71.675 E9.86507
G1 X93.498 Y70.188 E9.91122
G1 X95.627 Y68.799 E9.95773
G1 X97.814 Y67.532 E10.00396
G1 X100.073 Y66.375 E10.05039
G1 X102.399 Y65.334 E10.09701
G1 X104.765 Y64.421 E10.1434
G1 X107.163 Y63.636 E10.18956
G1 X109.619 Y62.974 E10.23609
G1 X112.096 Y62.443 E10.28243
G1 X114.579 Y62.046 E10.32843
G1 X117.126 Y61.774 E10.37528
G1 X119.648 Y61.638 E10.42149
G1 X122.187 Y61.634 E10.46793
G1 X124.706 Y61.763 E10.51407
G1 X127.244 Y62.026 E10.56075
G1 X129.738 Y62.418 E10.60693
G1 X132.225 Y62.942 E10.65343
G1 X134.674 Y63.596 E10.6998
G1 X137.091 Y64.378 E10.74627
G1 X139.447 Y65.278 E10.7924
G1 X141.775 Y66.312 E10.839
G1 X144.02 Y67.453 E10.88507
G1 X146.232 Y68.727 E10.93177
G1 X148.359 Y70.106 E10.97814
G1 X150.403 Y71.588 E11.02432
G1 X152.383 Y73.189 E11.0709
G1 X154.267 Y74.883 E11.11725
G1 X156.055 Y76.668 E11.16347
G1 X157.76 Y78.56 E11.21006
G1 X159.354 Y80.527 E11.25637
G1 X160.848 Y82.58 E11.30282
G1 X162.236 Y84.715 E11.3494
G1 X163.491 Y86.888 E11.39531
G1 X164.645 Y89.149 E11.44174
G1 X165.679 Y91.47 E11.48822
G1 X166.591 Y93.841 E11.53469
G1 X167.368 Y96.23 E11.58065
