;FLAVOR:Marlin
;TIME:8594
;Filament used: 10.655m
;Layer height: 0.22
;MINX:50.202
;MINY:61.179
;MINZ:0.1
;MAXX:169.798
;MAXY:158.821
;MAXZ:16.82
;Generated with Cura_SteamEngine 4.2.1
M140 S60
M105
M190 S60
M104 S200
M105
M109 S200
M82 ;absolute extrusion mode
M201 X500.00 Y500.00 Z100.00 E5000.00 ;Setup machine max acceleration
M203 X500.00 Y500.00 Z10.00 E50.00 ;Setup machine max feedrate
M204 P500.00 R1000.00 T500.00 ;Setup Print/Retract/Travel acceleration
M205 X8.00 Y8.00 Z0.40 E5.00 ;Setup Jerk
M220 S100 ;Reset Feedrate
M221 S100 ;Reset Flowrate

G28 ;Home

G92 E0 ;Reset Extruder
G1 Z2.0 F3000 ;Move Z Axis up
G1 X10.1 Y20 Z0.28 F5000.0 ;Move to start position
G1 X10.1 Y200.0 Z0.28 F1500.0 E15 ;Draw the first line
G1 X10.4 Y200.0 Z0.28 F5000.0 ;Move to side a little
G1 X10.4 Y20 Z0.28 F1500.0 E30 ;Draw the second line
G92 E0 ;Reset Extruder
G1 Z2.0 F3000 ;Move Z Axis up

G92 E0
G92 E0
G1 F2700 E-5
;LAYER_COUNT:77
;LAYER:0
M107
;MESH:back plate.stl
G0 F6000 X129.654 Y121.821 Z0.1
;TYPE:WALL-INNER
G1 F2700 E0
G1 F1200 X130.199 Y121.4 E0.0126
G1 X130.723 Y120.955 E0.02517
G1 X131.225 Y120.487 E0.03773
G1 X131.706 Y119.995 E0.05032
G1 X132.163 Y119.482 E0.06288
G1 X132.595 Y118.946 E0.07548
G1 X133.001 Y118.393 E0.08803
G1 X133.381 Y117.82 E0.1006
G1 X133.734 Y117.231 E0.11317
G1 X134.059 Y116.625 E0.12574
G1 X134.355 Y116.005 E0.13831
G1 X134.623 Y115.371 E0.1509
G1 X134.859 Y114.726 E0.16347
G1 X135.065 Y114.07 E0.17605
G1 X135.241 Y113.405 E0.18863
G1 X135.384 Y112.733 E0.2012
G1 X135.497 Y112.056 E0.21375
G1 X135.577 Y111.373 E0.22633
G1 X135.626 Y110.687 E0.23891
G1 X135.642 Y110 E0.25148
G1 X135.626 Y109.313 E0.26406
G1 X135.577 Y108.627 E0.27664
G1 X135.497 Y107.944 E0.28922
G1 X135.384 Y107.267 E0.30177
G1 X135.241 Y106.595 E0.31434
G1 X135.065 Y105.93 E0.32692
G1 X134.859 Y105.274 E0.3395
G1 X134.623 Y104.629 E0.35207
G1 X134.355 Y103.995 E0.36466
G1 X134.059 Y103.375 E0.37723
G1 X133.734 Y102.769 E0.3898
G1 X133.381 Y102.18 E0.40237
G1 X133.001 Y101.607 E0.41494
G1 X132.595 Y101.054 E0.42749
G1 X132.163 Y100.518 E0.44009
G1 X131.706 Y100.005 E0.45265
G1 X131.225 Y99.513 E0.46524
G1 X130.723 Y99.045 E0.4778
G1 X130.199 Y98.6 E0.49037
G1 X129.654 Y98.179 E0.50297
G1 X129.09 Y97.787 E0.51553
G1 X128.509 Y97.42 E0.52811
G1 X127.911 Y97.081 E0.54068
G1 X127.299 Y96.77 E0.55324
G1 X126.671 Y96.488 E0.56583
G1 X126.032 Y96.237 E0.57839
G1 X125.381 Y96.015 E0.59097
G1 X124.72 Y95.824 E0.60356
G1 X124.052 Y95.666 E0.61612
G1 X123.377 Y95.537 E0.62869
G1 X122.696 Y95.44 E0.64127
G1 X122.011 Y95.376 E0.65386
G1 X121.325 Y95.344 E0.66642
G1 X120.638 Y95.344 E0.67899
G1 X119.952 Y95.376 E0.69155
G1 X119.267 Y95.44 E0.70413
G1 X118.586 Y95.537 E0.71672
G1 X117.911 Y95.666 E0.72929
G1 X117.243 Y95.824 E0.74184
G1 X116.582 Y96.015 E0.75443
G1 X115.931 Y96.237 E0.76701
G1 X115.292 Y96.488 E0.77957
G1 X114.664 Y96.77 E0.79217
G1 X114.052 Y97.081 E0.80472
G1 X113.454 Y97.42 E0.8173
G1 X112.873 Y97.787 E0.82987
G1 X112.31 Y98.18 E0.84243
G1 X111.765 Y98.6 E0.85502
G1 X111.241 Y99.045 E0.86759
G1 X110.738 Y99.513 E0.88016
G1 X110.257 Y100.005 E0.89275
G1 X109.8 Y100.518 E0.90531
G1 X109.368 Y101.054 E0.91791
G1 X108.962 Y101.607 E0.93046
G1 X108.582 Y102.18 E0.94303
G1 X108.229 Y102.769 E0.9556
G1 X107.904 Y103.375 E0.96818
G1 X107.608 Y103.995 E0.98074
G1 X107.34 Y104.629 E0.99334
G1 X107.104 Y105.274 E1.0059
G1 X106.898 Y105.93 E1.01848
G1 X106.723 Y106.595 E1.03106
G1 X106.579 Y107.267 E1.04363
G1 X106.466 Y107.944 E1.05618
G1 X106.386 Y108.627 E1.06876
G1 X106.337 Y109.314 E1.08136
G1 X106.322 Y110 E1.09391
G1 X106.337 Y110.686 E1.10647
G1 X106.386 Y111.373 E1.11907
G1 X106.466 Y112.056 E1.13165
G1 X106.579 Y112.733 E1.1442
G1 X106.723 Y113.405 E1.15677
G1 X106.898 Y114.07 E1.16935
G1 X107.104 Y114.726 E1.18193
G1 X107.34 Y115.371 E1.19449
G1 X107.608 Y116.005 E1.20709
G1 X107.904 Y116.625 E1.21965
G1 X108.229 Y117.231 E1.23223
G1 X108.582 Y117.82 E1.24479
G1 X108.962 Y118.393 E1.25737
G1 X109.368 Y118.946 E1.26992
G1 X109.8 Y119.482 E1.28252
G1 X110.257 Y119.995 E1.29508
G1 X110.738 Y120.487 E1.30767
G1 X111.241 Y120.955 E1.32024
G1 X111.765 Y121.4 E1.33281
G1 X112.31 Y121.82 E1.3454
G1 X112.873 Y122.213 E1.35796
G1 X113.454 Y122.58 E1.37053
G1 X114.052 Y122.919 E1.38311
G1 X114.664 Y123.23 E1.39566
G1 X115.292 Y123.512 E1.40826
G1 X115.931 Y123.763 E1.42082
G1 X116.582 Y123.985 E1.4334
G1 X117.243 Y124.176 E1.44598
G1 X117.911 Y124.334 E1.45854
G1 X118.586 Y124.463 E1.47111
G1 X119.267 Y124.56 E1.4837
G1 X119.952 Y124.624 E1.49628
G1 X120.638 Y124.656 E1.50884
G1 X121.325 Y124.656 E1.52141
G1 X122.011 Y124.624 E1.53397
G1 X122.696 Y124.56 E1.54656
G1 X123.377 Y124.463 E1.55914
G1 X124.052 Y124.334 E1.57171
G1 X124.72 Y124.176 E1.58427
G1 X125.381 Y123.985 E1.59686
G1 X126.032 Y123.763 E1.60944
G1 X126.671 Y123.512 E1.622
G1 X127.299 Y123.23 E1.63459
G1 X127.911 Y122.919 E1.64715
G1 X128.509 Y122.58 E1.65972
G1 X129.09 Y122.213 E1.6723
G1 X129.654 Y121.821 E1.68486
G0 F6000 X129.394 Y121.466
;TYPE:WALL-OUTER
G1 F1200 X129.922 Y121.058 E1.69707
G1 X130.43 Y120.626 E1.70927
G1 X130.918 Y120.172 E1.72146
G1 X131.384 Y119.695 E1.73366
G1 X131.827 Y119.197 E1.74585
G1 X132.246 Y118.678 E1.75805
G1 X132.64 Y118.141 E1.77024
G1 X133.009 Y117.585 E1.78244
G1 X133.351 Y117.014 E1.79462
G1 X133.666 Y116.426 E1.80682
G1 X133.954 Y115.824 E1.81903
G1 X134.213 Y115.21 E1.83122
G1 X134.442 Y114.584 E1.84341
G1 X134.642 Y113.948 E1.85561
G1 X134.813 Y113.303 E1.86782
G1 X134.952 Y112.651 E1.88001
G1 X135.061 Y111.994 E1.89219
G1 X135.139 Y111.332 E1.90439
G1 X135.186 Y110.666 E1.9166
G1 X135.202 Y110 E1.92879
G1 X135.186 Y109.334 E1.94097
G1 X135.139 Y108.668 E1.95319
G1 X135.061 Y108.006 E1.96538
G1 X134.952 Y107.349 E1.97756
G1 X134.813 Y106.697 E1.98976
G1 X134.642 Y106.052 E2.00197
G1 X134.442 Y105.416 E2.01416
G1 X134.213 Y104.79 E2.02636
G1 X133.954 Y104.176 E2.03855
G1 X133.666 Y103.574 E2.05075
G1 X133.351 Y102.986 E2.06296
G1 X133.009 Y102.415 E2.07513
G1 X132.64 Y101.859 E2.08734
G1 X132.246 Y101.322 E2.09952
G1 X131.827 Y100.803 E2.11172
G1 X131.384 Y100.305 E2.12392
G1 X130.918 Y99.828 E2.13612
G1 X130.43 Y99.374 E2.14831
G1 X129.922 Y98.942 E2.16051
G1 X129.394 Y98.534 E2.17271
G1 X128.847 Y98.154 E2.1849
G1 X128.283 Y97.798 E2.1971
G1 X127.703 Y97.469 E2.2093
G1 X127.109 Y97.167 E2.22149
G1 X126.5 Y96.894 E2.2337
G1 X125.88 Y96.65 E2.24588
G1 X125.249 Y96.435 E2.25808
G1 X124.608 Y96.25 E2.27028
G1 X123.96 Y96.096 E2.28247
G1 X123.305 Y95.971 E2.29466
G1 X122.645 Y95.877 E2.30686
G1 X121.98 Y95.815 E2.31908
G1 X121.315 Y95.784 E2.33126
G1 X120.648 Y95.784 E2.34346
G1 X119.983 Y95.815 E2.35564
G1 X119.318 Y95.877 E2.36785
G1 X118.658 Y95.971 E2.38005
G1 X118.003 Y96.096 E2.39225
G1 X117.355 Y96.25 E2.40443
G1 X116.714 Y96.435 E2.41664
G1 X116.083 Y96.65 E2.42883
G1 X115.463 Y96.894 E2.44102
G1 X114.854 Y97.167 E2.45323
G1 X114.26 Y97.469 E2.46542
G1 X113.68 Y97.798 E2.47761
G1 X113.116 Y98.154 E2.48982
G1 X112.57 Y98.535 E2.50199
G1 X112.042 Y98.942 E2.51419
G1 X111.533 Y99.374 E2.5264
G1 X111.045 Y99.828 E2.5386
G1 X110.579 Y100.305 E2.55079
G1 X110.136 Y100.803 E2.56299
G1 X109.717 Y101.322 E2.57519
G1 X109.323 Y101.859 E2.58737
G1 X108.954 Y102.415 E2.59958
G1 X108.612 Y102.986 E2.61176
G1 X108.297 Y103.574 E2.62396
G1 X108.009 Y104.176 E2.63617
G1 X107.75 Y104.79 E2.64836
G1 X107.521 Y105.416 E2.66055
G1 X107.321 Y106.052 E2.67275
G1 X107.151 Y106.697 E2.68495
G1 X107.011 Y107.349 E2.69715
G1 X106.902 Y108.006 E2.70933
G1 X106.824 Y108.668 E2.72152
G1 X106.777 Y109.334 E2.73374
G1 X106.762 Y110 E2.74592
G1 X106.777 Y110.666 E2.75811
G1 X106.824 Y111.332 E2.77032
G1 X106.902 Y111.994 E2.78252
G1 X107.011 Y112.651 E2.7947
G1 X107.151 Y113.303 E2.8069
G1 X107.321 Y113.948 E2.8191
G1 X107.521 Y114.584 E2.8313
G1 X107.75 Y115.21 E2.84349
G1 X108.009 Y115.824 E2.85568
G1 X108.297 Y116.426 E2.86789
G1 X108.612 Y117.014 E2.88009
G1 X108.954 Y117.585 E2.89227
G1 X109.323 Y118.141 E2.90447
G1 X109.717 Y118.678 E2.91666
G1 X110.136 Y119.197 E2.92886
G1 X110.579 Y119.695 E2.94105
G1 X111.045 Y120.172 E2.95325
G1 X111.533 Y120.626 E2.96544
G1 X112.042 Y121.058 E2.97766
G1 X112.57 Y121.465 E2.98985
G1 X113.116 Y121.846 E3.00203
G1 X113.68 Y122.202 E3.01423
G1 X114.26 Y122.531 E3.02643
G1 X114.854 Y122.833 E3.03862
G1 X115.463 Y123.106 E3.05083
G1 X116.083 Y123.35 E3.06302
G1 X116.714 Y123.565 E3.07521
G1 X117.355 Y123.75 E3.08742
G1 X118.003 Y123.904 E3.0996
G1 X118.658 Y124.029 E3.1118
G1 X119.318 Y124.123 E3.12399
G1 X119.983 Y124.185 E3.13621
G1 X120.648 Y124.216 E3.14839
G1 X121.315 Y124.216 E3.16059
G1 X121.98 Y124.185 E3.17277
G1 X122.645 Y124.123 E3.18499
G1 X123.305 Y124.029 E3.19718
G1 X123.96 Y123.904 E3.20938
G1 X124.608 Y123.75 E3.22156
G1 X125.249 Y123.565 E3.23377
G1 X125.88 Y123.35 E3.24596
G1 X126.5 Y123.106 E3.25815
G1 X127.109 Y122.833 E3.27036
G1 X127.703 Y122.531 E3.28255
G1 X128.283 Y122.202 E3.29475
G1 X128.847 Y121.846 E3.30695
G1 X129.394 Y121.466 E3.31913
G0 F6000 X129.68 Y121.856
G1 F2700 E-1.68087
G0 F6000 X129.713 Y121.901
G0 X127.316 Y123.266
G0 X125.393 Y124.023
G0 X123.383 Y124.502
G0 X121.325 Y124.695
G0 X119.263 Y124.599
G0 X117.233 Y124.214
G0 X115.277 Y123.548
G0 X113.434 Y122.614
G0 X111.74 Y121.431
G0 X110.228 Y120.022
G0 X88.244 Y94
G0 X88.144 Y94
;TYPE:WALL-INNER
G1 F2700 E3.31913
G1 F1200 X88.12 Y93.693 E3.32477
G1 X88.056 Y93.391 E3.33041
G1 X87.947 Y93.1 E3.3361
G1 X87.799 Y92.832 E3.3417
G1 X87.617 Y92.587 E3.34728
G1 X87.398 Y92.366 E3.35297
G1 X87.149 Y92.181 E3.35865
G1 X86.88 Y92.034 E3.36425
G1 X86.59 Y91.926 E3.36992
G1 X86.29 Y91.86 E3.37553
G1 X85.982 Y91.838 E3.38118
G1 X85.673 Y91.86 E3.38685
G1 X85.373 Y91.926 E3.39247
G1 X85.083 Y92.034 E3.39813
G1 X84.814 Y92.181 E3.40374
G1 X84.565 Y92.366 E3.40941
G1 X84.346 Y92.587 E3.4151
G1 X84.164 Y92.832 E3.42069
G1 X84.016 Y93.1 E3.42629
G1 X83.907 Y93.391 E3.43197
G1 X83.842 Y93.694 E3.43764
G1 X83.82 Y94 E3.44325
G1 X83.842 Y94.306 E3.44886
G1 X83.907 Y94.609 E3.45453
G1 X84.016 Y94.9 E3.46022
G1 X84.164 Y95.168 E3.46582
G1 X84.346 Y95.413 E3.4714
G1 X84.565 Y95.634 E3.47709
G1 X84.814 Y95.819 E3.48277
G1 X85.083 Y95.966 E3.48838
G1 X85.373 Y96.074 E3.49404
G1 X85.673 Y96.14 E3.49966
G1 X85.982 Y96.162 E3.50532
G1 X86.29 Y96.14 E3.51097
G1 X86.59 Y96.074 E3.51659
G1 X86.88 Y95.966 E3.52225
G1 X87.149 Y95.819 E3.52786
G1 X87.398 Y95.634 E3.53353
G1 X87.617 Y95.413 E3.53922
G1 X87.799 Y95.168 E3.54481
G1 X87.947 Y94.9 E3.55041
G1 X88.056 Y94.609 E3.55609
G1 X88.12 Y94.307 E3.56174
G1 X88.144 Y94 E3.56737
G0 F6000 X87.703 Y94
;TYPE:WALL-OUTER
G1 F1200 X87.684 Y93.756 E3.57185
G1 X87.633 Y93.515 E3.57636
G1 X87.546 Y93.285 E3.58085
G1 X87.428 Y93.07 E3.58534
G1 X87.282 Y92.874 E3.58981
G1 X87.109 Y92.699 E3.59431
G1 X86.911 Y92.552 E3.59882
G1 X86.697 Y92.435 E3.60329
G1 X86.466 Y92.349 E3.6078
G1 X86.227 Y92.297 E3.61227
G1 X85.982 Y92.279 E3.61676
G1 X85.736 Y92.297 E3.62128
G1 X85.497 Y92.349 E3.62575
G1 X85.266 Y92.435 E3.63026
G1 X85.052 Y92.552 E3.63472
G1 X84.854 Y92.699 E3.63923
G1 X84.681 Y92.874 E3.64373
G1 X84.535 Y93.07 E3.6482
G1 X84.417 Y93.285 E3.65269
G1 X84.33 Y93.515 E3.65719
G1 X84.279 Y93.756 E3.6617
G1 X84.261 Y94 E3.66617
G1 X84.279 Y94.244 E3.67065
G1 X84.33 Y94.485 E3.67515
G1 X84.417 Y94.715 E3.67965
G1 X84.535 Y94.93 E3.68414
G1 X84.681 Y95.126 E3.68861
G1 X84.854 Y95.301 E3.69311
G1 X85.052 Y95.448 E3.69762
G1 X85.266 Y95.565 E3.70208
G1 X85.497 Y95.651 E3.70659
G1 X85.736 Y95.703 E3.71107
G1 X85.982 Y95.721 E3.71558
G1 X86.227 Y95.703 E3.72007
G1 X86.466 Y95.651 E3.72455
G1 X86.697 Y95.565 E3.72906
G1 X86.911 Y95.448 E3.73352
G1 X87.109 Y95.301 E3.73803
G1 X87.282 Y95.126 E3.74253
G1 X87.428 Y94.93 E3.747
G1 X87.546 Y94.715 E3.75149
G1 X87.633 Y94.485 E3.75599
G1 X87.684 Y94.244 E3.76049
G1 X87.703 Y94 E3.76497
G0 F6000 X88.187 Y94
G1 F2700 E-1.23503
G0 F6000 X88.244 Y94
G0 X87.983 Y94.916
G0 X87.647 Y95.439
G0 X87.17 Y95.852
G0 X86.601 Y96.112
G0 X86.1 Y96.184
G0 X57.244 Y94
G0 X57.144 Y94
;TYPE:WALL-INNER
G1 F2700 E3.76497
G1 F1200 X57.12 Y93.693 E3.7706
G1 X57.056 Y93.391 E3.77625
G1 X56.947 Y93.1 E3.78193
G1 X56.799 Y92.832 E3.78753
G1 X56.617 Y92.587 E3.79312
G1 X56.398 Y92.366 E3.79881
G1 X56.149 Y92.181 E3.80448
G1 X55.88 Y92.034 E3.81009
G1 X55.59 Y91.926 E3.81575
G1 X55.29 Y91.86 E3.82137
G1 X54.982 Y91.838 E3.82702
G1 X54.673 Y91.86 E3.83269
G1 X54.373 Y91.926 E3.83831
G1 X54.083 Y92.034 E3.84397
G1 X53.814 Y92.181 E3.84957
G1 X53.565 Y92.366 E3.85525
G1 X53.346 Y92.587 E3.86094
G1 X53.164 Y92.832 E3.86652
G1 X53.016 Y93.1 E3.87212
G1 X52.907 Y93.391 E3.87781
G1 X52.842 Y93.694 E3.88348
G1 X52.82 Y94 E3.88909
G1 X52.842 Y94.306 E3.8947
G1 X52.907 Y94.609 E3.90037
G1 X53.016 Y94.9 E3.90605
G1 X53.164 Y95.168 E3.91165
G1 X53.346 Y95.413 E3.91724
G1 X53.565 Y95.634 E3.92293
G1 X53.814 Y95.819 E3.9286
G1 X54.083 Y95.966 E3.93421
G1 X54.373 Y96.074 E3.93987
G1 X54.673 Y96.14 E3.94549
G1 X54.982 Y96.162 E3.95116
G1 X55.29 Y96.14 E3.95681
G1 X55.59 Y96.074 E3.96243
G1 X55.88 Y95.966 E3.96809
G1 X56.149 Y95.819 E3.9737
G1 X56.398 Y95.634 E3.97937
G1 X56.617 Y95.413 E3.98506
G1 X56.799 Y95.168 E3.99064
G1 X56.947 Y94.9 E3.99624
G1 X57.056 Y94.609 E4.00193
G1 X57.12 Y94.307 E4.00758
G1 X57.144 Y94 E4.01321
G0 F6000 X56.703 Y94
;TYPE:WALL-OUTER
G1 F1200 X56.684 Y93.756 E4.01769
G1 X56.633 Y93.515 E4.02219
G1 X56.546 Y93.285 E4.02669
G1 X56.428 Y93.07 E4.03118
G1 X56.282 Y92.874 E4.03565
G1 X56.109 Y92.699 E4.04015
G1 X55.911 Y92.552 E4.04466
G1 X55.697 Y92.435 E4.04912
G1 X55.466 Y92.349 E4.05363
G1 X55.227 Y92.297 E4.05811
G1 X54.982 Y92.279 E4.0626
G1 X54.736 Y92.297 E4.06711
G1 X54.497 Y92.349 E4.07159
G1 X54.266 Y92.435 E4.0761
G1 X54.052 Y92.552 E4.08056
G1 X53.854 Y92.699 E4.08507
G1 X53.681 Y92.874 E4.08957
G1 X53.535 Y93.07 E4.09404
G1 X53.417 Y93.285 E4.09853
G1 X53.33 Y93.515 E4.10303
G1 X53.279 Y93.756 E4.10753
G1 X53.261 Y94 E4.11201
G1 X53.279 Y94.244 E4.11648
G1 X53.33 Y94.485 E4.12099
G1 X53.417 Y94.715 E4.12549
G1 X53.535 Y94.93 E4.12997
G1 X53.681 Y95.126 E4.13444
G1 X53.854 Y95.301 E4.13895
G1 X54.052 Y95.448 E4.14346
G1 X54.266 Y95.565 E4.14792
G1 X54.497 Y95.651 E4.15243
G1 X54.736 Y95.703 E4.1569
G1 X54.982 Y95.721 E4.16141
G1 X55.227 Y95.703 E4.16591
G1 X55.466 Y95.651 E4.17038
G1 X55.697 Y95.565 E4.17489
G1 X55.911 Y95.448 E4.17935
G1 X56.109 Y95.301 E4.18386
G1 X56.282 Y95.126 E4.18837
G1 X56.428 Y94.93 E4.19284
G1 X56.546 Y94.715 E4.19732
G1 X56.633 Y94.485 E4.20182
G1 X56.684 Y94.244 E4.20633
G1 X56.703 Y94 E4.2108
G0 F6000 X57.187 Y94
G0 X57.244 Y94
G0 X65.937 Y99.249
G0 X65.979 Y99.339
;TYPE:WALL-INNER
G1 F1200 X65.428 Y99.614 E4.22207
G1 X64.893 Y99.915 E4.2333
G1 X64.372 Y100.245 E4.24458
G1 X63.872 Y100.602 E4.25582
G1 X63.39 Y100.985 E4.26708
G1 X62.929 Y101.393 E4.27834
G1 X62.489 Y101.826 E4.28964
G1 X62.075 Y102.28 E4.30088
G1 X61.684 Y102.755 E4.31213
G1 X61.319 Y103.25 E4.32338
G1 X60.98 Y103.766 E4.33467
G1 X60.669 Y104.296 E4.34592
G1 X60.388 Y104.844 E4.35718
G1 X60.134 Y105.405 E4.36845
G1 X59.911 Y105.978 E4.37969
G1 X59.718 Y106.564 E4.39098
G1 X59.557 Y107.158 E4.40224
G1 X59.428 Y107.758 E4.41347
G1 X59.329 Y108.368 E4.42477
G1 X59.264 Y108.979 E4.43601
G1 X59.23 Y109.593 E4.44726
G1 X59.228 Y110.207 E4.45849
G1 X59.259 Y110.824 E4.46979
G1 X59.323 Y111.437 E4.48107
G1 X59.42 Y112.045 E4.49233
G1 X59.548 Y112.646 E4.50357
G1 X59.707 Y113.24 E4.51482
G1 X59.898 Y113.826 E4.52609
G1 X60.121 Y114.4 E4.53736
G1 X60.372 Y114.961 E4.5486
G1 X60.653 Y115.51 E4.55988
G1 X60.963 Y116.041 E4.57113
G1 X61.299 Y116.556 E4.58238
G1 X61.663 Y117.053 E4.59365
G1 X62.053 Y117.531 E4.60494
G1 X62.466 Y117.985 E4.61616
G1 X62.904 Y118.418 E4.62743
G1 X63.364 Y118.827 E4.63869
G1 X63.845 Y119.212 E4.64996
G1 X64.345 Y119.57 E4.66121
G1 X64.863 Y119.902 E4.67246
G1 X65.398 Y120.206 E4.68372
G1 X65.95 Y120.482 E4.69501
G1 X66.515 Y120.726 E4.70627
G1 X67.089 Y120.942 E4.71749
G1 X67.678 Y121.128 E4.72879
G1 X68.275 Y121.281 E4.74006
G1 X68.877 Y121.403 E4.7513
G1 X69.486 Y121.492 E4.76256
G1 X70.099 Y121.551 E4.77382
G1 X70.714 Y121.575 E4.78508
