;FLAVOR:Marlin
;TIME:1077
;Filament used: 0.747507m
;Layer height: 0.22
;MINX:98.221
;MINY:97.703
;MINZ:0.1
;MAXX:121.779
;MAXY:122.296
;MAXZ:12.64
;Generated with Cura_SteamEngine 4.2.1
M140 S60
M105
M190 S60
M104 S200
M105
M109 S200
M82 ;absolute extrusion mode
M201 X500.00 Y500.00 Z100.00 E5000.00 ;Setup machine max acceleration
M203 X500.00 Y500.00 Z10.00 E50.00 ;Setup machine max feedrate
M204 P500.00 R1000.00 T500.00 ;Setup Print/Retract/Travel acceleration
M205 X8.00 Y8.00 Z0.40 E5.00 ;Setup Jerk
M220 S100 ;Reset Feedrate
M221 S100 ;Reset Flowrate

G28 ;Home

G92 E0 ;Reset Extruder
G1 Z2.0 F3000 ;Move Z Axis up
G1 X10.1 Y20 Z0.28 F5000.0 ;Move to start position
G1 X10.1 Y200.0 Z0.28 F1500.0 E15 ;Draw the first line
G1 X10.4 Y200.0 Z0.28 F5000.0 ;Move to side a little
G1 X10.4 Y20 Z0.28 F1500.0 E30 ;Draw the second line
G92 E0 ;Reset Extruder
G1 Z2.0 F3000 ;Move Z Axis up

G92 E0
G92 E0
G1 F2700 E-5
;LAYER_COUNT:58
;LAYER:0
M107
;MESH:10 tooth gear.stl
G0 F6000 X110.229 Y113.153 Z0.1
;TYPE:WALL-INNER
G1 F2700 E0
G1 F1200 X110.469 Y113.126 E0.00442
G1 X110.7 Y113.082 E0.00872
G1 X110.927 Y113.022 E0.01301
G1 X111.15 Y112.944 E0.01734
G1 X111.367 Y112.85 E0.02166
G1 X111.578 Y112.74 E0.02602
G1 X111.778 Y112.614 E0.03034
G1 X111.969 Y112.473 E0.03468
G1 X112.148 Y112.318 E0.03901
G1 X112.314 Y112.152 E0.04331
G1 X112.469 Y111.973 E0.04764
G1 X112.61 Y111.782 E0.05198
G1 X112.736 Y111.581 E0.05632
G1 X112.845 Y111.373 E0.06062
G1 X112.939 Y111.158 E0.06491
G1 X113.018 Y110.935 E0.06924
G1 X113.08 Y110.706 E0.07358
G1 X113.124 Y110.474 E0.0779
G1 X113.151 Y110.237 E0.08226
G1 X113.159 Y110.005 E0.08651
G1 X113.153 Y109.77 E0.09081
G1 X113.126 Y109.53 E0.09523
G1 X113.082 Y109.298 E0.09955
G1 X113.021 Y109.07 E0.10386
G1 X112.943 Y108.847 E0.10819
G1 X112.848 Y108.631 E0.1125
G1 X112.739 Y108.424 E0.11678
G1 X112.615 Y108.224 E0.12109
G1 X112.473 Y108.032 E0.12545
G1 X112.318 Y107.852 E0.1298
G1 X112.152 Y107.686 E0.13409
G1 X111.975 Y107.532 E0.13839
G1 X111.782 Y107.389 E0.14278
G1 X111.581 Y107.263 E0.14712
G1 X111.373 Y107.154 E0.15142
G1 X111.157 Y107.059 E0.15573
G1 X110.934 Y106.981 E0.16005
G1 X110.706 Y106.92 E0.16437
G1 X110.473 Y106.875 E0.16871
G1 X110.24 Y106.85 E0.173
G1 X110.006 Y106.84 E0.17728
G1 X109.768 Y106.847 E0.18164
G1 X109.53 Y106.874 E0.18602
G1 X109.299 Y106.918 E0.19032
G1 X109.069 Y106.979 E0.19468
G1 X108.846 Y107.057 E0.199
G1 X108.63 Y107.152 E0.20331
G1 X108.422 Y107.261 E0.20761
G1 X108.221 Y107.387 E0.21195
G1 X108.03 Y107.528 E0.21629
G1 X107.851 Y107.683 E0.22062
G1 X107.685 Y107.849 E0.22492
G1 X107.53 Y108.028 E0.22925
G1 X107.389 Y108.219 E0.23359
G1 X107.263 Y108.42 E0.23793
G1 X107.154 Y108.628 E0.24223
G1 X107.059 Y108.844 E0.24654
G1 X106.981 Y109.067 E0.25087
G1 X106.92 Y109.295 E0.25518
G1 X106.876 Y109.525 E0.25947
G1 X106.848 Y109.762 E0.26383
G1 X106.84 Y109.998 E0.26815
G1 X106.847 Y110.231 E0.27242
G1 X106.874 Y110.469 E0.2768
G1 X106.918 Y110.698 E0.28106
G1 X106.977 Y110.926 E0.28537
G1 X107.057 Y111.153 E0.28978
G1 X107.151 Y111.368 E0.29407
G1 X107.26 Y111.576 E0.29836
G1 X107.386 Y111.777 E0.3027
G1 X107.527 Y111.968 E0.30705
G1 X107.68 Y112.146 E0.31134
G1 X107.845 Y112.312 E0.31562
G1 X108.025 Y112.469 E0.31999
G1 X108.218 Y112.61 E0.32436
G1 X108.418 Y112.736 E0.32869
G1 X108.626 Y112.845 E0.33298
G1 X108.842 Y112.94 E0.3373
G1 X109.064 Y113.017 E0.3416
G1 X109.292 Y113.08 E0.34593
G1 X109.525 Y113.124 E0.35026
G1 X109.762 Y113.151 E0.35463
G1 X109.994 Y113.159 E0.35887
G1 X110.229 Y113.153 E0.36317
G0 F6000 X110.199 Y112.714
;TYPE:WALL-OUTER
G1 F1200 X110.403 Y112.691 E0.36693
G1 X110.602 Y112.653 E0.37063
G1 X110.798 Y112.601 E0.37434
G1 X110.99 Y112.534 E0.37806
G1 X111.177 Y112.453 E0.38179
G1 X111.358 Y112.358 E0.38553
G1 X111.53 Y112.25 E0.38925
G1 X111.694 Y112.129 E0.39297
G1 X111.848 Y111.996 E0.3967
G1 X111.992 Y111.852 E0.40042
G1 X112.125 Y111.698 E0.40414
G1 X112.246 Y111.534 E0.40787
G1 X112.354 Y111.362 E0.41159
G1 X112.448 Y111.182 E0.4153
G1 X112.53 Y110.996 E0.41902
G1 X112.598 Y110.804 E0.42275
G1 X112.651 Y110.607 E0.42648
G1 X112.689 Y110.408 E0.43019
G1 X112.712 Y110.205 E0.43392
G1 X112.719 Y110.003 E0.43762
G1 X112.714 Y109.8 E0.44133
G1 X112.691 Y109.596 E0.44509
G1 X112.653 Y109.397 E0.4488
G1 X112.6 Y109.2 E0.45253
G1 X112.533 Y109.008 E0.45625
G1 X112.451 Y108.822 E0.45997
G1 X112.357 Y108.643 E0.46367
G1 X112.25 Y108.471 E0.46737
G1 X112.129 Y108.306 E0.47111
G1 X111.996 Y108.152 E0.47484
G1 X111.852 Y108.008 E0.47856
G1 X111.699 Y107.875 E0.48227
G1 X111.534 Y107.753 E0.48602
G1 X111.362 Y107.645 E0.48974
G1 X111.182 Y107.551 E0.49345
G1 X110.996 Y107.469 E0.49717
G1 X110.804 Y107.402 E0.50089
G1 X110.607 Y107.349 E0.50462
G1 X110.408 Y107.311 E0.50833
G1 X110.206 Y107.289 E0.51205
G1 X110.003 Y107.28 E0.51576
G1 X109.799 Y107.286 E0.5195
G1 X109.596 Y107.309 E0.52323
G1 X109.397 Y107.347 E0.52694
G1 X109.199 Y107.4 E0.53069
G1 X109.007 Y107.467 E0.53441
G1 X108.821 Y107.549 E0.53813
G1 X108.641 Y107.643 E0.54184
G1 X108.469 Y107.751 E0.54556
G1 X108.305 Y107.872 E0.54929
G1 X108.151 Y108.005 E0.55301
G1 X108.007 Y108.149 E0.55673
G1 X107.874 Y108.303 E0.56046
G1 X107.753 Y108.467 E0.56419
G1 X107.645 Y108.639 E0.5679
G1 X107.551 Y108.819 E0.57162
G1 X107.469 Y109.005 E0.57533
G1 X107.402 Y109.197 E0.57905
G1 X107.349 Y109.394 E0.58279
G1 X107.311 Y109.592 E0.58647
G1 X107.287 Y109.795 E0.59021
G1 X107.28 Y109.999 E0.59395
G1 X107.286 Y110.2 E0.59763
G1 X107.309 Y110.403 E0.60136
G1 X107.347 Y110.601 E0.60505
G1 X107.398 Y110.798 E0.60877
G1 X107.466 Y110.991 E0.61252
G1 X107.548 Y111.177 E0.61624
G1 X107.642 Y111.357 E0.61995
G1 X107.75 Y111.529 E0.62367
G1 X107.871 Y111.693 E0.62739
G1 X108.004 Y111.847 E0.63112
G1 X108.146 Y111.991 E0.63482
G1 X108.3 Y112.125 E0.63855
G1 X108.465 Y112.246 E0.64229
G1 X108.637 Y112.354 E0.64601
G1 X108.817 Y112.448 E0.64972
G1 X109.003 Y112.53 E0.65344
G1 X109.195 Y112.597 E0.65716
G1 X109.392 Y112.651 E0.6609
G1 X109.591 Y112.689 E0.6646
G1 X109.794 Y112.712 E0.66834
G1 X109.996 Y112.719 E0.67204
G1 X110.199 Y112.714 E0.67575
G0 F6000 X110.232 Y113.196
G0 X110.237 Y113.252
G0 X109.28 Y113.093
G0 X103.408 Y111.67
G0 X103.313 Y111.701
;TYPE:WALL-INNER
G1 F1200 X103.225 Y111.523 E0.67939
G1 X103.12 Y111.361 E0.68292
G1 X102.996 Y111.216 E0.68641
G1 X102.86 Y111.09 E0.6898
G1 X102.707 Y110.977 E0.69328
G1 X102.534 Y110.881 E0.6969
G1 X102.356 Y110.813 E0.70038
G1 X102.18 Y110.765 E0.70372
G1 X101.988 Y110.737 E0.70727
G1 X101.8 Y110.736 E0.71071
G1 X101.637 Y110.751 E0.7137
G1 X100.586 Y110.922 E0.73318
G1 X100.462 Y110.913 E0.73546
G1 X100.336 Y110.897 E0.73778
G1 X100.209 Y110.873 E0.74014
G1 X100.04 Y110.832 E0.74333
G1 X99.902 Y110.791 E0.74596
G1 X99.75 Y110.74 E0.74889
G1 X99.614 Y110.689 E0.75155
G1 X99.295 Y110.548 E0.75793
G1 X99.154 Y110.478 E0.76081
G1 X98.994 Y110.391 E0.76414
G1 X98.695 Y110.207 E0.77056
G1 X98.662 Y110.187 E0.77127
G1 X98.661 Y110.163 E0.77171
G1 X98.662 Y109.812 E0.77813
G1 X98.686 Y109.796 E0.77866
G1 X98.719 Y109.776 E0.77936
G1 X98.986 Y109.615 E0.78507
G1 X99.148 Y109.527 E0.78844
G1 X99.281 Y109.461 E0.79115
G1 X99.619 Y109.31 E0.79793
G1 X99.745 Y109.263 E0.80039
G1 X99.894 Y109.213 E0.80326
G1 X100.032 Y109.172 E0.8059
G1 X100.329 Y109.106 E0.81146
G1 X100.465 Y109.088 E0.81397
G1 X100.634 Y109.08 E0.81707
G1 X101.626 Y109.246 E0.83546
G1 X101.795 Y109.264 E0.83857
G1 X101.988 Y109.263 E0.8421
G1 X102.18 Y109.235 E0.84565
G1 X102.356 Y109.187 E0.84899
G1 X102.534 Y109.119 E0.85248
G1 X102.707 Y109.023 E0.8561
G1 X102.86 Y108.91 E0.85957
G1 X102.996 Y108.784 E0.86297
G1 X103.12 Y108.639 E0.86646
G1 X103.226 Y108.477 E0.87
G1 X103.308 Y108.308 E0.87343
G1 X103.36 Y108.16 E0.8763
G1 X103.471 Y107.798 E0.88323
G1 X103.544 Y107.596 E0.88716
G1 X103.593 Y107.433 E0.89027
G1 X103.624 Y107.243 E0.89379
G1 X103.633 Y107.057 E0.8972
G1 X103.619 Y106.869 E0.90065
G1 X103.583 Y106.683 E0.90412
G1 X103.524 Y106.502 E0.9076
G1 X103.443 Y106.329 E0.91109
G1 X103.341 Y106.167 E0.91459
G1 X103.221 Y106.02 E0.91807
G1 X103.083 Y105.886 E0.92158
G1 X102.931 Y105.774 E0.92504
G1 X102.789 Y105.692 E0.92804
G1 X101.848 Y105.216 E0.94733
G1 X101.744 Y105.129 E0.94981
G1 X101.647 Y105.037 E0.95225
G1 X101.553 Y104.936 E0.95478
G1 X101.459 Y104.825 E0.95744
G1 X101.362 Y104.699 E0.96035
G1 X101.27 Y104.569 E0.96326
G1 X101.186 Y104.44 E0.96608
G1 X101.098 Y104.295 E0.96918
G1 X101.026 Y104.166 E0.97188
G1 X100.867 Y103.846 E0.97842
G1 X100.729 Y103.513 E0.98501
G1 X100.718 Y103.487 E0.98553
G1 X100.731 Y103.467 E0.98597
G1 X100.937 Y103.184 E0.99237
G1 X100.986 Y103.186 E0.99327
G1 X101.014 Y103.188 E0.99378
G1 X101.337 Y103.216 E0.99971
G1 X101.663 Y103.263 E1.00574
G1 X101.824 Y103.295 E1.00874
G1 X102.129 Y103.372 E1.01449
G1 X102.283 Y103.42 E1.01744
G1 X102.437 Y103.475 E1.02044
G1 X102.576 Y103.532 E1.02318
G1 X102.697 Y103.589 E1.02563
G1 X102.815 Y103.653 E1.02809
G1 X102.97 Y103.756 E1.03149
G1 X103.669 Y104.47 E1.04977
G1 X103.798 Y104.584 E1.05292
G1 X103.95 Y104.692 E1.05633
G1 X104.119 Y104.783 E1.05984
G1 X104.297 Y104.851 E1.06333
G1 X104.481 Y104.898 E1.0668
G1 X104.672 Y104.922 E1.07032
G1 X104.861 Y104.922 E1.07378
G1 X105.049 Y104.9 E1.07724
G1 X105.235 Y104.854 E1.08075
G1 X105.412 Y104.787 E1.08421
G1 X105.579 Y104.699 E1.08766
G1 X105.709 Y104.609 E1.09055
G1 X106.028 Y104.372 E1.09782
G1 X106.194 Y104.258 E1.10151
G1 X106.325 Y104.157 E1.10453
G1 X106.461 Y104.025 E1.108
G1 X106.579 Y103.876 E1.11148
G1 X106.679 Y103.717 E1.11491
G1 X106.758 Y103.545 E1.11838
G1 X106.818 Y103.361 E1.12192
G1 X106.853 Y103.174 E1.1254
G1 X106.866 Y102.986 E1.12884
G1 X106.856 Y102.794 E1.13236
G1 X106.821 Y102.608 E1.13582
G1 X106.767 Y102.428 E1.13926
G1 X106.699 Y102.275 E1.14232
G1 X106.216 Y101.33 E1.16174
G1 X106.184 Y101.204 E1.16412
G1 X106.16 Y101.071 E1.16659
G1 X106.144 Y100.942 E1.16897
G1 X106.133 Y100.793 E1.1717
G1 X106.128 Y100.479 E1.17744
G1 X106.135 Y100.331 E1.18015
G1 X106.166 Y100.016 E1.18594
G1 X106.223 Y99.674 E1.19229
G1 X106.263 Y99.491 E1.19571
G1 X106.308 Y99.326 E1.19884
G1 X106.322 Y99.274 E1.19983
G1 X106.349 Y99.264 E1.20035
G1 X106.673 Y99.16 E1.20658
G1 X106.714 Y99.194 E1.20755
G1 X106.84 Y99.297 E1.21053
G1 X107.089 Y99.524 E1.21669
G1 X107.205 Y99.641 E1.21971
G1 X107.333 Y99.78 E1.22316
G1 X107.543 Y100.031 E1.22915
G1 X107.625 Y100.142 E1.23168
G1 X107.706 Y100.261 E1.23431
G1 X107.789 Y100.395 E1.23719
G1 X107.868 Y100.538 E1.24018
G1 X107.912 Y100.63 E1.24205
G1 X107.984 Y100.824 E1.24583
G1 X108.128 Y101.805 E1.26397
G1 X108.166 Y101.976 E1.26717
G1 X108.226 Y102.15 E1.27054
G1 X108.308 Y102.323 E1.27404
G1 X108.414 Y102.484 E1.27757
G1 X108.534 Y102.628 E1.281
G1 X108.672 Y102.759 E1.28448
G1 X108.828 Y102.873 E1.28801
G1 X108.992 Y102.963 E1.29144
G1 X109.17 Y103.037 E1.29496
G1 X109.354 Y103.086 E1.29844
G1 X109.541 Y103.113 E1.3019
G1 X109.7 Y103.116 E1.30481
G1 X110.085 Y103.111 E1.31185
G1 X110.294 Y103.117 E1.31568
G1 X110.462 Y103.113 E1.31875
G1 X110.646 Y103.086 E1.32215
G1 X110.83 Y103.037 E1.32564
G1 X111.008 Y102.963 E1.32916
G1 X111.172 Y102.873 E1.33259
G1 X111.328 Y102.759 E1.33612
G1 X111.466 Y102.628 E1.3396
G1 X111.586 Y102.484 E1.34303
G1 X111.692 Y102.323 E1.34656
G1 X111.774 Y102.15 E1.35006
G1 X111.836 Y101.97 E1.35354
G1 X111.87 Y101.806 E1.35661
G1 X112.015 Y100.824 E1.37476
G1 X112.03 Y100.77 E1.37579
G1 X112.076 Y100.657 E1.37802
G1 X112.145 Y100.512 E1.38096
G1 X112.203 Y100.406 E1.38317
G1 X112.278 Y100.284 E1.38579
G1 X112.359 Y100.165 E1.38842
G1 X112.462 Y100.026 E1.39159
G1 X112.666 Y99.781 E1.39742
G1 X112.782 Y99.654 E1.40057
G1 X112.882 Y99.553 E1.40317
G1 X113.147 Y99.309 E1.40975
G1 X113.286 Y99.192 E1.41308
G1 X113.325 Y99.16 E1.414
G1 X113.349 Y99.167 E1.41446
G1 X113.68 Y99.279 E1.42085
G1 X113.693 Y99.328 E1.42178
G1 X113.736 Y99.491 E1.42486
G1 X113.801 Y99.814 E1.43089
G1 X113.827 Y99.982 E1.434
G1 X113.849 Y100.161 E1.4373
G1 X113.862 Y100.308 E1.44
G1 X113.87 Y100.465 E1.44287
G1 X113.872 Y100.626 E1.44582
G1 X113.868 Y100.793 E1.44887
G1 X113.858 Y100.938 E1.45153
G1 X113.843 Y101.061 E1.4538
G1 X113.817 Y101.207 E1.45651
G1 X113.773 Y101.371 E1.45962
G1 X113.306 Y102.267 E1.4781
G1 X113.234 Y102.426 E1.4813
G1 X113.179 Y102.607 E1.48476
G1 X113.144 Y102.794 E1.48824
G1 X113.134 Y102.986 E1.49175
G1 X113.147 Y103.174 E1.4952
G1 X113.182 Y103.361 E1.49868
G1 X113.242 Y103.545 E1.50222
G1 X113.321 Y103.717 E1.50568
G1 X113.421 Y103.876 E1.50912
G1 X113.539 Y104.025 E1.5126
G1 X113.675 Y104.157 E1.51606
G1 X113.8 Y104.253 E1.51895
G1 X114.136 Y104.489 E1.52646
G1 X114.283 Y104.604 E1.52987
G1 X114.421 Y104.699 E1.53294
G1 X114.588 Y104.787 E1.53639
G1 X114.765 Y104.854 E1.53985
G1 X114.951 Y104.9 E1.54336
G1 X115.139 Y104.922 E1.54682
G1 X115.328 Y104.922 E1.55028
G1 X115.519 Y104.898 E1.5538
G1 X115.703 Y104.851 E1.55727
G1 X115.881 Y104.783 E1.56076
G1 X116.049 Y104.692 E1.56425
G1 X116.202 Y104.585 E1.56767
G1 X116.326 Y104.474 E1.57071
G1 X117.044 Y103.744 E1.58944
G1 X117.07 Y103.726 E1.59002
G1 X117.189 Y103.652 E1.59259
G1 X117.289 Y103.597 E1.59467
G1 X117.419 Y103.535 E1.59731
G1 X117.555 Y103.479 E1.6
G1 X117.709 Y103.424 E1.60299
G1 X117.856 Y103.378 E1.60581
G1 X118.006 Y103.337 E1.60865
G1 X118.327 Y103.267 E1.61466
G1 X118.669 Y103.217 E1.62099
G1 X119.023 Y103.188 E1.62748
G1 X119.064 Y103.185 E1.62823
G1 X119.284 Y103.489 E1.6351
G1 X119.276 Y103.509 E1.63549
G1 X119.26 Y103.547 E1.63625
G1 X119.13 Y103.856 E1.64238
G1 X119.068 Y103.987 E1.64503
G1 X118.903 Y104.295 E1.65142
G1 X118.736 Y104.561 E1.65717
G1 X118.638 Y104.699 E1.66026
G1 X118.552 Y104.811 E1.66285
G1 X118.449 Y104.934 E1.66578
G1 X118.367 Y105.022 E1.66798
G1 X118.249 Y105.135 E1.67097
G1 X118.127 Y105.233 E1.67383
G1 X118.096 Y105.251 E1.67449
G1 X117.217 Y105.687 E1.69244
G1 X117.068 Y105.774 E1.6956
G1 X116.917 Y105.886 E1.69903
G1 X116.779 Y106.02 E1.70255
G1 X116.659 Y106.167 E1.70602
G1 X116.557 Y106.329 E1.70953
G1 X116.476 Y106.502 E1.71302
G1 X116.417 Y106.683 E1.7165
G1 X116.381 Y106.869 E1.71997
G1 X116.367 Y107.057 E1.72342
G1 X116.376 Y107.244 E1.72684
G1 X116.406 Y107.431 E1.73031
G1 X116.454 Y107.59 E1.73335
G1 X116.524 Y107.786 E1.73715
G1 X116.579 Y107.956 E1.74042
G1 X116.637 Y108.154 E1.7442
G1 X116.693 Y108.31 E1.74723
G1 X116.775 Y108.478 E1.75065
G1 X116.879 Y108.637 E1.75412
G1 X116.998 Y108.779 E1.75751
G1 X117.136 Y108.907 E1.76095
G1 X117.293 Y109.023 E1.76453
G1 X117.466 Y109.119 E1.76814
G1 X117.644 Y109.187 E1.77163
G1 X117.82 Y109.235 E1.77497
G1 X118.012 Y109.263 E1.77852
G1 X118.2 Y109.264 E1.78196
G1 X118.363 Y109.249 E1.78495
G1 X119.414 Y109.078 E1.80443
G1 X119.538 Y109.087 E1.8067
G1 X119.664 Y109.103 E1.80903
G1 X119.791 Y109.127 E1.81139
G1 X119.956 Y109.167 E1.8145
G1 X120.098 Y109.209 E1.81721
G1 X120.25 Y109.26 E1.82014
G1 X120.394 Y109.314 E1.82295
G1 X120.687 Y109.443 E1.82881
G1 X120.844 Y109.521 E1.83202
G1 X121.006 Y109.609 E1.83539
G1 X121.306 Y109.794 E1.84184
G1 X121.338 Y109.813 E1.84252
G1 X121.339 Y109.837 E1.84296
G1 X121.338 Y110.187 E1.84936
G1 X121.312 Y110.205 E1.84994
G1 X121.28 Y110.224 E1.85062
G1 X121.003 Y110.391 E1.85653
G1 X120.858 Y110.47 E1.85956
G1 X120.692 Y110.553 E1.86295
G1 X120.401 Y110.682 E1.86877
G1 X120.098 Y110.79 E1.87466
G1 X119.972 Y110.827 E1.87706
G1 X119.677 Y110.894 E1.88259
G1 X119.546 Y110.91 E1.88501
G1 X119.362 Y110.92 E1.88838
G1 X118.374 Y110.754 E1.90671
G1 X118.205 Y110.736 E1.90981
G1 X118.012 Y110.737 E1.91335
G1 X117.82 Y110.765 E1.91689
G1 X117.644 Y110.813 E1.92023
G1 X117.466 Y110.881 E1.92372
G1 X117.293 Y110.977 E1.92734
G1 X117.14 Y111.09 E1.93082
G1 X117.004 Y111.216 E1.93421
G1 X116.88 Y111.361 E1.9377
G1 X116.774 Y111.523 E1.94124
G1 X116.692 Y111.692 E1.94468
G1 X116.64 Y111.84 E1.94755
G1 X116.529 Y112.202 E1.95447
G1 X116.456 Y112.404 E1.9584
G1 X116.407 Y112.567 E1.96151
G1 X116.376 Y112.757 E1.96504
G1 X116.367 Y112.939 E1.96837
G1 X116.379 Y113.126 E1.9718
G1 X116.417 Y113.316 E1.97534
G1 X116.476 Y113.498 E1.97884
G1 X116.557 Y113.671 E1.98234
G1 X116.659 Y113.833 E1.98584
