;FLAVOR:Marlin
;TIME:5649
;Filament used: 6.55643m
;Layer height: 0.22
;MINX:50.212
;MINY:61.048
;MINZ:0.1
;MAXX:169.788
;MAXY:158.952
;MAXZ:3.84
;Generated with Cura_SteamEngine 4.2.1
M140 S60
M105
M190 S60
M104 S200
M105
M109 S200
M82 ;absolute extrusion mode
M201 X500.00 Y500.00 Z100.00 E5000.00 ;Setup machine max acceleration
M203 X500.00 Y500.00 Z10.00 E50.00 ;Setup machine max feedrate
M204 P500.00 R1000.00 T500.00 ;Setup Print/Retract/Travel acceleration
M205 X8.00 Y8.00 Z0.40 E5.00 ;Setup Jerk
M220 S100 ;Reset Feedrate
M221 S100 ;Reset Flowrate

G28 ;Home

G92 E0 ;Reset Extruder
G1 Z2.0 F3000 ;Move Z Axis up
G1 X10.1 Y20 Z0.28 F5000.0 ;Move to start position
G1 X10.1 Y200.0 Z0.28 F1500.0 E15 ;Draw the first line
G1 X10.4 Y200.0 Z0.28 F5000.0 ;Move to side a little
G1 X10.4 Y20 Z0.28 F1500.0 E30 ;Draw the second line
G92 E0 ;Reset Extruder
G1 Z2.0 F3000 ;Move Z Axis up

G92 E0
G92 E0
G1 F2700 E-5
;LAYER_COUNT:18
;LAYER:0
M107
;MESH:cover.stl
G0 F6000 X76.805 Y130.393 Z0.1
;TYPE:WALL-INNER
G1 F2700 E0
G1 F1200 X50.652 Y130.393 E0.47842
G1 X50.652 Y89.331 E1.22957
G1 X76.932 Y89.331 E1.71031
G1 X77.888 Y87.431 E1.74922
G1 X78.723 Y85.909 E1.78098
G1 X79.596 Y84.442 E1.8122
G1 X80.528 Y82.997 E1.84366
G1 X81.525 Y81.566 E1.87556
G1 X82.558 Y80.188 E1.90707
G1 X83.624 Y78.867 E1.93812
G1 X84.752 Y77.568 E1.96959
G1 X85.936 Y76.298 E2.00135
G1 X87.148 Y75.086 E2.03271
G1 X88.419 Y73.903 E2.06447
G1 X89.701 Y72.79 E2.09553
G1 X91.04 Y71.71 E2.127
G1 X92.43 Y70.669 E2.15877
G1 X93.836 Y69.691 E2.1901
G1 X95.289 Y68.754 E2.22172
G1 X96.755 Y67.882 E2.25293
G1 X98.278 Y67.047 E2.2847
G1 X99.808 Y66.278 E2.31602
G1 X101.38 Y65.556 E2.34767
G1 X102.961 Y64.897 E2.379
G1 X104.578 Y64.289 E2.4106
G1 X106.202 Y63.744 E2.44194
G1 X107.867 Y63.249 E2.47372
G1 X109.51 Y62.824 E2.50476
G1 X111.207 Y62.449 E2.53655
G1 X112.899 Y62.137 E2.56803
G1 X114.596 Y61.886 E2.59941
G1 X116.303 Y61.697 E2.63082
G1 X118.016 Y61.567 E2.66225
G1 X119.755 Y61.496 E2.69409
G1 X121.455 Y61.488 E2.72519
G1 X123.187 Y61.542 E2.75689
G1 X124.897 Y61.655 E2.78824
G1 X126.62 Y61.831 E2.81992
G1 X128.322 Y62.066 E2.85135
G1 X130.015 Y62.36 E2.88278
G1 X131.686 Y62.714 E2.91403
G1 X133.371 Y63.132 E2.94579
G1 X135.026 Y63.606 E2.97728
G1 X136.648 Y64.134 E3.00848
G1 X138.264 Y64.724 E3.03995
G1 X139.858 Y65.371 E3.07142
G1 X141.451 Y66.083 E3.10334
G1 X142.974 Y66.831 E3.13438
G1 X144.505 Y67.651 E3.16615
G1 X145.985 Y68.513 E3.19748
G1 X147.434 Y69.428 E3.22883
G1 X148.863 Y70.401 E3.26046
G1 X150.256 Y71.425 E3.29208
G1 X151.605 Y72.492 E3.32355
G1 X152.91 Y73.602 E3.35489
G1 X154.187 Y74.768 E3.38652
G1 X155.405 Y75.962 E3.41772
G1 X156.59 Y77.209 E3.44919
G1 X157.73 Y78.499 E3.48068
G1 X158.834 Y79.84 E3.51246
G1 X159.876 Y81.2 E3.5438
G1 X160.868 Y82.596 E3.57513
G1 X161.827 Y84.053 E3.60703
G1 X162.717 Y85.517 E3.63838
G1 X163.552 Y87.004 E3.66957
G1 X164.344 Y88.541 E3.7012
G1 X165.082 Y90.104 E3.73282
G1 X165.754 Y91.671 E3.76401
G1 X166.375 Y93.275 E3.79548
G1 X166.939 Y94.901 E3.82696
G1 X167.446 Y96.547 E3.85847
G1 X167.894 Y98.208 E3.88994
G1 X168.282 Y99.884 E3.92141
G1 X168.612 Y101.582 E3.95305
G1 X168.882 Y103.29 E3.98468
G1 X169.09 Y104.997 E4.01614
G1 X169.236 Y106.696 E4.04733
G1 X169.322 Y108.415 E4.07882
G1 X169.348 Y110.136 E4.1103
G1 X169.312 Y111.873 E4.14209
G1 X169.215 Y113.583 E4.17342
G1 X169.058 Y115.303 E4.20501
G1 X168.841 Y116.995 E4.23622
G1 X168.563 Y118.694 E4.26771
G1 X168.224 Y120.381 E4.29919
G1 X167.826 Y122.056 E4.33068
G1 X167.369 Y123.714 E4.36214
G1 X166.845 Y125.378 E4.39406
G1 X166.281 Y126.978 E4.42509
G1 X165.649 Y128.58 E4.4566
G1 X164.958 Y130.165 E4.48823
G1 X164.219 Y131.71 E4.51955
G1 X163.414 Y133.249 E4.55133
G1 X162.563 Y134.744 E4.58279
G1 X161.667 Y136.196 E4.61401
G1 X160.712 Y137.627 E4.64548
G1 X159.702 Y139.031 E4.67712
G1 X158.653 Y140.385 E4.70845
G1 X157.551 Y141.707 E4.73993
G1 X156.393 Y143 E4.77169
G1 X155.206 Y144.235 E4.80302
G1 X153.97 Y145.433 E4.83451
G1 X152.687 Y146.592 E4.86614
G1 X151.381 Y147.689 E4.89734
G1 X150.012 Y148.757 E4.9291
G1 X148.625 Y149.764 E4.96045
G1 X147.197 Y150.724 E4.99193
G1 X145.729 Y151.637 E5.02356
G1 X144.252 Y152.487 E5.05473
G1 X142.722 Y153.294 E5.08637
G1 X141.168 Y154.046 E5.11795
G1 X139.598 Y154.737 E5.14933
G1 X137.993 Y155.377 E5.18094
G1 X136.387 Y155.952 E5.21214
G1 X134.739 Y156.477 E5.24378
G1 X133.078 Y156.942 E5.27534
G1 X131.401 Y157.347 E5.3069
G1 X129.724 Y157.691 E5.33821
G1 X128.014 Y157.979 E5.36994
G1 X126.329 Y158.201 E5.40103
G1 X124.601 Y158.366 E5.43278
G1 X122.89 Y158.469 E5.46414
G1 X121.161 Y158.512 E5.49577
G1 X119.456 Y158.493 E5.52697
G1 X117.723 Y158.412 E5.5587
G1 X115.999 Y158.271 E5.59034
G1 X114.303 Y158.072 E5.62158
G1 X112.597 Y157.809 E5.65316
G1 X110.923 Y157.49 E5.68433
G1 X109.221 Y157.102 E5.71627
G1 X107.579 Y156.667 E5.74734
G1 X105.911 Y156.16 E5.77923
G1 X104.297 Y155.608 E5.81044
G1 X102.692 Y154.993 E5.84188
G1 X101.105 Y154.319 E5.87342
G1 X99.539 Y153.59 E5.90502
G1 X98.014 Y152.81 E5.93635
G1 X96.505 Y151.972 E5.96793
G1 X95.024 Y151.077 E5.99958
G1 X93.601 Y150.15 E6.03065
G1 X92.177 Y149.144 E6.06254
G1 X90.805 Y148.103 E6.09405
G1 X89.481 Y147.021 E6.12533
G1 X88.185 Y145.884 E6.15686
G1 X86.934 Y144.703 E6.18834
G1 X85.73 Y143.484 E6.21968
G1 X84.554 Y142.207 E6.25144
G1 X83.434 Y140.9 E6.28292
G1 X82.376 Y139.572 E6.31398
G1 X81.338 Y138.171 E6.34588
G1 X80.368 Y136.759 E6.37722
G1 X79.44 Y135.3 E6.40885
G1 X78.568 Y133.816 E6.44033
G1 X77.753 Y132.309 E6.47167
G1 X76.805 Y130.393 E6.51078
G0 F6000 X76.532 Y130.833
;TYPE:WALL-OUTER
G1 F1200 X50.212 Y130.833 E6.99225
G1 X50.212 Y88.891 E7.7595
G1 X76.661 Y88.891 E8.24334
G1 X77.502 Y87.219 E8.27757
G1 X78.337 Y85.697 E8.30933
G1 X79.226 Y84.204 E8.34112
G1 X80.167 Y82.745 E8.37288
G1 X81.164 Y81.314 E8.40478
G1 X82.206 Y79.924 E8.43656
G1 X83.292 Y78.579 E8.46818
G1 X84.43 Y77.268 E8.49994
G1 X85.614 Y75.998 E8.5317
G1 X86.848 Y74.764 E8.56362
G1 X88.119 Y73.581 E8.59539
G1 X89.425 Y72.448 E8.62702
G1 X90.776 Y71.358 E8.65877
G1 X92.166 Y70.317 E8.69054
G1 X93.598 Y69.321 E8.72245
G1 X95.051 Y68.384 E8.75408
G1 X96.543 Y67.496 E8.78584
G1 X98.066 Y66.661 E8.81761
G1 X99.624 Y65.878 E8.84951
G1 X101.196 Y65.156 E8.88115
G1 X102.806 Y64.485 E8.91306
G1 X104.423 Y63.877 E8.94466
G1 X106.077 Y63.322 E8.97658
G1 X107.742 Y62.827 E9.00835
G1 X109.415 Y62.394 E9.03996
G1 X111.118 Y62.018 E9.07187
G1 X112.819 Y61.704 E9.10351
G1 X114.541 Y61.45 E9.13535
G1 X116.27 Y61.258 E9.16717
G1 X117.994 Y61.127 E9.1988
G1 X119.737 Y61.056 E9.23071
G1 X121.467 Y61.048 E9.26236
G1 X123.201 Y61.102 E9.2941
G1 X124.942 Y61.217 E9.32601
G1 X126.667 Y61.393 E9.35773
G1 X128.382 Y61.63 E9.3894
G1 X130.1 Y61.929 E9.4213
G1 X131.792 Y62.287 E9.45294
G1 X133.485 Y62.707 E9.48485
G1 X135.147 Y63.183 E9.51648
G1 X136.799 Y63.721 E9.54826
G1 X138.429 Y64.316 E9.58
G1 X140.038 Y64.969 E9.61177
G1 X141.631 Y65.681 E9.64368
G1 X143.182 Y66.443 E9.6753
G1 X144.713 Y67.263 E9.70707
G1 X146.22 Y68.141 E9.73897
G1 X147.682 Y69.064 E9.7706
G1 X149.124 Y70.046 E9.80252
G1 X150.517 Y71.07 E9.83414
G1 X151.878 Y72.147 E9.86589
G1 X153.207 Y73.277 E9.8978
G1 X154.484 Y74.443 E9.92944
G1 X155.724 Y75.659 E9.96121
G1 X156.92 Y76.918 E9.99297
G1 X158.07 Y78.219 E10.02474
G1 X159.174 Y79.56 E10.05651
G1 X160.234 Y80.945 E10.08842
G1 X161.236 Y82.354 E10.12004
G1 X162.195 Y83.811 E10.15195
G1 X163.093 Y85.288 E10.18357
G1 X163.943 Y86.802 E10.21533
G1 X164.742 Y88.353 E10.24725
G1 X165.48 Y89.916 E10.27887
G1 X166.164 Y91.512 E10.31063
G1 X166.791 Y93.131 E10.34239
G1 X167.36 Y94.772 E10.37417
G1 X167.871 Y96.432 E10.40594
G1 X168.323 Y98.109 E10.43771
G1 X168.714 Y99.8 E10.46946
G1 X169.047 Y101.513 E10.50138
G1 X169.317 Y103.221 E10.53302
G1 X169.527 Y104.944 E10.56477
G1 X169.675 Y106.674 E10.59653
G1 X169.762 Y108.408 E10.62829
G1 X169.788 Y110.145 E10.66007
G1 X169.752 Y111.882 E10.69185
G1 X169.653 Y113.623 E10.72375
G1 X169.496 Y115.344 E10.75536
G1 X169.275 Y117.066 E10.78712
G1 X168.994 Y118.781 E10.81891
G1 X168.652 Y120.483 E10.85067
G1 X168.25 Y122.173 E10.88245
G1 X167.789 Y123.846 E10.91419
G1 X167.265 Y125.51 E10.94611
G1 X166.69 Y127.14 E10.97773
G1 X166.052 Y128.756 E11.00951
G1 X165.355 Y130.355 E11.04142
G1 X164.609 Y131.914 E11.07303
G1 X163.804 Y133.453 E11.1048
G1 X162.945 Y134.962 E11.13657
G1 X162.033 Y136.44 E11.16834
G1 X161.069 Y137.884 E11.2001
G1 X160.05 Y139.3 E11.23201
G1 X158.991 Y140.667 E11.26364
G1 X157.879 Y142.001 E11.29541
G1 X156.721 Y143.294 E11.32717
G1 X155.512 Y144.551 E11.35907
G1 X154.265 Y145.76 E11.39084
G1 X152.982 Y146.919 E11.42247
G1 X151.652 Y148.036 E11.45424
G1 X150.283 Y149.104 E11.48601
G1 X148.878 Y150.124 E11.51777
G1 X147.43 Y151.097 E11.54968
G1 X145.962 Y152.011 E11.58131
G1 X144.457 Y152.876 E11.61307
G1 X142.914 Y153.69 E11.64498
G1 X141.351 Y154.446 E11.67674
G1 X139.761 Y155.146 E11.70852
G1 X138.156 Y155.786 E11.74013
G1 X136.521 Y156.371 E11.7719
G1 X134.858 Y156.901 E11.80382
G1 X133.194 Y157.367 E11.83544
G1 X131.506 Y157.775 E11.8672
G1 X129.797 Y158.125 E11.89912
G1 X128.087 Y158.413 E11.93084
G1 X126.371 Y158.639 E11.9625
G1 X124.642 Y158.804 E11.99427
G1 X122.901 Y158.909 E12.02618
G1 X121.167 Y158.952 E12.05791
G1 X119.436 Y158.933 E12.08957
G1 X117.694 Y158.852 E12.12148
G1 X115.963 Y158.71 E12.15325
G1 X114.239 Y158.507 E12.185
G1 X112.53 Y158.244 E12.21663
G1 X110.824 Y157.919 E12.2484
G1 X109.123 Y157.531 E12.28032
G1 X107.452 Y157.088 E12.31194
G1 X105.783 Y156.581 E12.34385
G1 X104.14 Y156.019 E12.37562
G1 X102.526 Y155.401 E12.40723
G1 X100.92 Y154.719 E12.43915
G1 X99.353 Y153.989 E12.47077
G1 X97.8 Y153.195 E12.50268
G1 X96.282 Y152.352 E12.53444
G1 X94.796 Y151.454 E12.5662
G1 X93.348 Y150.509 E12.59783
G1 X91.923 Y149.504 E12.62973
G1 X90.539 Y148.454 E12.66151
G1 X89.194 Y147.355 E12.69329
G1 X87.895 Y146.215 E12.7249
G1 X86.632 Y145.023 E12.75667
G1 X85.406 Y143.782 E12.78858
G1 X84.23 Y142.505 E12.82034
G1 X83.1 Y141.186 E12.85211
G1 X82.022 Y139.834 E12.88374
G1 X80.984 Y138.433 E12.91564
G1 X80.005 Y137.008 E12.94727
G1 X79.069 Y135.536 E12.97918
G1 X78.189 Y134.039 E13.01094
G1 X77.366 Y132.518 E13.04258
G1 X76.532 Y130.833 E13.07697
G0 F6000 X76.532 Y130.293
G0 X77.072 Y129.963
;TYPE:SKIN
G1 F1200 X51.082 Y129.963 E13.55241
G1 X51.082 Y89.761 E14.28783
G1 X77.197 Y89.761 E14.76555
G1 X78.265 Y87.638 E14.80902
G1 X79.096 Y86.123 E14.84063
G1 X79.957 Y84.675 E14.87145
G1 X80.881 Y83.243 E14.90263
G1 X81.874 Y81.818 E14.9344
G1 X82.902 Y80.446 E14.96576
G1 X83.949 Y79.149 E14.99625
G1 X85.072 Y77.856 E15.02758
G1 X86.246 Y76.597 E15.05907
G1 X87.447 Y75.395 E15.09015
G1 X88.707 Y74.223 E15.12163
G1 X89.977 Y73.12 E15.1524
G1 X91.298 Y72.054 E15.18346
G1 X92.682 Y71.018 E15.21508
G1 X94.076 Y70.048 E15.24615
G1 X95.522 Y69.115 E15.27763
G1 X96.962 Y68.259 E15.30827
G1 X98.471 Y67.432 E15.33975
G1 X99.995 Y66.666 E15.37095
G1 X101.546 Y65.953 E15.40218
G1 X103.12 Y65.297 E15.43337
G1 X104.722 Y64.695 E15.46468
G1 X106.339 Y64.152 E15.49588
G1 X107.983 Y63.663 E15.52726
G1 X109.602 Y63.244 E15.55785
G1 X111.292 Y62.871 E15.58951
G1 X112.96 Y62.563 E15.62054
G1 X114.653 Y62.312 E15.65185
G1 X116.385 Y62.121 E15.68372
G1 X118.034 Y61.997 E15.71397
G1 X119.773 Y61.926 E15.74581
G1 X121.443 Y61.918 E15.77636
G1 X123.158 Y61.972 E15.80775
G1 X124.868 Y62.085 E15.8391
G1 X126.571 Y62.259 E15.87041
G1 X128.248 Y62.49 E15.90138
G1 X129.941 Y62.784 E15.93281
G1 X131.582 Y63.132 E15.9635
G1 X133.276 Y63.552 E15.99543
G1 X134.893 Y64.015 E16.0262
G1 X136.508 Y64.541 E16.05727
G1 X138.102 Y65.123 E16.08831
G1 X139.682 Y65.764 E16.1195
G1 X141.275 Y66.476 E16.15142
G1 X142.771 Y67.21 E16.1819
G1 X144.288 Y68.022 E16.21338
G1 X145.762 Y68.881 E16.24459
G1 X147.192 Y69.784 E16.27553
G1 X148.621 Y70.757 E16.30715
G1 X149.99 Y71.763 E16.33823
G1 X151.326 Y72.82 E16.36939
G1 X152.641 Y73.938 E16.40097
G1 X153.886 Y75.075 E16.43181
G1 X155.094 Y76.259 E16.46275
G1 X156.273 Y77.5 E16.49407
G1 X157.398 Y78.772 E16.52513
G1 X158.493 Y80.102 E16.55664
G1 X159.549 Y81.482 E16.58843
G1 X160.502 Y82.822 E16.61851
G1 X161.464 Y84.283 E16.65051
G1 X162.342 Y85.728 E16.68144
G1 X163.169 Y87.201 E16.71234
G1 X163.958 Y88.732 E16.74385
G1 X164.687 Y90.274 E16.77505
G1 X165.353 Y91.826 E16.80595
G1 X165.971 Y93.423 E16.83727
G1 X166.529 Y95.028 E16.86836
G1 X167.031 Y96.659 E16.89957
G1 X167.475 Y98.305 E16.93076
G1 X167.861 Y99.973 E16.96208
G1 X168.189 Y101.657 E16.99346
G1 X168.456 Y103.342 E17.02467
G1 X168.662 Y105.034 E17.05585
G1 X168.806 Y106.718 E17.08677
G1 X168.892 Y108.421 E17.11796
G1 X168.918 Y110.127 E17.14917
G1 X168.882 Y111.849 E17.18068
G1 X168.785 Y113.559 E17.21201
G1 X168.632 Y115.248 E17.24304
G1 X168.417 Y116.925 E17.27397
G1 X168.141 Y118.61 E17.3052
G1 X167.806 Y120.281 E17.33638
G1 X167.412 Y121.942 E17.3676
G1 X166.959 Y123.585 E17.39878
G1 X166.437 Y125.242 E17.43056
G1 X165.889 Y126.799 E17.46076
G1 X165.255 Y128.408 E17.49239
G1 X164.548 Y130.028 E17.52473
G1 X163.838 Y131.511 E17.5548
G1 X163.041 Y133.036 E17.58628
G1 X162.193 Y134.524 E17.61761
G1 X161.309 Y135.957 E17.64841
G1 X160.358 Y137.382 E17.67975
G1 X159.362 Y138.767 E17.71096
G1 X158.318 Y140.115 E17.74215
G1 X157.231 Y141.42 E17.77322
G1 X156.073 Y142.713 E17.80497
G1 X154.907 Y143.926 E17.83575
G1 X153.676 Y145.119 E17.86711
G1 X152.411 Y146.263 E17.89831
G1 X151.117 Y147.35 E17.92922
G1 X149.754 Y148.413 E17.96084
G1 X148.385 Y149.407 E17.99179
G1 X146.963 Y150.363 E18.02313
G1 X145.514 Y151.264 E18.05435
G1 X144.051 Y152.106 E18.08523
G1 X142.527 Y152.91 E18.11675
G1 X140.98 Y153.659 E18.14819
G1 X139.431 Y154.341 E18.17915
G1 X137.848 Y154.972 E18.21032
G1 X136.249 Y155.544 E18.24139
G1 X134.609 Y156.067 E18.27288
G1 X132.971 Y156.526 E18.304
G1 X131.315 Y156.925 E18.33516
G1 X129.638 Y157.269 E18.36647
G1 X127.939 Y157.555 E18.39799
G1 X126.288 Y157.773 E18.42845
G1 X124.575 Y157.936 E18.45993
G1 X122.864 Y158.039 E18.49129
G1 X121.155 Y158.082 E18.52256
G1 X119.476 Y158.063 E18.55328
G1 X117.743 Y157.982 E18.58501
G1 X116.087 Y157.848 E18.6154
G1 X114.344 Y157.643 E18.64751
G1 X112.67 Y157.385 E18.67849
G1 X111.011 Y157.07 E18.70938
G1 X109.355 Y156.692 E18.74046
G1 X107.665 Y156.244 E18.77244
G1 X106.05 Y155.753 E18.80332
G1 X104.436 Y155.201 E18.83452
G1 X102.846 Y154.592 E18.86567
G1 X101.285 Y153.93 E18.89669
G1 X99.735 Y153.207 E18.92797
G1 X98.216 Y152.43 E18.95918
G1 X96.714 Y151.596 E18.99061
G1 X95.247 Y150.709 E19.02197
G1 X93.843 Y149.794 E19.05263
G1 X92.425 Y148.792 E19.08439
G1 X91.071 Y147.765 E19.11548
G1 X89.753 Y146.688 E19.14661
G1 X88.475 Y145.566 E19.17772
G1 X87.235 Y144.395 E19.20892
G1 X86.036 Y143.181 E19.24014
G1 X84.875 Y141.921 E19.27148
G1 X83.76 Y140.62 E19.30282
G1 X82.722 Y139.316 E19.33331
G1 X81.684 Y137.915 E19.36521
G1 X80.727 Y136.522 E19.39612
G1 X79.803 Y135.069 E19.42762
G1 X78.947 Y133.611 E19.45855
G1 X78.132 Y132.104 E19.48989
G1 X77.072 Y129.963 E19.5336
G0 F6000 X51.382 Y129.786
G1 F1200 X51.257 Y129.661 E19.53683
G0 F6000 X51.257 Y129.039
G1 F1200 X52.004 Y129.786 E19.55615
G0 F6000 X52.627 Y129.786
G1 F1200 X51.257 Y128.416 E19.5916
G0 F6000 X51.257 Y127.794
G1 F1200 X53.249 Y129.786 E19.64313
G0 F6000 X53.871 Y129.786
G1 F1200 X51.257 Y127.172 E19.71076
G0 F6000 X51.257 Y126.55
G1 F1200 X54.493 Y129.786 E19.79447
G0 F6000 X55.116 Y129.786
G1 F1200 X51.257 Y125.927 E19.89431
G0 F6000 X51.257 Y125.305
G1 F1200 X55.738 Y129.786 E20.01023
G0 F6000 X56.36 Y129.786
G1 F1200 X51.257 Y124.683 E20.14225
G0 F6000 X51.257 Y124.061
G1 F1200 X56.982 Y129.786 E20.29035
G0 F6000 X57.605 Y129.786
G1 F1200 X51.257 Y123.438 E20.45458
G0 F6000 X51.257 Y122.816
G1 F1200 X58.227 Y129.786 E20.63489
G0 F6000 X58.849 Y129.786
G1 F1200 X51.257 Y122.194 E20.8313
G0 F6000 X51.257 Y121.572
G1 F1200 X59.471 Y129.786 E21.0438
G0 F6000 X60.094 Y129.786
G1 F1200 X51.257 Y120.949 E21.27242
G0 F6000 X51.257 Y120.327
G1 F1200 X60.716 Y129.786 E21.51712
G0 F6000 X61.338 Y129.786
G1 F1200 X51.257 Y119.705 E21.77792
G0 F6000 X51.257 Y119.083
G1 F1200 X61.96 Y129.786 E22.05481
G0 F6000 X62.583 Y129.786
