;FLAVOR:Marlin
;TIME:1277
;Filament used: 1.24544m
;Layer height: 0.22
;MINX:91.19
;MINY:85.054
;MINZ:0.1
;MAXX:128.81
;MAXY:134.946
;MAXZ:11.98
;Generated with Cura_SteamEngine 4.2.1
M140 S60
M105
M190 S60
M104 S200
M105
M109 S200
M82 ;absolute extrusion mode
M201 X500.00 Y500.00 Z100.00 E5000.00 ;Setup machine max acceleration
M203 X500.00 Y500.00 Z10.00 E50.00 ;Setup machine max feedrate
M204 P500.00 R1000.00 T500.00 ;Setup Print/Retract/Travel acceleration
M205 X8.00 Y8.00 Z0.40 E5.00 ;Setup Jerk
M220 S100 ;Reset Feedrate
M221 S100 ;Reset Flowrate

G28 ;Home

G92 E0 ;Reset Extruder
G1 Z2.0 F3000 ;Move Z Axis up
G1 X10.1 Y20 Z0.28 F5000.0 ;Move to start position
G1 X10.1 Y200.0 Z0.28 F1500.0 E15 ;Draw the first line
G1 X10.4 Y200.0 Z0.28 F5000.0 ;Move to side a little
G1 X10.4 Y20 Z0.28 F1500.0 E30 ;Draw the second line
G92 E0 ;Reset Extruder
G1 Z2.0 F3000 ;Move Z Axis up

G92 E0
G92 E0
G1 F2700 E-5
;LAYER_COUNT:55
;LAYER:0
M107
;MESH:Back Plate.stl
G0 F6000 X124.52 Y104.873 Z0.1
;TYPE:WALL-INNER
G1 F2700 E0
G1 F1200 X125.043 Y105.591 E0.01625
G1 X125.419 Y106.149 E0.02856
G1 X125.783 Y106.734 E0.04116
G1 X126.109 Y107.304 E0.05317
G1 X126.425 Y107.908 E0.06564
G1 X126.712 Y108.507 E0.07779
G1 X126.98 Y109.125 E0.09012
G1 X127.231 Y109.768 E0.10274
G1 X127.451 Y110.397 E0.11493
G1 X127.648 Y111.03 E0.12706
G1 X127.823 Y111.68 E0.13937
G1 X127.974 Y112.336 E0.15169
G1 X128.101 Y112.999 E0.16404
G1 X128.207 Y113.679 E0.17663
G1 X128.282 Y114.34 E0.1888
G1 X128.336 Y115.002 E0.20095
G1 X128.366 Y115.691 E0.21356
G1 X128.37 Y116.348 E0.22558
G1 X128.349 Y117.035 E0.23815
G1 X128.305 Y117.693 E0.25022
G1 X128.236 Y118.362 E0.26252
G1 X128.139 Y119.044 E0.27512
G1 X128.022 Y119.7 E0.28731
G1 X127.878 Y120.363 E0.29972
G1 X127.715 Y121.003 E0.3118
G1 X127.525 Y121.648 E0.3241
G1 X127.311 Y122.286 E0.33641
G1 X127.074 Y122.916 E0.34873
G1 X126.808 Y123.552 E0.36134
G1 X126.528 Y124.155 E0.3735
G1 X126.228 Y124.748 E0.38566
G1 X125.893 Y125.351 E0.39828
G1 X125.547 Y125.925 E0.41054
G1 X125.181 Y126.484 E0.42276
G1 X124.797 Y127.026 E0.43491
G1 X124.377 Y127.573 E0.44753
G1 X123.953 Y128.087 E0.45972
G1 X123.512 Y128.584 E0.47187
G1 X123.047 Y129.07 E0.48417
G1 X122.55 Y129.553 E0.49685
G1 X122.053 Y130.001 E0.50909
G1 X121.549 Y130.424 E0.52113
G1 X121.012 Y130.842 E0.53358
G1 X120.465 Y131.236 E0.54591
G1 X119.913 Y131.604 E0.55805
G1 X119.327 Y131.964 E0.57063
G1 X118.745 Y132.293 E0.58286
G1 X118.14 Y132.606 E0.59532
G1 X117.524 Y132.897 E0.60778
G1 X116.928 Y133.152 E0.61964
G1 X116.285 Y133.4 E0.63225
G1 X115.656 Y133.616 E0.64441
G1 X115.017 Y133.811 E0.65663
G1 X114.354 Y133.984 E0.66917
G1 X113.688 Y134.134 E0.68166
G1 X113.045 Y134.255 E0.69362
G1 X112.37 Y134.355 E0.70611
G1 X111.708 Y134.428 E0.71829
G1 X111.038 Y134.478 E0.73058
G1 X110.346 Y134.505 E0.74325
G1 X109.698 Y134.506 E0.7551
G1 X109.004 Y134.481 E0.76781
G1 X108.337 Y134.434 E0.78004
G1 X107.676 Y134.361 E0.7922
G1 X107.01 Y134.263 E0.80452
G1 X106.354 Y134.143 E0.81672
G1 X105.68 Y133.993 E0.82935
G1 X105.025 Y133.822 E0.84173
G1 X104.395 Y133.632 E0.85377
G1 X103.743 Y133.41 E0.86637
G1 X103.124 Y133.173 E0.87849
G1 X102.501 Y132.909 E0.89087
G1 X101.909 Y132.631 E0.90284
G1 X101.294 Y132.314 E0.91549
G1 X100.7 Y131.981 E0.92795
G1 X100.139 Y131.637 E0.93999
G1 X99.566 Y131.258 E0.95256
G1 X99.025 Y130.87 E0.96473
G1 X98.499 Y130.463 E0.9769
G1 X97.97 Y130.022 E0.9895
G1 X97.478 Y129.58 E1.0016
G1 X96.991 Y129.109 E1.01399
G1 X96.519 Y128.618 E1.02645
G1 X96.081 Y128.128 E1.03847
G1 X95.641 Y127.598 E1.05107
G1 X95.236 Y127.07 E1.06325
G1 X94.84 Y126.515 E1.07572
G1 X94.479 Y125.966 E1.08774
G1 X94.121 Y125.377 E1.10035
G1 X93.801 Y124.804 E1.11235
G1 X93.487 Y124.19 E1.12497
G1 X93.213 Y123.601 E1.13685
G1 X92.943 Y122.959 E1.14959
G1 X92.709 Y122.345 E1.16161
G1 X92.49 Y121.699 E1.17409
G1 X92.297 Y121.047 E1.18653
G1 X92.131 Y120.407 E1.19862
G1 X91.985 Y119.738 E1.21115
G1 X91.868 Y119.097 E1.22307
G1 X91.77 Y118.409 E1.23578
G1 X91.699 Y117.739 E1.24811
G1 X91.652 Y117.075 E1.26028
G1 X91.63 Y116.402 E1.2726
G1 X91.633 Y115.746 E1.2846
G1 X91.66 Y115.064 E1.29709
G1 X91.711 Y114.385 E1.30954
G1 X91.787 Y113.725 E1.3217
G1 X91.889 Y113.051 E1.33417
G1 X92.01 Y112.406 E1.34617
G1 X92.159 Y111.749 E1.3585
G1 X92.335 Y111.09 E1.37097
G1 X92.529 Y110.454 E1.38314
G1 X92.754 Y109.803 E1.39574
G1 X92.992 Y109.19 E1.40777
G1 X93.259 Y108.572 E1.42008
G1 X93.554 Y107.95 E1.43267
G1 X93.857 Y107.366 E1.44471
G1 X94.197 Y106.767 E1.45731
G1 X94.543 Y106.208 E1.46934
G1 X94.926 Y105.635 E1.48194
G1 X95.451 Y104.91 E1.49832
G1 X95.451 Y85.494 E1.8535
G1 X124.52 Y85.494 E2.38526
G1 X124.52 Y104.873 E2.73976
G0 F6000 X124.96 Y104.73
;TYPE:WALL-OUTER
G1 F1200 X125.408 Y105.345 E2.75368
G1 X125.793 Y105.917 E2.76629
G1 X126.157 Y106.502 E2.77889
G1 X126.499 Y107.1 E2.7915
G1 X126.822 Y107.718 E2.80425
G1 X127.116 Y108.332 E2.81671
G1 X127.39 Y108.965 E2.82932
G1 X127.641 Y109.608 E2.84195
G1 X127.871 Y110.266 E2.8547
G1 X128.073 Y110.916 E2.86715
G1 X128.252 Y111.582 E2.87977
G1 X128.406 Y112.253 E2.89236
G1 X128.536 Y112.931 E2.90499
G1 X128.642 Y113.611 E2.91758
G1 X128.721 Y114.304 E2.93034
G1 X128.776 Y114.983 E2.9428
G1 X128.806 Y115.672 E2.95542
G1 X128.81 Y116.361 E2.96802
G1 X128.789 Y117.05 E2.98063
G1 X128.743 Y117.738 E2.99325
G1 X128.672 Y118.424 E3.00586
G1 X128.575 Y119.106 E3.01846
G1 X128.452 Y119.793 E3.03123
G1 X128.308 Y120.458 E3.04368
G1 X128.137 Y121.127 E3.05631
G1 X127.942 Y121.788 E3.06892
G1 X127.723 Y122.441 E3.08151
G1 X127.48 Y123.086 E3.09412
G1 X127.214 Y123.722 E3.10673
G1 X126.921 Y124.354 E3.11948
G1 X126.613 Y124.962 E3.13195
G1 X126.278 Y125.565 E3.14456
G1 X125.922 Y126.155 E3.15717
G1 X125.54 Y126.738 E3.16992
G1 X125.146 Y127.294 E3.18239
G1 X124.726 Y127.841 E3.195
G1 X124.282 Y128.379 E3.20776
G1 X123.83 Y128.888 E3.22021
G1 X123.354 Y129.386 E3.23282
G1 X122.854 Y129.872 E3.24557
G1 X122.348 Y130.328 E3.25803
G1 X121.819 Y130.771 E3.27065
G1 X121.269 Y131.199 E3.2834
G1 X120.716 Y131.598 E3.29588
G1 X120.143 Y131.979 E3.30846
G1 X119.555 Y132.34 E3.32109
G1 X118.948 Y132.683 E3.33384
G1 X118.343 Y132.997 E3.34631
G1 X117.712 Y133.295 E3.35907
G1 X117.086 Y133.563 E3.37153
G1 X116.443 Y133.811 E3.38414
G1 X115.784 Y134.037 E3.39688
G1 X115.132 Y134.236 E3.40935
G1 X114.465 Y134.41 E3.42196
G1 X113.785 Y134.563 E3.43471
G1 X113.114 Y134.689 E3.4472
G1 X112.425 Y134.791 E3.45994
G1 X111.741 Y134.867 E3.47253
G1 X111.06 Y134.918 E3.48503
G1 X110.363 Y134.945 E3.49779
G1 X109.683 Y134.946 E3.51022
G1 X108.986 Y134.921 E3.52298
G1 X108.306 Y134.873 E3.53545
G1 X107.618 Y134.797 E3.54812
G1 X106.931 Y134.696 E3.56082
G1 X106.261 Y134.573 E3.57328
G1 X105.581 Y134.422 E3.58602
G1 X104.914 Y134.248 E3.59863
G1 X104.253 Y134.049 E3.61126
G1 X103.601 Y133.827 E3.62386
G1 X102.958 Y133.581 E3.63645
G1 X102.329 Y133.314 E3.64895
G1 X101.706 Y133.022 E3.66154
G1 X101.086 Y132.702 E3.6743
G1 X100.485 Y132.365 E3.68691
G1 X99.897 Y132.005 E3.69952
G1 X99.323 Y131.625 E3.71211
G1 X98.769 Y131.228 E3.72458
G1 X98.217 Y130.801 E3.73735
G1 X97.688 Y130.36 E3.74994
G1 X97.175 Y129.899 E3.76256
G1 X96.685 Y129.425 E3.77503
G1 X96.202 Y128.923 E3.78778
G1 X95.742 Y128.409 E3.80039
G1 X95.302 Y127.879 E3.813
G1 X94.887 Y127.338 E3.82547
G1 X94.482 Y126.77 E3.83823
G1 X94.103 Y126.195 E3.85083
G1 X93.745 Y125.606 E3.86344
G1 X93.409 Y125.004 E3.87605
G1 X93.095 Y124.39 E3.88866
G1 X92.807 Y123.772 E3.90114
G1 X92.537 Y123.13 E3.91388
G1 X92.292 Y122.486 E3.92648
G1 X92.073 Y121.84 E3.93896
G1 X91.875 Y121.172 E3.9517
G1 X91.702 Y120.505 E3.96431
G1 X91.555 Y119.832 E3.97691
G1 X91.432 Y119.162 E3.98937
G1 X91.334 Y118.471 E4.00214
G1 X91.261 Y117.786 E4.01474
G1 X91.213 Y117.106 E4.02721
G1 X91.19 Y116.417 E4.03982
G1 X91.193 Y115.728 E4.05243
G1 X91.221 Y115.031 E4.06519
G1 X91.272 Y114.352 E4.07764
G1 X91.352 Y113.659 E4.0904
G1 X91.454 Y112.985 E4.10287
G1 X91.581 Y112.308 E4.11547
G1 X91.734 Y111.635 E4.1281
G1 X91.914 Y110.961 E4.14086
G1 X92.113 Y110.31 E4.15331
G1 X92.338 Y109.659 E4.16591
G1 X92.588 Y109.016 E4.17853
G1 X92.861 Y108.383 E4.19114
G1 X93.156 Y107.761 E4.20374
G1 X93.474 Y107.149 E4.21635
G1 X93.814 Y106.55 E4.22895
G1 X94.177 Y105.963 E4.24158
G1 X94.56 Y105.39 E4.25419
G1 X95.011 Y104.767 E4.26826
G1 X95.011 Y85.054 E4.62887
G1 X124.96 Y85.054 E5.17673
G1 X124.96 Y104.73 E5.53666
G0 F6000 X124.5 Y104.879
G0 X124.09 Y105.013
;TYPE:SKIN
G1 F1200 X124.695 Y105.845 E5.55548
G1 X125.054 Y106.376 E5.56721
G1 X125.41 Y106.947 E5.57951
G1 X125.728 Y107.503 E5.59123
G1 X126.041 Y108.101 E5.60358
G1 X126.307 Y108.654 E5.6148
G1 X126.579 Y109.281 E5.62731
G1 X126.827 Y109.917 E5.63979
G1 X127.043 Y110.533 E5.65174
G1 X127.235 Y111.15 E5.66356
G1 X127.404 Y111.776 E5.67542
G1 X127.553 Y112.424 E5.68758
G1 X127.678 Y113.073 E5.69967
G1 X127.776 Y113.697 E5.71123
G1 X127.858 Y114.425 E5.72463
G1 X127.906 Y115.021 E5.73557
G1 X127.936 Y115.693 E5.74787
G1 X127.94 Y116.335 E5.75962
G1 X127.919 Y117.006 E5.7719
G1 X127.876 Y117.656 E5.78381
G1 X127.81 Y118.301 E5.79567
G1 X127.715 Y118.968 E5.808
G1 X127.598 Y119.624 E5.82019
G1 X127.462 Y120.257 E5.83203
G1 X127.3 Y120.889 E5.84397
G1 X127.117 Y121.511 E5.85583
G1 X126.905 Y122.142 E5.868
G1 X126.677 Y122.75 E5.87988
G1 X126.414 Y123.378 E5.89234
G1 X126.128 Y123.994 E5.90476
G1 X125.852 Y124.539 E5.91594
G1 X125.521 Y125.135 E5.92841
G1 X125.187 Y125.689 E5.94024
G1 X124.825 Y126.242 E5.95233
G1 X124.451 Y126.771 E5.96418
G1 X124.045 Y127.299 E5.97637
G1 X123.626 Y127.807 E5.98841
G1 X123.195 Y128.293 E6.0003
G1 X122.748 Y128.761 E6.01213
G1 X122.256 Y129.239 E6.02468
G1 X121.777 Y129.671 E6.03648
G1 X121.285 Y130.084 E6.04823
G1 X120.754 Y130.497 E6.06054
G1 X120.219 Y130.882 E6.0726
G1 X119.674 Y131.246 E6.08459
G1 X119.131 Y131.581 E6.09626
G1 X118.534 Y131.918 E6.1088
G1 X117.956 Y132.217 E6.1207
G1 X117.34 Y132.508 E6.13316
G1 X116.765 Y132.754 E6.14461
G1 X116.146 Y132.993 E6.15674
G1 X115.517 Y133.209 E6.16891
G1 X114.926 Y133.39 E6.18022
G1 X114.26 Y133.564 E6.19281
G1 X113.594 Y133.714 E6.2053
G1 X112.982 Y133.829 E6.21669
G1 X112.313 Y133.929 E6.22906
G1 X111.629 Y134.004 E6.24165
G1 X111.021 Y134.048 E6.2528
G1 X110.329 Y134.075 E6.26547
G1 X109.714 Y134.076 E6.27672
G1 X108.973 Y134.049 E6.29028
G1 X108.414 Y134.01 E6.30053
G1 X107.733 Y133.935 E6.31307
G1 X107.066 Y133.836 E6.3254
G1 X106.44 Y133.721 E6.33705
G1 X105.774 Y133.573 E6.34953
G1 X105.15 Y133.41 E6.36132
G1 X104.5 Y133.214 E6.37374
G1 X103.882 Y133.003 E6.38569
G1 X103.313 Y132.786 E6.39683
G1 X102.675 Y132.516 E6.4095
G1 X102.106 Y132.248 E6.42101
G1 X101.491 Y131.931 E6.43366
G1 X100.911 Y131.606 E6.44583
G1 X100.351 Y131.262 E6.45785
G1 X99.81 Y130.904 E6.46972
G1 X99.289 Y130.53 E6.48145
G1 X98.763 Y130.123 E6.49361
G1 X98.245 Y129.692 E6.50594
G1 X97.771 Y129.265 E6.51761
G1 X97.29 Y128.8 E6.52985
G1 X96.839 Y128.332 E6.54174
G1 X96.402 Y127.841 E6.55376
G1 X95.978 Y127.33 E6.56591
G1 X95.578 Y126.808 E6.57794
G1 X95.19 Y126.265 E6.59015
G1 X94.839 Y125.73 E6.60185
G1 X94.488 Y125.154 E6.61419
G1 X94.179 Y124.601 E6.62578
G1 X93.87 Y123.994 E6.63824
G1 X93.61 Y123.435 E6.64952
G1 X93.34 Y122.793 E6.66226
G1 X93.114 Y122.199 E6.67389
G1 X92.897 Y121.56 E6.68623
G1 X92.709 Y120.925 E6.69835
G1 X92.547 Y120.299 E6.71017
G1 X92.407 Y119.653 E6.72227
G1 X92.293 Y119.028 E6.73389
G1 X92.196 Y118.348 E6.74645
G1 X92.127 Y117.694 E6.75848
G1 X92.082 Y117.061 E6.77009
G1 X92.06 Y116.404 E6.78212
G1 X92.063 Y115.763 E6.79384
G1 X92.09 Y115.081 E6.80633
G1 X92.135 Y114.463 E6.81766
G1 X92.213 Y113.789 E6.83008
G1 X92.315 Y113.115 E6.84254
G1 X92.43 Y112.501 E6.85397
G1 X92.575 Y111.86 E6.86599
G1 X92.754 Y111.188 E6.87872
G1 X92.936 Y110.595 E6.89006
G1 X93.158 Y109.952 E6.90251
G1 X93.387 Y109.36 E6.91412
G1 X93.648 Y108.756 E6.92615
G1 X93.943 Y108.134 E6.93875
G1 X94.231 Y107.579 E6.95019
G1 X94.567 Y106.987 E6.96264
G1 X94.901 Y106.447 E6.97425
G1 X95.279 Y105.881 E6.9867
G1 X95.881 Y105.049 E7.00549
G1 X95.881 Y85.924 E7.35535
G1 X124.09 Y85.924 E7.87137
G1 X124.09 Y105.013 E8.22057
G0 F6000 X123.913 Y86.578
G1 F1200 X123.435 Y86.1 E8.23294
G0 F6000 X122.813 Y86.1
G1 F1200 X123.913 Y87.2 E8.26139
G0 F6000 X123.913 Y87.822
G1 F1200 X122.19 Y86.1 E8.30596
G0 F6000 X121.568 Y86.1
G1 F1200 X123.913 Y88.444 E8.36661
G0 F6000 X123.913 Y89.067
G1 F1200 X120.946 Y86.1 E8.44337
G0 F6000 X120.324 Y86.1
G1 F1200 X123.913 Y89.689 E8.53621
G0 F6000 X123.913 Y90.311
G1 F1200 X119.701 Y86.1 E8.64517
G0 F6000 X119.079 Y86.1
G1 F1200 X123.913 Y90.933 E8.77021
G0 F6000 X123.913 Y91.556
G1 F1200 X118.457 Y86.1 E8.91136
G0 F6000 X117.835 Y86.1
G1 F1200 X123.913 Y92.178 E9.0686
G0 F6000 X123.913 Y92.8
G1 F1200 X117.212 Y86.1 E9.24194
G0 F6000 X116.59 Y86.1
G1 F1200 X123.913 Y93.422 E9.43138
G0 F6000 X123.913 Y94.045
G1 F1200 X115.968 Y86.1 E9.63692
G0 F6000 X115.346 Y86.1
G1 F1200 X123.913 Y94.667 E9.85855
G0 F6000 X123.913 Y95.289
G1 F1200 X114.723 Y86.1 E10.09629
G0 F6000 X114.101 Y86.1
G1 F1200 X123.913 Y95.911 E10.35011
G0 F6000 X123.913 Y96.534
G1 F1200 X113.479 Y86.1 E10.62004
G0 F6000 X112.857 Y86.1
G1 F1200 X123.913 Y97.156 E10.90606
G0 F6000 X123.913 Y97.778
G1 F1200 X112.234 Y86.1 E11.20819
G0 F6000 X111.612 Y86.1
G1 F1200 X123.913 Y98.4 E11.52641
G0 F6000 X123.913 Y99.023
G1 F1200 X110.99 Y86.1 E11.86073
G0 F6000 X110.368 Y86.1
G1 F1200 X123.913 Y99.645 E12.21114
G0 F6000 X123.913 Y100.267
G1 F1200 X109.745 Y86.1 E12.57766
G0 F6000 X109.123 Y86.1
G1 F1200 X123.913 Y100.889 E12.96027
G0 F6000 X123.913 Y101.512
G1 F1200 X108.501 Y86.1 E13.35898
G0 F6000 X107.879 Y86.1
G1 F1200 X123.913 Y102.134 E13.77379
G0 F6000 X123.913 Y102.756
G1 F1200 X107.256 Y86.1 E14.2047
G0 F6000 X106.634 Y86.1
G1 F1200 X123.913 Y103.379 E14.65171
G0 F6000 X123.913 Y104.001
G1 F1200 X106.012 Y86.1 E15.11482
G0 F6000 X105.39 Y86.1
G1 F1200 X123.913 Y104.623 E15.59401
G0 F6000 X124.382 Y105.714
G1 F1200 X104.767 Y86.1 E16.10144
G0 F6000 X104.145 Y86.1
G1 F1200 X125.494 Y107.449 E16.65375
G0 F6000 X126.144 Y108.721
G1 F1200 X103.523 Y86.1 E17.23896
G0 F6000 X102.901 Y86.1
G1 F1200 X126.586 Y109.785 E17.8517
G0 F6000 X126.924 Y110.745
G1 F1200 X102.278 Y86.1 E18.48929
G0 F6000 X101.656 Y86.1
G1 F1200 X127.18 Y111.624 E19.1496
G0 F6000 X127.376 Y112.442
G1 F1200 X101.034 Y86.1 E19.83108
G0 F6000 X100.411 Y86.1
G1 F1200 X127.52 Y113.208 E20.53238
G0 F6000 X127.625 Y113.936
G1 F1200 X99.789 Y86.1 E21.25251
G0 F6000 X99.167 Y86.1
G1 F1200 X127.697 Y114.63 E21.99059
G0 F6000 X127.741 Y115.296
G1 F1200 X98.545 Y86.1 E22.7459
G0 F6000 X97.922 Y86.1
G1 F1200 X127.76 Y115.937 E23.5178
G0 F6000 X127.756 Y116.555
G1 F1200 X97.3 Y86.1 E24.3057
G0 F6000 X96.678 Y86.1
G1 F1200 X127.731 Y117.153 E25.10905
G0 F6000 X127.69 Y117.734
G1 F1200 X96.056 Y86.1 E25.92743
G0 F6000 X96.056 Y86.722
G1 F1200 X127.632 Y118.298 E26.74431
G0 F6000 X127.554 Y118.842
G1 F1200 X96.056 Y87.344 E27.55917
G0 F6000 X96.056 Y87.966
G1 F1200 X127.463 Y119.373 E28.37168
G0 F6000 X127.359 Y119.892
G1 F1200 X96.056 Y88.589 E29.1815
G0 F6000 X96.056 Y89.211
G1 F1200 X127.243 Y120.399 E29.98833
G0 F6000 X127.115 Y120.892
G1 F1200 X96.056 Y89.833 E30.79184
G0 F6000 X96.056 Y90.455
G1 F1200 X126.973 Y121.373 E31.59168
G0 F6000 X126.819 Y121.841
G1 F1200 X96.056 Y91.078 E32.38753
G0 F6000 X96.056 Y91.7
G1 F1200 X126.656 Y122.301 E33.17918
G0 F6000 X126.485 Y122.751
G1 F1200 X96.056 Y92.322 E33.96638
G0 F6000 X96.056 Y92.944
G1 F1200 X126.301 Y123.19 E34.74884
G0 F6000 X126.107 Y123.618
G1 F1200 X96.056 Y93.567 E35.52627
G0 F6000 X96.056 Y94.189
G1 F1200 X125.908 Y124.041 E36.29855
G0 F6000 X125.698 Y124.454
G1 F1200 X96.056 Y94.811 E37.06541
G0 F6000 X96.056 Y95.433
G1 F1200 X125.476 Y124.853 E37.82652
G0 F6000 X125.247 Y125.247
G1 F1200 X96.056 Y96.056 E38.5817
G0 F6000 X96.056 Y96.679
G1 F1200 X125.012 Y125.634 E39.33079
G0 F6000 X124.766 Y126.01
G1 F1200 X96.056 Y97.301 E40.07351
G0 F6000 X96.056 Y97.923
G1 F1200 X124.512 Y126.379 E40.80968
G0 F6000 X124.251 Y126.74
G1 F1200 X96.056 Y98.545 E41.53909
G0 F6000 X96.056 Y99.168
G1 F1200 X123.98 Y127.091 E42.26148
